P3
 400 225 
255
174 197 0
174 197 0
173 197 0
175 198 0
174 197 0
174 198 0
173 197 0
175 198 0
174 197 0
172 195 0
174 198 0
174 197 0
174 198 0
174 197 0
172 196 0
174 198 0
174 197 0
175 198 0
175 197 0
173 196 0
175 198 0
172 196 0
174 196 0
173 196 0
175 198 0
174 197 0
174 198 0
174 198 0
171 195 0
174 197 0
173 197 0
174 197 0
174 197 0
174 197 0
174 197 0
174 198 0
175 198 0
171 195 0
173 196 0
174 198 0
175 198 0
172 196 0
172 197 0
175 198 0
174 197 0
173 197 0
172 196 0
175 198 0
174 197 0
174 197 0
174 198 0
173 196 0
174 198 0
174 196 0
174 197 0
174 196 0
172 195 0
171 196 0
174 197 0
173 197 0
173 197 0
173 197 0
174 197 0
174 197 0
174 197 0
174 198 0
174 197 0
172 196 0
173 197 0
174 197 0
175 198 0
175 198 0
174 197 0
174 198 0
173 196 0
173 197 0
174 197 0
172 196 0
172 196 0
174 197 0
172 196 0
174 197 0
175 198 0
174 198 0
174 197 0
174 197 0
173 197 0
174 197 0
173 197 0
172 196 0
173 197 0
173 196 0
174 197 0
175 198 0
170 194 0
173 197 0
172 196 0
175 198 0
175 198 0
176 199 0
174 197 0
175 198 0
172 195 0
172 196 0
172 196 0
173 196 0
173 196 0
173 197 0
174 196 0
171 194 0
173 196 0
173 196 0
174 197 0
172 195 0
173 196 0
172 196 0
172 195 0
174 198 0
173 197 0
172 196 0
174 197 0
175 198 0
174 197 0
173 196 0
173 196 0
172 196 0
172 195 0
173 196 0
174 197 0
175 198 0
172 195 0
170 193 0
172 195 0
173 197 0
172 196 0
175 197 0
173 197 0
173 196 0
175 198 0
174 197 0
173 196 0
172 196 0
174 197 0
173 196 0
172 196 0
175 198 0
175 197 0
172 196 0
173 196 0
175 198 0
171 194 0
174 197 0
174 197 0
171 195 0
173 197 0
174 197 0
174 197 0
174 197 0
172 195 0
174 197 0
173 197 0
174 197 0
174 197 0
175 197 0
173 197 0
170 194 0
174 197 0
172 195 0
172 196 0
172 195 0
171 194 0
175 198 0
172 196 0
174 197 0
172 195 0
174 197 0
174 197 0
173 196 0
173 196 0
174 197 0
172 196 0
172 196 0
173 196 0
171 194 0
172 196 0
174 196 0
174 197 0
173 197 0
174 197 0
173 196 0
175 198 0
170 193 0
171 194 0
173 196 0
172 195 0
172 195 0
171 195 0
173 196 0
172 195 0
174 197 0
173 196 0
173 196 0
171 194 0
171 195 0
171 194 0
172 196 0
174 197 0
173 196 0
170 194 0
172 195 0
171 195 0
175 198 0
172 196 0
172 196 0
173 196 0
171 194 0
174 197 0
173 196 0
172 195 0
173 196 0
172 195 0
175 198 0
175 198 0
171 195 0
173 196 0
175 198 0
172 195 0
174 197 0
172 195 0
173 197 0
173 196 0
172 195 0
174 197 0
175 197 0
174 197 0
174 196 0
171 195 0
172 195 0
173 197 0
172 194 0
174 197 11
171 192 22
167 188 25
168 185 42
165 182 37
165 183 32
170 185 49
161 173 55
155 164 54
151 159 57
150 158 61
151 154 71
151 154 69
158 157 75
143 141 75
146 143 78
159 153 89
139 135 82
148 142 89
147 142 86
141 136 83
144 140 87
155 149 93
151 146 91
153 149 94
153 148 95
158 153 97
158 153 95
157 153 100
164 159 103
156 152 95
155 151 97
158 154 98
156 151 96
154 150 97
153 150 97
152 147 95
166 161 105
162 158 104
158 154 102
160 156 103
154 151 99
159 155 101
159 155 102
159 155 102
156 153 100
162 159 105
163 160 106
167 164 110
156 153 101
164 160 105
161 158 104
163 160 107
165 161 107
163 160 107
160 158 106
164 161 108
163 160 106
167 164 108
166 163 108
165 162 108
165 162 108
164 162 108
166 164 110
162 159 106
167 164 109
164 161 108
161 159 107
164 162 108
167 164 109
165 163 109
160 157 104
166 164 110
164 162 108
157 155 103
160 159 106
160 158 105
160 157 105
166 163 109
158 156 104
164 162 108
166 164 110
168 166 110
162 160 108
158 155 103
162 160 107
167 164 110
158 155 103
163 160 107
159 156 104
157 155 104
171 167 111
164 161 108
165 162 108
167 165 110
167 163 108
164 160 106
166 163 108
167 165 110
163 160 107
163 160 106
160 157 104
165 161 106
161 158 104
157 154 102
160 156 102
164 160 106
164 160 106
158 154 101
161 157 104
161 157 103
160 155 102
165 161 105
159 156 104
161 156 103
158 154 100
150 146 92
161 155 102
156 151 99
153 148 96
158 153 99
162 157 102
163 158 103
156 151 97
152 147 93
153 148 95
152 148 94
155 149 92
152 147 89
153 147 91
152 147 90
138 133 80
153 146 89
145 142 81
141 137 80
136 134 73
144 145 69
146 154 57
149 157 61
150 161 49
160 172 47
167 181 53
170 188 37
173 192 34
171 192 11
172 192 22
173 197 0
171 195 0
174 196 0
174 197 0
174 197 0
173 197 0
175 198 0
174 197 0
174 197 0
174 197 0
173 197 0
173 197 0
174 196 0
175 197 0
174 197 0
173 197 0
173 197 0
172 196 0
175 198 0
172 196 0
175 198 0
174 197 0
171 195 0
174 197 0
174 198 0
174 197 0
175 198 0
174 197 0
172 196 0
173 197 0
175 197 0
173 197 0
174 197 0
172 196 0
172 196 0
174 197 0
173 196 0
172 196 0
176 198 0
174 197 0
174 197 0
173 196 0
174 197 0
173 196 0
172 196 0
174 197 0
174 198 0
174 198 0
173 197 0
171 195 0
174 198 0
171 195 0
174 197 0
173 196 0
175 197 0
174 197 0
174 197 0
175 198 0
172 196 0
174 197 0
175 198 0
174 197 0
174 197 0
173 197 0
173 196 0
173 197 0
172 196 0
174 197 0
175 198 0
174 197 0
172 196 0
174 197 0
174 197 0
174 197 0
172 196 0
174 197 0
174 197 0
174 198 0
175 197 0
172 196 0
173 197 0
174 198 0
173 197 0
173 196 0
173 197 0
173 197 0
173 197 0
172 196 0
175 198 0
173 196 0
172 196 0
174 197 0
175 197 0
174 198 0
175 198 0
173 197 0
174 197 0
173 197 0
173 197 0
174 197 0
174 197 0
174 197 0
173 197 0
173 197 0
174 197 0
173 196 0
172 195 0
174 198 0
174 197 0
173 197 0
172 195 0
172 196 0
172 196 0
172 195 0
173 197 0
174 197 0
174 197 0
173 196 0
175 198 0
173 196 0
174 197 0
174 197 0
174 197 0
175 198 0
175 198 0
175 198 0
174 197 0
174 197 0
174 197 0
173 197 0
174 197 0
174 197 0
173 196 0
173 196 0
173 197 0
171 195 0
172 195 0
172 196 0
173 197 0
174 198 0
173 196 0
171 195 0
174 196 0
173 196 0
171 195 0
173 197 0
173 196 0
174 196 0
174 197 0
171 195 0
174 198 0
172 196 0
171 194 0
173 196 0
173 197 0
172 196 0
172 196 0
175 198 0
172 195 0
175 198 0
172 195 0
170 194 0
171 195 0
175 198 0
174 197 0
170 193 0
172 195 0
174 197 0
172 197 0
172 195 0
170 193 0
176 199 0
172 195 0
173 196 0
174 198 0
172 195 0
174 197 0
173 196 0
174 196 0
176 198 0
171 195 0
174 197 0
173 195 0
172 197 0
171 194 0
171 195 0
170 194 0
175 197 0
174 197 0
173 197 0
174 197 0
172 195 0
173 197 0
172 196 0
172 195 0
172 195 0
172 196 0
173 195 0
173 196 0
172 195 0
172 196 0
172 195 0
174 197 0
176 198 0
171 195 0
172 196 0
172 195 0
173 196 0
170 194 0
169 193 0
173 195 0
173 196 0
174 197 0
173 196 0
173 197 0
171 194 0
173 196 0
175 198 0
173 197 0
173 196 0
173 196 0
175 197 0
173 196 0
172 196 0
173 197 0
173 197 0
175 198 0
172 195 0
173 196 0
173 196 0
173 196 0
175 197 0
174 196 0
171 194 0
172 196 0
174 197 0
174 197 0
174 197 0
172 196 0
172 195 0
172 196 0
175 198 0
174 198 0
171 195 0
174 197 0
171 194 0
168 191 0
175 198 0
172 195 0
173 195 0
174 198 0
172 196 0
174 197 0
173 195 0
169 191 16
170 190 25
170 187 36
165 184 25
162 180 32
160 174 49
154 167 47
164 176 58
157 165 60
152 158 56
159 162 73
146 149 73
153 156 70
147 143 76
150 147 81
139 136 72
152 147 85
147 141 86
153 148 89
151 145 88
150 144 90
147 143 89
155 149 94
145 141 88
160 155 97
151 146 93
148 144 91
156 152 96
158 153 96
155 151 98
162 157 100
154 150 98
165 160 103
159 155 102
162 159 102
161 156 101
163 159 104
168 163 108
152 149 99
151 147 97
156 153 100
158 155 103
162 158 105
166 162 106
161 158 104
156 153 102
162 158 105
158 155 103
161 158 105
159 157 105
161 158 104
162 159 106
167 164 109
166 163 109
166 162 108
169 166 110
167 164 109
165 162 108
162 159 106
167 164 109
163 161 108
166 163 109
167 165 110
161 158 106
166 163 109
167 165 110
163 160 108
162 160 107
170 167 111
160 157 105
163 162 108
167 164 110
165 163 109
172 168 112
162 159 106
166 163 109
166 164 110
168 165 110
169 167 111
164 161 108
162 160 108
160 159 106
159 158 106
162 160 107
164 162 108
161 158 106
162 160 107
167 165 110
166 163 109
164 161 108
166 164 109
163 160 107
160 157 104
161 158 105
163 161 108
164 162 108
164 161 106
163 160 106
161 158 105
162 158 105
162 159 106
159 156 104
156 153 101
153 150 99
158 155 103
161 157 104
159 156 102
166 162 106
162 157 104
166 162 106
158 154 101
153 150 98
157 154 101
163 159 102
162 157 103
155 151 97
164 159 103
158 153 97
152 148 96
157 152 96
161 156 100
156 152 98
158 153 98
145 140 89
152 148 93
153 148 94
155 150 94
153 147 91
146 141 89
153 148 93
148 143 89
151 146 90
150 145 88
135 130 80
140 135 80
154 152 86
153 152 79
146 147 71
154 164 58
158 164 63
154 165 49
159 171 54
163 176 44
165 183 32
169 189 28
168 189 16
172 195 11
174 197 0
173 196 0
173 197 0
173 196 0
174 198 0
173 197 0
173 196 0
173 196 0
173 196 0
175 198 0
175 198 0
174 197 0
173 196 0
174 198 0
172 195 0
174 197 0
176 198 0
175 198 0
176 199 0
174 197 0
172 195 0
175 198 0
174 197 0
173 197 0
172 196 0
172 196 0
174 198 0
174 198 0
172 195 0
172 196 0
174 197 0
173 197 0
174 198 0
174 198 0
173 197 0
173 197 0
174 196 0
173 196 0
174 197 0
175 197 0
174 198 0
174 198 0
175 198 0
173 196 0
173 197 0
174 197 0
176 199 0
173 197 0
175 198 0
174 197 0
174 197 0
174 197 0
174 197 0
174 196 0
174 197 0
173 197 0
170 194 0
175 197 0
173 197 0
174 197 0
173 197 0
171 194 0
175 198 0
173 196 0
173 197 0
171 195 0
173 197 0
173 196 0
174 197 0
175 197 0
173 197 0
174 197 0
173 196 0
172 196 0
173 196 0
176 199 0
174 197 0
175 198 0
174 197 0
174 197 0
174 197 0
173 196 0
173 196 0
173 196 0
175 197 0
174 197 0
175 197 0
173 197 0
173 197 0
173 197 0
173 196 0
171 195 0
174 197 0
175 198 0
174 198 0
171 195 0
174 197 0
175 198 0
171 196 0
173 196 0
173 197 0
174 198 0
172 195 0
174 197 0
173 197 0
176 198 0
174 198 0
173 197 0
173 197 0
174 197 0
172 196 0
174 197 0
174 197 0
174 197 0
173 196 0
175 197 0
174 197 0
174 197 0
174 198 0
174 197 0
174 198 0
173 196 0
173 196 0
174 197 0
173 196 0
175 198 0
171 195 0
174 197 0
174 197 0
171 195 0
173 197 0
173 196 0
174 197 0
171 194 0
172 196 0
173 196 0
172 196 0
173 196 0
174 197 0
175 198 0
174 197 0
173 196 0
171 195 0
173 197 0
174 197 0
173 196 0
172 196 0
174 198 0
173 197 0
172 196 0
173 196 0
173 197 0
173 197 0
174 197 0
173 196 0
173 196 0
173 197 0
173 197 0
172 195 0
172 196 0
173 196 0
174 197 0
173 197 0
173 196 0
173 197 0
173 196 0
175 198 0
172 195 0
175 198 0
173 197 0
171 194 0
173 197 0
174 197 0
172 196 0
174 197 0
171 194 0
172 195 0
174 197 0
172 195 0
172 196 0
173 196 0
173 197 0
172 196 0
171 194 0
172 196 0
174 197 0
174 197 0
172 195 0
171 195 0
174 197 0
174 197 0
173 197 0
171 195 0
174 197 0
172 195 0
173 196 0
172 195 0
173 196 0
173 197 0
173 195 0
173 196 0
170 194 0
172 195 0
170 192 0
170 193 0
174 196 0
175 198 0
172 195 0
173 197 0
173 197 0
173 196 0
171 195 0
172 195 0
174 197 0
172 196 0
173 195 0
175 198 0
174 197 0
172 195 0
175 198 0
173 196 0
173 196 0
173 197 0
171 194 0
172 196 0
175 198 0
174 196 0
174 196 0
174 197 0
175 198 0
172 196 0
174 197 0
173 196 0
173 196 0
172 195 0
170 193 0
174 198 0
173 196 0
172 195 0
173 196 0
170 194 0
175 198 0
173 195 0
172 195 0
170 193 0
175 197 0
172 195 0
172 194 0
174 197 0
173 197 0
174 196 0
171 194 11
172 194 16
172 194 16
166 187 19
165 184 32
162 179 37
160 176 39
151 165 37
160 171 54
158 166 62
163 170 62
151 156 61
146 150 61
154 154 70
142 143 72
155 152 79
144 143 76
141 136 83
140 136 81
156 149 86
152 146 92
150 145 88
157 152 94
149 143 89
153 149 94
150 145 92
149 145 91
155 150 94
155 150 98
160 155 99
157 152 95
156 152 98
150 147 96
151 148 96
154 150 98
160 156 103
154 152 97
161 156 102
160 156 102
165 161 104
155 151 99
157 153 100
157 153 102
160 157 104
159 156 103
159 157 104
165 162 108
161 159 106
159 155 103
161 158 105
166 163 109
153 150 100
161 158 105
166 164 110
168 165 109
165 162 108
166 163 108
163 161 108
163 161 108
169 165 110
164 161 108
161 158 105
167 164 109
165 162 109
165 162 108
165 163 109
166 164 110
162 160 107
166 164 110
164 163 109
161 160 107
165 162 108
163 161 108
162 160 107
167 165 111
162 159 107
165 163 109
164 162 108
164 162 108
159 157 106
167 164 109
169 165 110
165 163 109
166 163 109
166 163 108
167 165 110
167 164 109
167 164 109
166 164 110
166 163 109
166 163 109
171 167 111
161 158 106
164 162 108
164 161 108
157 154 103
169 164 109
162 160 106
164 161 108
161 158 105
157 154 101
164 161 108
168 165 108
165 161 107
164 160 106
160 157 103
162 158 104
163 160 106
157 153 101
167 162 106
163 159 104
166 160 104
166 161 106
162 158 104
158 154 100
158 155 101
157 153 101
153 149 97
158 155 101
156 152 97
158 152 98
162 156 101
151 147 94
152 148 95
157 152 97
165 159 100
153 147 94
155 149 93
151 146 90
146 142 89
155 149 93
150 145 89
155 149 90
152 146 92
147 142 86
158 152 88
153 147 91
149 144 87
139 139 72
153 153 73
154 160 66
152 158 61
158 169 49
150 162 49
162 175 51
171 185 52
167 184 41
171 191 32
172 192 16
172 194 16
174 197 0
170 194 0
174 197 0
174 198 0
174 196 0
175 198 0
174 198 0
174 198 0
173 197 0
173 197 0
175 197 0
173 196 0
175 198 0
175 198 0
173 197 0
173 197 0
171 194 0
173 197 0
174 196 0
174 197 0
174 198 0
174 198 0
174 198 0
172 196 0
173 197 0
175 198 0
174 198 0
173 197 0
174 198 0
173 196 0
176 199 0
173 197 0
173 197 0
176 199 0
173 197 0
175 198 0
171 195 0
175 198 0
173 197 0
173 197 0
175 198 0
172 196 0
172 196 0
174 197 0
175 197 0
174 197 0
173 196 0
174 198 0
173 196 0
174 198 0
173 197 0
174 197 0
174 197 0
174 197 0
174 197 0
173 196 0
174 197 0
173 197 0
174 197 0
174 198 0
174 197 0
175 198 0
172 196 0
172 196 0
173 196 0
175 198 0
172 195 0
175 197 0
175 198 0
172 196 0
174 197 0
172 197 0
173 197 0
174 197 0
174 197 0
175 198 0
173 197 0
172 196 0
173 197 0
174 197 0
173 196 0
173 197 0
173 197 0
172 195 0
172 196 0
172 196 0
173 197 0
175 198 0
174 198 0
173 196 0
173 197 0
174 198 0
173 197 0
171 195 0
173 196 0
175 198 0
175 198 0
174 198 0
172 196 0
172 196 0
174 198 0
174 197 0
174 197 0
174 197 0
174 197 0
172 196 0
173 197 0
174 196 0
174 197 0
174 196 0
174 197 0
174 197 0
173 197 0
173 196 0
172 195 0
173 197 0
174 197 0
173 196 0
173 196 0
170 194 0
174 197 0
174 197 0
172 196 0
173 197 0
172 195 0
174 197 0
175 198 0
173 197 0
173 196 0
175 198 0
172 195 0
171 195 0
174 197 0
174 197 0
172 195 0
172 196 0
173 196 0
172 196 0
172 196 0
172 196 0
173 196 0
171 195 0
174 197 0
173 196 0
175 197 0
175 197 0
174 197 0
174 197 0
173 197 0
173 196 0
173 196 0
172 196 0
172 196 0
171 195 0
172 195 0
174 197 0
173 197 0
174 197 0
173 196 0
171 195 0
174 198 0
173 197 0
171 195 0
174 198 0
174 197 0
173 197 0
173 196 0
173 195 0
172 196 0
173 195 0
172 195 0
172 196 0
174 197 0
173 197 0
173 197 0
173 196 0
172 196 0
173 195 0
173 197 0
172 196 0
171 194 0
172 195 0
174 197 0
173 197 0
174 196 0
174 197 0
172 195 0
173 196 0
174 197 0
175 198 0
170 194 0
175 198 0
174 198 0
172 195 0
175 198 0
171 194 0
174 197 0
173 196 0
174 197 0
174 197 0
171 195 0
175 197 0
173 196 0
170 194 0
172 196 0
174 197 0
170 194 0
172 196 0
172 195 0
174 198 0
173 197 0
171 194 0
173 196 0
173 197 0
173 197 0
174 198 0
174 197 0
173 196 0
171 194 0
173 196 0
173 195 0
175 198 0
172 195 0
172 194 0
174 197 0
173 195 0
175 197 0
172 195 0
172 196 0
173 197 0
174 197 0
172 195 0
174 197 0
172 195 0
174 197 0
171 194 0
173 197 0
172 194 0
174 197 0
171 194 0
173 197 0
172 196 0
173 197 0
174 197 0
172 196 0
173 196 0
170 194 0
173 196 0
172 195 0
172 195 0
174 197 11
160 181 16
166 188 0
165 185 25
161 178 35
167 185 41
160 173 44
159 170 45
162 173 54
151 159 49
159 169 58
152 157 66
146 150 61
154 156 72
151 148 80
144 142 77
150 146 87
151 146 90
147 141 85
153 147 90
155 149 93
145 139 86
157 152 91
158 153 95
155 150 93
151 147 94
155 150 95
154 150 95
150 146 91
158 153 98
153 149 97
162 156 100
160 155 100
151 147 94
159 155 101
157 154 99
156 152 98
152 149 99
157 153 102
160 156 103
163 158 104
159 156 103
157 154 102
157 154 102
164 161 108
163 160 105
166 163 108
162 158 103
161 158 106
162 159 104
160 158 105
167 162 108
168 165 109
163 161 107
161 158 105
160 158 105
165 162 109
165 162 108
167 164 109
164 161 108
161 159 106
165 162 108
167 163 108
164 162 108
165 162 108
166 164 110
163 161 108
164 163 109
160 157 105
169 166 111
166 164 109
166 162 108
162 159 106
170 168 112
166 164 109
165 162 108
167 165 110
167 164 109
168 166 110
163 161 108
166 163 109
167 164 110
168 165 110
166 164 109
167 164 110
164 161 108
167 166 111
167 165 110
166 164 109
163 160 107
166 164 109
163 160 106
161 159 107
165 162 108
167 163 109
166 163 108
168 165 110
163 160 107
168 165 110
164 161 107
165 162 108
165 162 108
168 164 108
168 164 109
161 158 105
156 153 102
164 161 105
169 164 109
168 164 108
162 158 104
166 162 106
161 157 102
161 158 103
168 163 106
157 154 101
167 163 108
158 154 100
160 156 102
162 157 101
163 157 101
150 146 93
149 145 95
155 150 95
156 152 98
155 151 95
156 151 95
159 154 98
150 145 92
152 147 94
149 144 87
159 152 95
142 138 86
147 142 86
149 144 88
146 140 84
155 149 90
145 140 81
148 142 84
150 146 84
155 152 79
150 150 75
148 151 63
154 164 56
155 166 53
155 169 45
166 179 48
168 186 41
167 187 25
172 191 28
172 192 25
173 196 0
175 198 0
174 197 0
172 196 0
174 198 0
175 198 0
174 198 0
173 197 0
174 197 0
173 197 0
173 196 0
174 198 0
171 196 0
175 198 0
174 197 0
173 196 0
174 197 0
174 197 0
174 197 0
172 195 0
171 195 0
172 195 0
173 197 0
176 198 0
174 198 0
174 198 0
173 196 0
174 197 0
175 198 0
173 197 0
174 197 0
171 195 0
172 196 0
174 198 0
173 197 0
174 198 0
172 196 0
173 197 0
173 197 0
174 197 0
172 195 0
174 198 0
175 198 0
174 197 0
174 197 0
173 197 0
172 196 0
173 196 0
173 196 0
173 196 0
173 197 0
174 198 0
175 198 0
174 197 0
174 197 0
173 197 0
172 195 0
172 196 0
174 198 0
171 195 0
172 197 0
174 197 0
174 197 0
175 198 0
176 198 0
174 197 0
176 199 0
173 197 0
174 198 0
174 198 0
172 195 0
176 199 0
170 194 0
172 196 0
172 195 0
176 199 0
174 197 0
172 195 0
173 197 0
175 198 0
174 197 0
175 198 0
175 198 0
175 198 0
175 198 0
173 197 0
171 196 0
171 195 0
174 198 0
174 197 0
176 198 0
174 197 0
172 196 0
174 197 0
174 197 0
173 197 0
172 195 0
175 197 0
174 197 0
173 196 0
175 198 0
174 197 0
174 197 0
172 194 0
175 198 0
174 198 0
173 197 0
174 197 0
172 196 0
171 194 0
174 197 0
172 195 0
176 198 0
172 195 0
174 198 0
172 197 0
173 197 0
172 196 0
171 194 0
175 198 0
172 196 0
173 197 0
173 196 0
171 194 0
173 196 0
175 197 0
173 197 0
172 195 0
173 196 0
174 197 0
175 197 0
173 197 0
173 195 0
173 197 0
170 194 0
172 195 0
174 197 0
171 194 0
175 197 0
172 196 0
173 196 0
173 196 0
174 198 0
170 194 0
173 197 0
172 196 0
172 195 0
175 198 0
174 197 0
172 195 0
173 197 0
171 194 0
173 196 0
173 196 0
173 196 0
171 194 0
174 198 0
172 195 0
171 195 0
172 195 0
173 197 0
173 197 0
174 196 0
174 197 0
172 197 0
171 194 0
173 197 0
173 197 0
173 196 0
173 196 0
173 197 0
171 195 0
174 198 0
174 197 0
174 197 0
175 198 0
172 196 0
174 197 0
174 197 0
174 198 0
174 197 0
173 197 0
172 196 0
173 196 0
171 195 0
170 194 0
174 197 0
172 195 0
174 197 0
175 197 0
173 197 0
173 195 0
174 197 0
173 197 0
171 194 0
172 196 0
173 196 0
173 196 0
174 198 0
171 194 0
172 195 0
175 198 0
173 196 0
171 195 0
172 196 0
168 191 0
173 196 0
173 196 0
173 196 0
171 193 0
172 195 0
173 197 0
172 195 0
174 197 0
174 197 0
174 196 0
174 197 0
172 195 0
173 195 0
173 196 0
175 198 0
171 194 0
172 195 0
172 196 0
173 196 0
173 196 0
171 194 0
173 196 0
169 193 0
171 194 0
173 196 0
174 196 0
173 196 0
172 194 0
172 196 0
172 195 0
173 196 0
174 197 0
172 196 0
171 194 0
171 194 0
173 196 0
172 194 0
173 194 0
174 197 0
171 195 0
169 193 0
173 196 0
173 196 0
173 194 0
171 190 16
166 188 19
169 188 25
169 186 39
161 179 30
159 173 47
161 176 39
160 173 47
156 165 57
155 162 61
151 155 62
148 151 66
141 139 71
157 154 79
145 141 79
139 135 73
145 141 80
149 143 85
153 148 89
156 150 88
147 142 86
151 145 89
144 139 84
158 153 97
148 144 90
156 151 94
151 146 94
156 151 96
152 148 93
155 151 96
157 152 97
155 150 99
150 146 94
152 149 97
155 150 96
157 152 99
157 154 101
158 154 101
161 157 103
160 156 102
165 161 106
156 152 100
154 151 100
160 157 105
164 160 105
155 152 102
161 158 105
158 156 104
164 160 107
161 158 105
168 163 107
162 159 105
166 163 108
155 153 103
169 165 109
165 162 109
167 164 109
160 158 105
168 165 110
169 165 110
163 160 106
166 163 109
169 165 110
165 162 108
167 164 110
163 161 108
165 162 108
170 168 112
169 166 110
165 163 109
168 165 111
167 164 110
165 162 108
167 163 109
168 165 110
166 164 110
166 163 109
163 161 108
164 162 108
166 163 109
167 165 110
168 165 110
163 161 108
168 165 110
165 163 109
167 165 110
168 164 109
167 164 109
160 157 105
160 158 106
164 161 108
164 162 108
161 158 105
169 166 110
162 159 106
163 160 107
159 155 103
169 166 109
166 162 107
165 162 107
163 159 105
162 160 106
165 162 106
169 165 109
169 165 110
165 161 106
161 157 104
165 161 106
162 158 104
161 158 104
163 159 104
160 156 103
163 158 103
165 160 105
166 162 108
161 156 101
169 164 106
156 152 99
168 162 106
160 155 101
158 154 99
163 158 104
160 155 98
160 156 101
164 158 103
155 150 93
161 155 99
160 155 99
155 149 93
148 143 87
153 148 95
160 154 94
156 151 93
150 144 90
151 145 87
139 134 81
145 139 84
152 146 87
152 147 88
154 151 79
144 145 68
145 148 71
146 155 51
162 171 59
163 174 56
155 168 45
164 179 41
165 183 37
167 186 28
169 190 22
174 197 11
174 197 0
173 196 0
172 196 0
174 198 0
172 196 0
173 196 0
175 198 0
175 198 0
175 198 0
174 197 0
175 197 0
174 197 0
174 198 0
175 198 0
171 195 0
174 197 0
175 198 0
174 197 0
173 196 0
173 197 0
174 198 0
172 197 0
174 197 0
174 198 0
172 195 0
172 196 0
175 198 0
174 198 0
174 198 0
174 197 0
174 197 0
174 197 0
174 197 0
174 197 0
174 197 0
173 197 0
172 195 0
173 196 0
172 196 0
175 198 0
174 197 0
175 198 0
175 198 0
175 198 0
174 197 0
174 197 0
174 197 0
174 197 0
176 198 0
174 198 0
173 197 0
175 198 0
176 199 0
172 196 0
173 196 0
174 197 0
172 195 0
173 196 0
175 197 0
175 198 0
171 195 0
173 197 0
173 197 0
176 198 0
172 196 0
173 197 0
174 198 0
172 196 0
175 198 0
174 197 0
174 198 0
173 196 0
172 196 0
175 198 0
174 198 0
172 196 0
174 197 0
173 196 0
174 197 0
175 197 0
173 196 0
172 196 0
173 197 0
174 197 0
175 198 0
174 197 0
173 196 0
174 197 0
174 197 0
170 195 0
173 197 0
174 197 0
173 196 0
173 196 0
173 197 0
174 197 0
173 197 0
173 197 0
175 198 0
175 197 0
171 194 0
173 196 0
175 198 0
173 197 0
174 198 0
172 195 0
174 198 0
173 196 0
171 195 0
172 196 0
171 194 0
174 197 0
172 195 0
173 197 0
175 198 0
173 197 0
173 196 0
175 197 0
173 196 0
172 195 0
175 198 0
174 198 0
174 197 0
174 196 0
172 195 0
172 195 0
170 194 0
175 198 0
175 198 0
175 198 0
173 197 0
172 196 0
173 196 0
174 197 0
171 195 0
174 197 0
174 197 0
173 197 0
172 195 0
171 194 0
173 195 0
173 197 0
174 197 0
173 196 0
172 196 0
173 197 0
174 198 0
175 198 0
174 196 0
174 196 0
173 196 0
171 194 0
173 196 0
173 196 0
174 197 0
174 197 0
169 193 0
173 196 0
171 195 0
172 196 0
173 197 0
174 197 0
173 196 0
173 196 0
173 197 0
173 197 0
171 195 0
173 197 0
172 195 0
171 194 0
173 197 0
171 195 0
174 198 0
174 197 0
173 196 0
174 197 0
175 198 0
174 197 0
172 194 0
175 198 0
171 194 0
173 195 0
173 197 0
174 197 0
173 197 0
175 198 0
174 197 0
172 196 0
173 196 0
170 193 0
173 197 0
173 195 0
173 196 0
175 197 0
171 194 0
173 197 0
172 196 0
174 197 0
172 195 0
172 195 0
173 196 0
172 196 0
173 196 0
173 196 0
172 195 0
174 197 0
174 196 0
174 197 0
172 195 0
174 197 0
170 193 0
174 197 0
173 197 0
172 195 0
172 195 0
174 197 0
174 197 0
172 195 0
170 194 0
174 197 0
172 195 0
173 197 0
173 196 0
172 195 0
172 195 0
173 196 0
174 197 0
172 195 0
172 196 0
171 194 0
170 193 0
173 196 0
173 197 0
172 195 0
175 198 0
173 197 0
173 196 0
173 196 0
172 195 0
171 195 0
173 196 0
171 194 0
172 196 0
173 196 0
173 195 0
172 194 0
172 195 0
174 196 0
174 197 0
172 194 19
167 189 16
164 184 25
169 189 28
165 181 39
156 170 47
162 177 45
157 167 52
154 163 57
147 153 58
154 157 71
155 157 70
144 143 70
148 144 77
138 136 71
136 132 77
152 146 89
140 135 83
149 143 87
142 138 86
148 143 87
140 135 84
149 145 90
148 144 93
156 151 95
155 150 93
147 143 92
155 151 97
153 148 95
165 160 102
147 144 93
153 150 97
159 154 100
160 156 101
158 154 101
159 154 101
164 159 102
161 158 104
163 158 102
157 154 101
160 156 103
162 159 105
159 156 104
157 154 104
163 160 106
158 155 102
160 157 105
160 157 104
157 154 103
159 157 105
164 161 107
163 161 108
163 161 107
163 161 108
158 154 101
162 160 108
165 163 109
163 160 108
157 155 103
162 160 107
167 164 110
168 165 110
161 158 106
170 167 110
167 163 108
168 165 110
169 166 112
161 159 106
163 160 106
167 164 109
163 161 107
166 164 110
165 162 108
164 162 108
168 166 111
167 165 110
169 166 111
168 166 110
161 159 106
167 164 110
167 165 110
169 166 110
167 165 110
167 165 110
169 166 111
166 164 109
168 166 110
167 164 109
170 167 110
162 160 107
165 163 109
163 161 108
171 168 112
166 163 108
165 163 108
169 165 109
162 160 106
165 162 108
163 160 106
170 167 111
165 163 109
166 162 107
162 158 105
164 160 106
162 159 104
162 158 104
162 159 104
161 157 103
163 160 104
162 158 104
159 156 102
165 160 104
160 156 102
161 158 104
158 154 99
169 164 104
164 160 105
162 158 104
163 159 103
162 158 103
158 154 99
162 156 102
161 155 101
159 153 97
158 151 96
157 152 97
165 160 98
159 154 96
144 140 88
156 151 97
152 147 93
157 151 93
163 156 96
156 151 95
157 150 93
159 153 92
145 140 86
156 149 90
150 144 85
142 137 81
147 145 80
155 156 75
155 159 66
157 164 63
158 168 54
160 171 51
158 173 42
164 180 41
168 186 32
166 186 19
168 190 16
173 195 11
175 197 0
174 198 0
176 198 0
174 197 0
174 197 0
173 196 0
175 198 0
173 197 0
176 198 0
174 198 0
173 196 0
175 198 0
175 198 0
173 197 0
173 197 0
174 197 0
175 198 0
174 198 0
174 197 0
174 197 0
173 197 0
174 197 0
173 196 0
173 197 0
174 197 0
171 195 0
174 197 0
174 197 0
174 198 0
172 196 0
173 196 0
172 196 0
174 197 0
175 198 0
173 196 0
174 197 0
175 198 0
174 197 0
173 197 0
175 198 0
174 197 0
174 197 0
172 196 0
174 196 0
173 197 0
172 195 0
172 196 0
173 196 0
173 196 0
172 195 0
174 197 0
173 197 0
171 195 0
173 196 0
175 198 0
174 198 0
175 197 0
173 197 0
171 194 0
173 196 0
174 197 0
174 198 0
172 196 0
172 196 0
174 198 0
173 197 0
176 198 0
175 198 0
173 196 0
171 194 0
173 196 0
174 197 0
174 197 0
172 196 0
174 197 0
174 197 0
176 199 0
172 195 0
174 196 0
173 196 0
173 196 0
175 198 0
173 196 0
173 197 0
174 198 0
172 196 0
173 196 0
175 198 0
175 198 0
172 196 0
172 195 0
174 197 0
175 198 0
174 196 0
172 196 0
172 196 0
173 197 0
174 198 0
170 194 0
174 198 0
174 197 0
175 198 0
175 198 0
174 197 0
175 197 0
173 197 0
173 196 0
173 196 0
172 195 0
172 195 0
175 197 0
173 196 0
173 197 0
172 196 0
173 196 0
172 194 0
172 196 0
174 197 0
175 198 0
173 197 0
174 197 0
173 197 0
174 197 0
171 194 0
174 197 0
173 196 0
171 195 0
172 196 0
171 195 0
175 198 0
173 196 0
172 195 0
173 196 0
173 196 0
170 193 0
175 198 0
171 195 0
173 196 0
174 197 0
175 198 0
173 197 0
170 193 0
174 198 0
175 198 0
173 196 0
173 196 0
173 195 0
174 197 0
174 197 0
173 196 0
172 195 0
174 197 0
175 197 0
174 197 0
173 196 0
173 197 0
171 194 0
173 196 0
175 198 0
173 196 0
171 195 0
174 197 0
172 196 0
173 196 0
173 197 0
173 196 0
170 194 0
173 196 0
171 194 0
172 195 0
173 196 0
176 198 0
174 197 0
170 193 0
173 197 0
171 194 0
173 196 0
171 194 0
173 197 0
173 197 0
174 197 0
173 197 0
173 196 0
172 195 18
171 196 0
173 197 0
173 196 0
170 193 18
172 196 0
172 196 0
175 198 0
173 196 0
171 195 0
170 193 0
172 194 0
172 196 0
174 198 0
173 195 0
175 197 0
172 196 0
174 197 0
174 197 0
169 193 0
169 192 0
173 196 0
172 196 0
172 196 0
173 197 0
173 196 0
173 197 0
173 196 0
173 196 0
172 195 0
173 196 0
173 196 0
172 194 0
174 197 0
172 196 0
171 195 0
173 196 0
175 197 0
175 198 0
171 196 0
172 194 0
174 197 0
173 197 0
171 195 0
173 196 0
173 195 0
174 196 0
172 194 0
172 195 0
174 197 0
173 196 0
173 197 0
173 197 0
171 194 0
172 196 0
170 194 0
171 195 0
172 196 0
170 193 0
172 196 0
173 197 0
172 197 0
172 196 0
172 195 0
171 195 0
166 186 16
168 186 34
164 179 37
166 183 29
158 174 38
158 170 45
157 169 52
154 164 53
158 161 69
144 151 56
147 152 63
147 147 73
149 149 75
149 145 75
150 146 83
146 140 81
148 142 85
148 143 88
151 145 83
144 139 83
146 140 89
155 150 92
153 148 91
152 147 97
158 154 96
162 157 99
151 146 93
160 155 100
153 149 96
160 156 99
157 153 99
152 147 94
157 153 100
156 152 99
154 150 99
156 152 100
158 153 102
162 157 104
160 156 102
168 163 108
158 155 103
161 157 104
162 158 104
162 158 105
159 156 104
167 162 106
159 156 105
164 161 107
161 159 106
158 155 103
160 156 105
164 161 107
167 164 109
163 160 106
166 163 109
167 164 109
160 157 105
164 161 108
166 163 109
166 164 109
171 167 111
167 164 109
160 157 104
163 161 107
167 164 109
164 161 107
169 166 110
161 159 106
166 163 108
165 163 109
168 164 109
167 164 109
170 167 112
170 166 110
169 166 111
162 159 106
170 167 111
160 157 105
163 161 108
166 165 110
161 159 106
169 166 110
171 168 112
161 158 105
166 163 109
171 168 112
166 163 109
163 160 107
170 166 110
167 164 109
165 162 108
166 163 109
165 163 109
168 165 109
163 160 107
164 161 108
172 169 112
169 166 110
161 159 105
168 165 110
167 163 108
169 165 110
157 154 103
167 164 108
162 160 106
165 161 106
167 163 108
165 161 106
162 158 104
166 162 106
164 161 106
164 160 106
163 159 103
169 164 106
163 159 104
162 157 103
160 155 99
157 153 99
158 154 98
167 162 103
154 150 97
162 157 101
151 147 95
163 158 103
155 150 97
162 156 101
154 149 95
159 153 96
153 149 93
154 149 95
155 150 92
152 148 93
145 139 84
159 152 90
145 140 87
142 137 80
139 133 82
146 140 84
149 143 84
141 134 77
145 140 78
147 145 74
153 155 68
137 142 59
161 171 61
154 166 48
154 168 42
159 172 39
165 182 42
163 182 28
172 193 19
174 198 0
174 197 0
172 196 0
174 198 0
174 197 0
173 197 0
175 198 0
173 197 0
176 199 0
175 198 0
175 198 0
174 197 0
171 195 0
173 197 0
174 198 0
173 196 0
174 197 0
173 196 0
173 197 0
175 198 0
173 196 0
173 196 0
173 196 0
175 198 0
172 196 0
171 195 0
173 196 0
175 198 0
173 197 0
173 197 0
172 195 0
173 197 0
173 197 0
174 197 0
174 197 0
173 196 0
175 197 0
173 197 0
173 197 0
173 197 0
175 198 0
176 198 0
175 198 0
173 196 0
170 194 0
174 198 0
173 197 0
174 197 0
174 197 0
174 198 0
176 198 0
174 197 0
175 198 0
172 196 0
173 196 0
174 197 0
173 196 0
172 195 0
175 197 0
173 197 0
173 196 0
172 195 0
172 196 0
174 197 0
173 196 0
173 197 0
175 198 0
175 198 0
172 196 0
173 196 0
174 197 0
175 198 0
174 197 0
173 196 0
174 197 0
173 197 0
173 197 0
174 198 0
172 197 0
174 197 0
175 198 0
172 196 0
173 195 0
174 197 0
173 197 0
174 197 0
173 196 0
173 196 0
171 195 0
172 196 0
173 196 0
173 196 0
172 195 0
176 198 0
174 197 0
170 194 0
174 197 0
174 197 0
175 198 0
175 198 0
174 198 0
173 196 0
173 196 0
174 197 0
172 195 0
172 196 0
172 195 0
174 197 0
174 197 0
175 197 0
175 198 0
172 196 0
171 194 0
174 197 0
172 196 0
175 198 0
175 198 0
174 196 0
172 196 0
172 195 0
173 196 0
173 197 0
172 196 0
173 197 0
172 195 0
174 197 0
173 196 0
172 195 0
170 194 0
172 195 0
173 196 0
171 194 0
175 198 0
173 197 0
173 196 0
171 194 0
173 197 0
172 195 0
174 197 0
171 194 0
174 197 0
174 197 0
173 197 0
171 195 0
173 196 0
171 194 0
173 196 0
172 195 0
172 195 0
173 197 0
172 196 0
173 196 0
171 195 0
172 196 0
171 195 0
173 196 0
170 195 0
175 197 0
173 195 0
175 198 0
171 194 0
172 196 0
173 195 0
173 195 0
173 196 0
173 195 0
172 195 0
172 196 0
173 196 0
174 197 0
173 195 0
172 195 0
172 195 0
175 197 0
169 192 40
168 192 40
162 185 74
154 179 86
154 178 82
151 175 88
147 171 103
133 159 120
140 165 111
132 157 125
135 161 118
135 160 120
138 163 118
143 167 108
148 173 97
144 169 104
147 172 100
146 170 102
157 180 84
161 184 70
167 190 51
168 192 51
172 195 18
171 195 18
172 195 0
172 195 0
171 194 0
175 197 0
173 196 0
171 195 0
171 195 0
175 198 0
174 197 0
174 196 0
173 195 0
172 194 0
172 195 0
171 195 0
174 197 0
173 197 0
170 192 0
173 196 0
172 195 0
171 195 0
170 194 0
172 195 0
171 195 0
172 195 0
174 196 0
171 195 0
173 196 0
173 196 0
173 197 0
172 196 0
173 196 0
173 196 0
171 194 0
171 194 0
172 196 0
171 194 0
173 197 0
172 195 0
172 195 0
170 192 0
174 197 0
173 197 0
172 195 0
173 196 0
172 195 0
173 197 0
174 197 0
170 195 0
175 197 11
172 195 11
167 188 16
161 182 22
165 185 25
165 183 30
161 177 37
161 172 56
164 177 51
154 163 57
149 153 63
153 156 69
151 155 64
146 146 66
144 143 73
146 145 75
137 134 78
144 139 83
143 138 81
142 137 85
143 138 81
153 147 89
151 145 91
144 139 88
146 142 86
142 138 85
151 146 91
150 145 88
153 148 96
152 147 95
153 148 96
158 152 98
149 143 94
153 149 97
159 155 100
164 160 104
160 156 101
144 141 93
161 158 103
151 149 99
158 155 103
156 153 101
157 155 102
162 158 104
157 154 101
164 160 106
160 158 106
161 158 104
161 158 105
167 163 108
159 155 103
168 164 109
162 158 106
164 161 108
170 166 110
163 161 107
161 158 106
159 157 106
164 161 107
167 164 110
167 164 110
167 163 108
166 163 108
167 163 108
163 161 108
165 162 108
165 162 108
163 161 108
165 163 109
169 166 110
165 162 108
170 167 112
170 167 111
167 164 109
163 162 108
166 163 109
167 166 111
171 168 112
167 165 110
168 165 110
168 165 110
165 162 109
164 162 109
163 161 107
170 167 112
167 163 109
166 164 109
171 169 113
168 165 110
172 169 113
169 165 110
167 165 110
168 165 110
167 164 109
163 160 106
165 162 108
167 164 109
170 167 110
170 167 110
170 166 110
172 168 112
168 164 108
162 160 106
163 159 105
168 165 109
163 159 105
161 158 104
168 165 110
164 161 106
164 160 104
167 164 109
170 166 109
167 163 107
166 162 106
158 154 101
157 154 101
156 152 100
161 157 101
169 164 106
165 160 105
163 159 104
160 156 102
163 158 102
168 163 104
152 149 97
162 158 103
153 149 93
166 161 104
154 150 94
162 158 95
159 154 97
160 153 99
165 159 99
155 150 95
159 153 97
155 150 93
148 143 88
148 143 83
145 139 87
151 145 90
150 144 85
147 141 84
132 127 73
139 135 72
150 148 79
142 142 66
145 147 62
155 163 63
151 158 58
159 171 49
159 173 42
155 172 32
165 184 30
168 189 16
171 194 0
173 196 0
174 197 0
174 198 0
175 197 0
173 197 0
172 195 0
174 197 0
174 197 0
175 198 0
174 196 0
175 198 0
173 197 0
175 198 0
173 197 0
175 198 0
172 196 0
172 195 0
173 196 0
175 198 0
172 196 0
174 197 0
173 196 0
174 198 0
174 198 0
173 197 0
174 197 0
175 198 0
173 196 0
175 198 0
171 195 0
171 195 0
175 197 0
172 196 0
173 197 0
173 197 0
176 198 0
174 197 0
172 195 0
172 196 0
173 197 0
173 197 0
176 199 0
172 196 0
175 198 0
174 197 0
174 198 0
173 196 0
174 198 0
174 198 0
173 196 0
173 197 0
175 198 0
174 197 0
173 197 0
175 198 0
173 196 0
174 198 0
172 196 0
173 196 0
173 197 0
174 197 0
175 198 0
172 195 0
174 197 0
172 196 0
171 196 0
173 197 0
173 196 0
172 195 0
174 198 0
172 195 0
173 197 0
174 197 0
174 197 0
173 196 0
174 197 0
175 198 0
174 197 0
174 198 0
174 198 0
172 196 0
175 198 0
174 197 0
174 197 0
172 195 0
173 196 0
173 196 0
173 197 0
172 196 0
174 196 0
175 198 0
172 195 0
173 196 0
175 198 0
174 197 0
173 196 0
172 195 0
174 198 0
174 197 0
170 193 0
173 196 0
173 196 0
171 195 0
172 196 0
172 196 0
174 198 0
172 195 0
173 196 0
171 195 0
172 196 0
175 197 0
171 195 0
173 196 0
175 198 0
173 197 0
174 197 0
173 196 0
174 197 0
173 196 0
173 197 0
173 196 0
172 195 0
175 198 0
174 197 0
172 195 0
173 196 0
173 196 0
176 198 0
173 196 0
174 197 0
173 196 0
170 194 0
173 196 0
172 196 0
172 196 0
175 198 0
175 198 0
172 195 0
173 197 0
173 197 0
173 196 0
171 195 0
174 197 0
174 197 0
172 195 0
172 196 0
171 195 0
173 196 0
175 198 0
172 196 0
173 197 0
173 196 0
169 193 0
172 196 0
172 196 0
171 195 0
172 196 0
172 195 0
170 194 0
172 196 0
172 195 0
172 195 0
175 197 0
173 195 0
171 195 0
171 194 25
171 195 25
169 192 36
157 182 80
154 178 90
148 172 99
120 147 140
111 138 149
107 135 150
92 122 164
87 118 166
63 100 177
67 102 177
61 98 179
62 99 181
62 99 180
62 99 180
61 99 180
61 99 181
61 98 179
61 99 181
61 99 179
62 99 181
62 99 181
62 99 180
64 100 179
72 106 175
82 114 170
88 119 165
100 129 156
116 143 143
124 150 133
131 157 125
154 177 84
156 180 84
154 179 83
170 193 31
171 195 18
174 197 0
172 195 0
172 196 0
173 195 0
175 197 0
173 195 0
170 194 0
173 196 0
171 194 0
173 196 0
173 196 0
174 197 0
171 194 0
171 194 0
174 196 0
173 196 0
172 195 0
175 198 0
172 196 0
171 195 0
170 194 0
173 197 0
172 195 0
174 197 0
172 195 0
174 196 0
170 194 0
171 195 0
174 197 0
175 197 0
172 196 0
175 198 0
172 196 0
173 195 0
175 197 0
170 193 0
173 195 0
172 194 0
174 197 0
174 197 0
172 195 0
170 194 0
174 195 19
173 194 16
167 188 25
163 182 22
167 185 32
161 180 30
161 175 44
154 167 45
158 169 53
150 156 60
157 164 63
150 156 58
134 139 64
148 149 74
148 146 77
141 137 77
146 140 78
143 138 80
153 147 91
150 144 90
151 146 85
145 141 86
151 146 94
152 147 93
152 147 92
150 146 93
154 149 94
146 142 90
148 145 94
153 149 96
151 147 95
153 150 99
150 147 95
157 153 101
152 148 96
162 157 103
158 154 102
153 150 98
160 156 103
157 154 103
160 156 103
154 151 99
158 155 103
156 153 102
157 153 102
153 150 101
157 154 103
160 157 103
159 156 104
159 157 105
168 164 107
163 161 107
162 159 106
159 156 102
166 163 109
161 158 106
165 162 109
164 160 107
165 162 108
171 168 111
168 165 110
164 161 108
170 167 111
167 165 110
164 162 108
166 163 109
166 163 109
169 165 110
167 165 110
168 166 111
169 166 110
168 165 110
165 162 108
168 165 110
170 166 110
164 161 108
164 161 108
167 166 111
168 166 110
168 166 111
168 165 109
165 163 109
169 166 111
167 165 110
167 164 110
165 162 108
170 167 111
167 165 110
167 165 110
164 162 108
167 164 109
168 166 110
168 166 111
165 162 108
167 163 109
165 162 108
170 167 112
164 162 108
168 165 109
169 166 109
161 160 107
166 163 109
169 166 110
169 166 110
168 166 109
161 159 106
165 161 105
165 162 108
168 164 108
167 163 108
167 163 108
167 163 106
169 164 108
171 166 108
165 160 104
165 161 105
167 162 104
168 163 106
165 160 104
166 161 105
164 159 104
167 163 106
167 161 104
157 152 98
159 154 99
163 157 101
163 159 99
157 152 97
157 153 98
159 154 99
156 152 95
162 157 99
161 155 97
155 150 92
157 151 94
160 153 97
147 141 90
157 150 90
161 155 96
155 151 93
148 142 86
144 138 84
155 149 86
154 147 86
160 155 87
153 153 78
142 143 68
157 162 59
158 167 58
153 162 53
160 175 37
159 175 37
166 182 37
168 187 36
172 193 19
173 194 19
175 197 0
175 198 0
173 197 0
173 196 0
174 197 0
174 197 0
175 198 0
175 198 0
174 197 0
175 198 0
174 197 0
174 198 0
173 197 0
173 197 0
175 198 0
174 198 0
173 197 0
173 197 0
176 199 0
174 198 0
174 197 0
173 197 0
172 197 0
173 197 0
173 196 0
174 197 0
173 196 0
175 198 0
173 197 0
173 197 0
172 195 0
174 197 0
174 198 0
175 198 0
176 198 0
174 197 0
173 197 0
175 198 0
174 198 0
171 195 0
174 197 0
173 197 0
175 198 0
175 197 0
174 197 0
173 197 0
174 197 0
173 196 0
173 197 0
171 195 0
172 196 0
174 197 0
174 197 0
173 196 0
173 197 0
174 197 0
173 197 0
174 197 0
174 197 0
176 198 0
174 197 0
174 197 0
172 196 0
173 196 0
172 196 0
174 197 0
176 199 0
172 196 0
174 197 0
174 197 0
173 197 0
175 198 0
173 197 0
174 197 0
176 198 0
175 198 0
174 197 0
175 198 0
175 198 0
174 197 0
175 198 0
174 197 0
175 198 0
171 195 0
172 195 0
173 197 0
174 197 0
174 198 0
174 197 0
172 195 0
174 197 0
172 196 0
172 196 0
171 195 0
173 196 0
171 195 0
173 197 0
172 196 0
172 196 0
173 196 0
171 195 0
174 197 0
172 195 0
172 196 0
174 197 0
174 197 0
172 196 0
174 197 0
174 198 0
173 197 0
174 197 0
173 196 0
174 196 0
172 195 0
174 197 0
173 196 0
171 194 0
174 198 0
174 197 0
172 195 0
173 194 0
172 196 0
175 198 0
174 197 0
174 197 0
172 195 0
173 196 0
171 195 0
172 196 0
176 198 0
172 195 0
172 196 0
170 194 0
172 196 0
174 197 0
173 197 0
173 196 0
174 197 0
173 196 0
171 194 0
170 194 0
172 195 0
174 197 0
175 198 0
173 197 0
173 196 0
172 195 0
173 197 0
173 196 0
172 196 0
173 196 0
175 198 0
174 196 0
173 196 0
173 197 0
172 195 0
173 196 0
173 196 0
171 195 0
173 195 0
171 194 18
169 193 40
164 188 60
148 173 100
135 159 122
118 145 142
92 123 161
75 109 174
62 99 180
62 99 181
63 100 181
61 99 181
61 99 180
62 99 180
62 99 181
61 99 181
62 99 181
61 98 181
61 99 181
61 98 180
62 99 181
62 99 180
62 99 180
62 99 181
61 99 181
61 98 180
62 99 181
62 99 181
61 98 180
61 98 180
62 99 180
61 99 180
62 99 181
62 99 180
61 99 180
62 99 181
62 99 180
61 98 179
71 106 173
90 121 161
107 135 151
123 149 137
143 168 110
158 181 76
165 189 54
170 193 36
170 193 31
174 197 0
174 196 0
176 199 0
172 195 0
174 197 0
171 195 0
173 196 0
173 196 0
173 195 0
173 196 0
174 197 0
172 195 0
173 195 0
174 196 0
173 196 0
172 196 0
171 195 0
171 194 0
173 195 0
173 196 0
173 195 0
170 195 0
171 194 0
173 196 0
172 196 0
172 196 0
174 196 0
172 195 0
174 197 0
172 196 0
174 196 0
174 197 0
172 195 0
172 196 0
171 194 0
171 194 0
173 196 0
171 194 0
167 188 28
167 189 28
167 184 32
165 182 39
162 177 42
160 175 41
156 166 49
158 169 53
156 164 60
150 154 62
150 158 59
152 154 75
145 144 69
150 147 78
145 141 80
149 144 84
151 146 91
140 135 78
154 148 91
156 149 89
145 140 82
148 144 89
153 149 95
152 148 95
157 152 95
151 146 94
151 147 92
153 149 95
157 152 96
153 149 99
145 142 93
150 147 96
151 148 95
155 151 99
151 147 96
157 153 101
161 157 103
146 144 95
154 151 99
155 152 101
161 158 103
161 158 103
161 158 106
165 161 106
157 154 103
164 161 106
164 161 107
154 152 102
168 164 109
163 161 108
159 156 103
162 159 107
163 160 106
164 162 109
164 161 108
165 162 107
167 164 109
162 160 108
169 166 111
162 160 107
169 166 111
159 158 107
168 165 110
166 163 109
157 155 104
167 165 111
169 167 112
169 166 111
168 166 111
167 164 110
168 165 109
170 167 112
167 165 110
164 162 108
167 165 110
170 168 112
170 167 112
171 167 111
167 165 110
169 167 111
165 163 109
167 165 110
169 167 111
166 164 109
170 166 110
166 164 109
166 163 108
166 164 110
169 166 110
168 165 110
169 166 110
168 164 109
168 166 110
166 164 109
164 161 108
168 164 109
167 165 109
168 164 109
172 168 111
168 165 109
170 167 111
166 163 108
163 160 106
165 162 108
167 162 107
172 168 111
162 157 101
159 156 102
166 161 106
167 162 105
165 162 106
166 162 107
171 166 109
162 158 104
161 157 101
167 164 108
164 160 104
155 152 97
166 161 105
164 159 104
163 158 101
158 154 101
163 159 103
162 157 102
160 154 97
162 157 98
155 150 96
163 158 100
158 154 95
156 150 93
158 152 95
155 149 95
155 150 90
155 150 95
153 147 93
155 150 90
156 150 93
159 153 92
164 157 95
147 141 86
145 141 83
146 141 81
152 146 83
136 131 78
135 131 71
145 144 73
151 155 67
152 159 58
159 166 58
156 167 56
159 172 51
159 174 41
167 187 16
170 190 30
172 192 25
174 197 11
174 196 0
171 195 0
175 198 0
174 197 0
175 198 0
174 197 0
174 197 0
173 196 0
173 197 0
173 197 0
174 198 0
174 197 0
174 197 0
175 198 0
175 198 0
173 197 0
175 198 0
174 197 0
173 197 0
174 198 0
173 197 0
174 197 0
175 198 0
172 194 0
173 197 0
173 197 0
173 197 0
174 197 0
173 197 0
173 196 0
174 197 0
172 195 0
174 196 0
175 198 0
174 197 0
174 197 0
173 197 0
173 197 0
174 197 0
172 195 0
173 196 0
174 198 0
173 196 0
172 196 0
174 197 0
174 197 0
172 197 0
173 197 0
173 197 0
175 198 0
175 197 0
173 197 0
174 196 0
173 196 0
173 196 0
174 197 0
173 197 0
174 197 0
172 196 0
172 196 0
173 197 0
174 197 0
173 196 0
173 197 0
172 196 0
175 198 0
172 195 0
174 197 0
170 193 0
173 196 0
174 197 0
175 198 0
172 196 0
173 197 0
172 196 0
171 195 0
175 197 0
171 195 0
171 195 0
174 198 0
172 197 0
173 197 0
171 195 0
173 196 0
173 197 0
172 196 0
174 197 0
169 193 0
172 196 0
173 196 0
173 197 0
172 196 0
173 196 0
174 197 0
174 197 0
172 195 0
173 196 0
172 196 0
175 198 0
171 194 0
175 198 0
174 197 0
173 197 0
173 197 0
171 196 0
172 196 0
175 198 0
173 196 0
172 196 0
172 196 0
172 196 0
171 195 0
174 197 0
173 196 0
171 195 0
173 197 0
171 196 0
170 194 0
172 196 0
173 197 0
171 195 0
174 197 0
173 197 0
174 196 0
172 195 0
174 197 0
174 197 0
173 196 0
173 196 0
174 197 0
173 196 0
172 195 0
174 197 0
172 195 0
175 197 0
170 193 0
172 196 0
173 197 0
171 194 0
174 198 0
173 195 0
174 197 0
173 196 0
172 195 0
175 198 0
173 196 0
174 198 0
173 196 0
174 197 0
170 193 0
174 196 0
172 195 0
174 197 0
174 196 0
172 196 0
174 197 0
172 195 0
162 186 60
154 179 84
124 151 131
103 131 154
77 111 172
62 99 181
62 99 181
62 99 180
61 99 181
62 99 181
61 98 181
61 99 181
61 99 181
62 99 181
62 99 181
62 99 181
62 99 181
62 99 181
61 98 180
61 99 181
62 99 181
62 99 180
61 99 181
62 99 181
61 98 181
62 99 180
62 99 181
61 99 181
62 99 181
61 99 181
62 99 181
62 99 181
62 99 181
62 99 181
62 99 181
62 99 181
61 98 179
62 99 181
61 99 180
61 98 179
62 99 179
61 99 181
61 98 180
61 98 180
63 100 178
78 111 171
86 117 165
117 143 139
134 160 120
157 181 80
164 188 62
169 192 31
170 194 18
174 197 0
174 196 0
172 194 0
173 197 0
172 196 0
175 197 0
174 198 0
172 196 0
175 198 0
173 197 0
173 197 0
173 197 0
172 196 0
171 195 0
171 195 0
173 195 0
173 196 0
173 197 0
172 195 0
172 196 0
172 194 0
171 194 0
172 195 0
173 196 0
173 196 0
172 195 0
172 196 0
171 193 0
172 195 0
172 195 0
172 194 0
174 197 0
171 193 0
165 186 22
165 185 25
167 187 34
166 184 30
158 173 36
153 169 41
158 172 44
147 157 47
155 162 63
148 151 67
150 154 63
148 150 67
147 149 66
141 141 71
143 139 73
139 133 80
151 145 86
135 131 82
142 138 79
144 140 84
146 141 86
146 143 94
153 148 92
158 153 96
152 147 92
145 141 91
152 147 94
156 151 97
148 142 91
150 145 92
150 145 90
160 155 102
146 143 94
159 154 101
155 152 100
155 151 99
158 154 100
153 149 98
147 144 97
161 158 104
158 155 104
155 152 100
160 156 103
160 156 103
159 156 103
157 153 101
160 158 106
160 156 104
160 156 105
158 155 103
161 158 106
164 161 107
162 159 105
160 157 105
165 162 107
154 152 103
165 161 107
165 162 108
166 163 109
160 158 107
163 160 107
165 162 108
165 162 108
167 164 110
165 162 108
166 164 110
162 160 107
161 159 106
166 164 110
165 162 108
166 163 109
168 164 109
170 167 111
168 165 110
170 167 112
165 162 108
169 167 111
164 163 109
168 167 112
165 163 109
168 166 111
167 164 110
171 167 111
166 163 109
168 165 110
171 167 111
171 167 110
169 166 111
168 166 111
170 167 112
170 167 111
165 163 109
167 164 110
169 166 111
169 166 110
168 165 110
168 165 109
169 166 110
167 163 108
169 166 110
167 164 109
167 165 110
168 163 107
164 161 108
168 165 109
169 165 109
170 167 110
165 160 104
168 164 109
169 165 109
167 164 108
167 164 109
165 161 105
164 161 105
158 155 101
164 160 106
164 160 104
169 163 105
168 164 108
163 159 103
163 159 103
160 156 102
156 152 99
155 151 98
159 155 101
164 158 101
150 146 91
157 152 93
159 154 98
158 152 97
160 155 97
160 154 98
164 158 99
152 148 93
167 161 101
161 155 95
152 146 90
148 144 85
157 151 92
157 152 95
156 152 93
160 154 93
137 133 83
146 140 84
141 135 81
145 139 76
139 135 70
145 147 71
158 159 73
148 157 51
163 176 52
162 171 59
158 172 44
168 183 39
168 189 28
169 189 22
169 192 0
173 196 0
174 197 0
173 197 0
174 198 0
172 196 0
174 197 0
173 197 0
175 197 0
172 195 0
175 198 0
175 198 0
174 197 0
173 197 0
175 197 0
176 198 0
174 197 0
174 197 0
174 198 0
173 197 0
174 197 0
174 197 0
174 198 0
175 198 0
173 196 0
173 196 0
174 197 0
174 197 0
174 198 0
175 198 0
174 197 0
174 198 0
174 197 0
175 198 0
172 196 0
173 197 0
172 196 0
174 197 0
173 197 0
172 196 0
173 196 0
174 197 0
172 195 0
174 197 0
174 197 0
173 197 0
172 195 0
174 197 0
174 197 0
173 197 0
173 197 0
174 197 0
174 197 0
173 196 0
174 197 0
172 196 0
173 196 0
175 198 0
175 198 0
175 198 0
176 198 0
170 194 0
172 196 0
173 197 0
173 197 0
173 196 0
172 196 0
175 198 0
174 197 0
172 196 0
172 196 0
174 197 0
173 197 0
174 197 0
174 198 0
173 196 0
174 197 0
171 193 0
173 196 0
172 195 0
169 193 0
174 197 0
174 197 0
173 197 0
174 197 0
173 196 0
174 198 0
172 196 0
176 198 0
173 197 0
173 196 0
172 196 0
172 196 0
174 197 0
173 196 0
170 194 0
171 195 0
173 196 0
173 196 0
174 197 0
174 198 0
173 197 0
173 197 0
174 197 0
174 198 0
172 196 0
172 195 0
174 197 0
175 197 0
172 195 0
172 196 0
173 196 0
172 196 0
172 195 0
173 197 0
172 195 0
174 198 0
173 196 0
172 196 0
173 196 0
171 194 0
172 196 0
174 197 0
171 195 0
172 196 0
173 196 0
174 197 0
175 197 0
173 196 0
172 195 0
172 195 0
172 196 0
174 197 0
173 196 0
175 198 0
173 196 0
172 196 0
173 197 0
172 195 0
175 198 0
173 196 0
174 198 0
170 194 0
171 194 0
174 197 0
172 194 0
172 195 0
173 195 0
173 196 0
174 197 0
175 198 0
173 196 0
171 195 0
173 196 18
171 194 40
164 187 65
137 162 121
113 140 145
73 107 171
63 100 178
61 98 179
62 99 181
61 99 180
62 99 181
61 99 179
62 99 181
62 99 181
62 99 181
61 99 181
61 99 181
61 99 181
61 98 181
62 99 181
62 99 181
62 99 181
61 99 181
61 99 181
62 99 181
61 99 181
61 98 181
62 99 181
62 99 181
61 99 181
61 98 181
62 99 181
62 99 181
61 99 181
62 99 181
61 99 181
62 99 181
61 99 181
61 98 180
62 99 181
61 98 180
62 99 181
61 98 180
61 99 180
62 99 181
61 99 181
61 99 181
61 98 180
61 98 178
61 97 176
61 99 181
61 99 181
61 98 180
62 98 178
77 110 172
96 126 159
136 161 116
150 174 92
159 183 57
168 191 25
174 197 0
173 196 0
172 195 0
173 196 0
173 196 0
172 196 0
169 192 0
174 198 0
174 197 0
173 195 0
171 194 0
174 196 0
171 195 0
169 193 0
172 195 0
172 194 0
174 197 0
173 195 0
172 196 0
172 195 0
177 198 0
171 195 0
174 198 0
170 193 0
173 196 0
174 197 0
174 196 0
172 196 0
173 196 0
172 195 0
171 192 0
168 189 19
164 185 19
163 179 36
160 179 30
161 176 42
156 170 43
157 170 45
155 165 60
142 151 52
147 150 66
147 153 61
144 145 65
142 143 67
144 139 80
144 139 80
145 140 81
138 133 81
147 143 87
138 135 84
155 149 91
146 141 85
139 136 82
139 135 83
147 143 89
154 149 93
151 146 92
154 148 91
157 151 97
144 140 91
158 153 100
154 151 97
149 145 97
151 148 96
157 152 98
150 148 98
154 152 101
152 149 99
152 150 100
147 145 96
158 154 102
161 158 105
152 149 100
158 155 102
162 158 105
161 157 104
149 147 98
158 156 103
165 162 108
168 164 109
160 157 104
156 153 103
161 158 105
160 157 105
161 159 107
160 157 106
163 161 107
165 162 108
170 166 110
167 164 109
163 160 107
168 165 110
162 160 107
166 163 109
168 166 111
167 164 110
168 165 110
162 160 107
169 167 111
167 164 110
166 163 108
166 164 110
164 162 108
164 161 107
167 164 110
170 167 110
166 164 110
172 169 112
164 161 108
167 165 110
167 165 110
170 166 110
166 163 109
168 165 110
166 163 109
169 166 110
170 166 111
167 164 109
171 166 109
169 165 109
170 167 111
164 161 108
167 165 109
169 166 110
167 163 108
170 167 111
165 162 108
166 163 109
167 163 108
169 166 109
168 165 109
168 165 109
166 163 109
162 158 104
168 165 109
163 160 106
164 161 106
166 163 108
168 165 109
170 166 109
168 164 107
168 164 108
161 157 102
168 164 108
164 160 103
163 158 100
165 160 104
166 162 106
166 162 106
165 161 106
166 162 105
161 158 103
169 163 104
161 156 101
165 160 103
166 161 104
157 152 96
166 162 104
157 152 97
161 156 99
159 154 95
153 149 91
160 154 95
161 155 98
161 156 95
163 157 95
160 155 95
157 152 90
158 152 92
153 147 91
149 144 89
148 143 82
145 139 84
150 144 85
154 148 88
140 134 77
150 144 88
144 141 74
152 153 73
158 161 75
141 146 53
154 163 59
159 171 44
156 170 37
160 177 30
167 186 25
172 192 16
173 195 16
173 195 0
173 195 0
173 197 0
172 196 0
174 198 0
173 196 0
174 196 0
173 196 0
177 199 0
175 198 0
174 197 0
175 197 0
173 197 0
174 197 0
174 197 0
171 194 0
174 197 0
174 198 0
174 197 0
172 195 0
173 197 0
172 197 0
176 198 0
173 196 0
174 197 0
173 197 0
172 196 0
173 196 0
175 198 0
173 197 0
173 197 0
173 196 0
174 197 0
171 195 0
175 198 0
174 198 0
173 196 0
174 197 0
174 197 0
172 195 0
174 197 0
173 197 0
173 197 0
174 197 0
173 197 0
171 195 0
174 197 0
171 194 0
173 196 0
173 196 0
174 197 0
175 198 0
174 197 0
172 196 0
173 197 0
174 197 0
173 197 0
174 197 0
173 196 0
173 196 0
175 198 0
174 197 0
174 197 0
172 196 0
171 196 0
172 196 0
174 197 0
174 197 0
173 197 0
174 198 0
173 197 0
174 197 0
175 198 0
172 197 0
172 195 0
173 196 0
172 194 0
174 196 0
173 196 0
170 194 0
173 196 0
174 197 0
172 196 0
171 195 0
173 196 0
173 195 0
173 197 0
175 198 0
173 197 0
172 196 0
174 196 0
172 196 0
174 197 0
176 198 0
173 197 0
172 196 0
174 197 0
172 195 0
173 197 0
174 197 0
171 194 0
173 197 0
174 197 0
172 196 0
173 196 0
173 197 0
172 195 0
171 194 0
173 197 0
173 196 0
173 197 0
171 194 0
172 196 0
174 197 0
175 198 0
172 196 0
174 197 0
173 195 0
173 196 0
171 195 0
174 197 0
173 196 0
174 197 0
172 195 0
173 196 0
175 197 0
171 195 0
170 194 0
173 197 0
173 196 0
173 197 0
173 196 0
173 196 0
173 196 0
173 196 0
171 195 0
172 195 0
174 197 0
173 196 0
173 196 0
173 196 0
173 196 0
172 195 0
174 197 0
175 198 0
173 197 0
171 195 0
171 195 0
172 195 0
173 196 18
169 193 36
165 188 54
139 163 110
106 134 150
70 105 176
62 99 179
62 99 178
62 99 180
61 98 179
61 98 179
62 99 181
62 99 181
62 99 180
61 99 181
62 99 180
61 98 181
61 99 181
61 99 181
62 99 181
62 99 181
61 98 181
62 99 180
61 99 180
62 99 181
62 99 181
61 98 181
62 99 181
62 99 181
61 99 181
61 99 181
62 99 181
61 99 181
62 99 181
62 99 181
61 98 181
61 98 180
61 98 181
62 99 181
62 99 181
61 99 181
62 99 181
62 99 181
62 99 181
61 98 180
61 99 180
62 99 181
61 99 181
62 99 181
61 98 181
61 99 180
62 99 180
61 99 181
62 99 181
61 98 179
61 98 180
62 99 179
61 99 180
61 98 178
61 98 179
69 103 172
92 122 162
122 148 135
157 180 79
167 191 51
169 194 31
174 197 0
174 197 0
173 197 0
172 195 0
173 196 0
172 196 0
171 194 0
174 197 0
174 196 0
171 195 0
173 196 0
169 192 0
172 196 0
175 198 0
173 197 0
172 195 0
173 196 0
171 195 0
174 197 0
172 196 0
174 196 0
172 195 0
173 197 0
173 196 0
170 194 0
173 196 11
173 195 0
167 190 0
168 190 0
162 184 16
159 177 30
159 176 36
165 180 45
159 175 44
150 158 53
158 168 56
146 153 56
153 157 64
144 146 68
151 152 73
150 147 80
137 133 75
147 142 81
142 137 80
139 135 78
149 144 90
147 142 87
137 132 81
152 146 88
149 144 85
149 144 91
150 145 94
148 144 92
156 152 98
142 139 88
152 147 91
152 148 95
148 144 95
150 146 97
155 151 99
145 142 93
150 148 98
164 159 101
159 156 103
156 152 100
155 152 99
150 147 96
154 151 98
147 144 97
160 157 105
163 160 106
160 157 105
158 155 103
158 156 104
157 154 104
163 160 108
160 156 104
165 162 108
162 159 107
158 155 104
165 162 109
163 161 108
162 159 107
162 159 107
164 161 108
167 164 110
166 163 109
157 155 105
161 159 107
163 159 105
163 161 108
170 166 111
165 163 108
169 166 111
162 159 107
171 167 112
165 163 110
167 164 110
173 169 112
169 165 110
166 164 109
165 163 108
167 164 109
168 165 110
167 164 108
169 166 111
170 166 110
170 167 112
166 164 109
169 166 111
168 165 110
170 167 111
173 170 113
167 164 109
173 169 112
165 163 109
168 165 109
172 168 111
166 164 109
169 166 110
170 167 110
171 167 111
171 167 110
165 162 108
167 164 108
170 167 111
172 168 111
165 162 107
170 166 110
166 163 108
168 164 109
165 162 108
166 163 108
172 168 110
163 160 106
166 162 106
164 160 105
165 161 106
168 164 109
168 163 108
168 165 108
158 154 99
161 157 101
167 162 104
161 156 100
168 163 104
164 160 101
161 157 102
164 160 104
159 155 99
165 160 103
162 157 101
166 161 104
158 153 100
152 148 95
161 157 98
159 154 95
161 156 97
167 162 104
157 152 94
158 153 95
166 161 101
155 150 91
158 152 93
159 152 92
145 140 85
157 151 92
152 148 92
151 145 86
154 148 90
155 149 88
148 142 85
148 142 84
139 135 74
152 148 79
143 143 70
158 160 74
156 157 75
149 158 56
155 163 54
165 178 45
163 179 42
163 180 34
170 189 32
172 193 19
175 198 0
172 195 0
173 196 0
176 198 0
173 197 0
174 198 0
175 198 0
173 196 0
173 197 0
174 198 0
172 196 0
174 198 0
173 196 0
174 198 0
173 197 0
173 197 0
172 196 0
173 197 0
174 197 0
174 198 0
173 196 0
175 198 0
174 197 0
174 197 0
172 196 0
174 197 0
172 196 0
173 196 0
174 197 0
171 195 0
175 198 0
172 195 0
176 199 0
175 197 0
174 197 0
174 198 0
174 197 0
173 196 0
174 198 0
171 195 0
172 196 0
172 195 0
171 194 0
174 197 0
172 195 0
175 198 0
174 197 0
174 198 0
174 198 0
174 197 0
174 197 0
174 197 0
173 197 0
172 195 0
172 195 0
173 196 0
174 198 0
174 197 0
174 197 0
174 197 0
173 197 0
173 197 0
172 195 0
174 197 0
173 196 0
176 198 0
175 198 0
172 196 0
172 195 0
171 195 0
173 197 0
174 196 0
174 198 0
171 194 0
172 196 0
173 196 0
173 196 0
173 196 0
174 198 0
171 195 0
172 195 0
173 196 0
174 198 0
172 196 0
171 195 0
174 198 0
173 196 0
175 198 0
172 196 0
174 197 0
172 196 0
174 198 0
175 198 0
172 195 0
171 194 0
172 195 0
171 195 0
173 196 0
171 195 0
174 197 0
172 196 0
173 196 0
174 197 0
173 197 0
174 197 0
175 198 0
173 197 0
175 198 0
172 196 0
173 196 0
175 198 0
171 194 0
173 197 0
174 197 0
173 195 0
173 197 0
174 197 0
173 196 0
174 197 0
173 196 0
173 196 0
172 196 0
173 197 0
172 196 0
170 194 0
172 196 0
174 197 0
171 195 0
173 196 0
171 193 0
172 196 0
173 196 0
174 197 0
174 197 0
173 195 0
172 195 0
172 195 0
175 198 0
171 195 0
172 195 0
174 197 0
171 195 0
174 197 0
174 198 0
173 196 0
174 197 0
174 197 0
172 196 18
171 194 36
149 173 100
118 144 139
76 109 171
62 99 178
61 99 181
62 99 181
62 99 180
62 99 181
61 99 180
61 98 180
62 99 181
61 99 181
62 99 180
61 98 181
61 99 181
62 99 181
61 99 181
62 99 181
62 99 180
62 99 181
62 99 181
61 99 181
61 98 181
62 99 181
61 99 181
62 99 181
61 99 181
61 99 181
61 99 181
61 99 181
62 99 181
61 99 181
62 99 181
61 98 180
61 98 181
62 99 181
62 99 181
62 99 181
62 99 181
61 99 181
61 99 181
62 99 181
61 98 180
61 99 181
62 99 181
61 98 181
62 99 181
61 99 181
61 98 180
61 99 181
61 98 181
61 98 179
62 99 181
62 99 181
61 99 181
62 99 180
62 98 179
61 98 179
61 98 180
62 99 181
62 99 181
61 98 177
61 98 177
74 108 171
106 133 146
143 167 106
149 172 87
170 193 41
171 193 18
173 196 0
173 197 0
171 194 0
172 195 0
171 194 0
171 194 0
172 196 0
174 197 0
172 194 0
171 195 0
172 194 0
173 196 0
172 195 0
172 196 0
172 196 0
171 195 0
173 197 0
173 196 0
172 196 0
175 198 0
175 197 0
174 196 0
170 192 0
168 190 0
168 188 11
163 183 22
168 183 41
162 178 41
161 176 41
155 170 40
151 161 49
157 167 53
159 166 54
152 154 65
151 155 60
152 151 76
137 135 75
134 132 67
136 132 77
146 142 82
145 139 80
149 142 86
138 133 77
150 144 88
142 137 86
134 130 80
154 149 94
151 146 90
146 142 90
144 139 87
149 147 95
146 142 91
154 150 96
158 153 100
155 151 97
154 151 100
152 148 97
152 150 99
141 140 93
160 155 102
150 146 98
155 153 102
151 148 99
153 149 99
154 151 99
157 155 103
151 148 99
152 150 100
162 158 105
161 158 105
162 158 104
163 160 108
158 155 104
155 152 101
164 161 108
159 156 103
158 154 103
162 159 106
161 158 106
158 156 106
166 164 110
166 163 109
159 157 106
161 159 106
163 160 108
170 166 110
164 161 108
165 162 109
165 162 108
167 164 110
171 168 111
162 159 106
166 164 110
170 167 111
167 165 110
166 163 109
169 166 111
171 168 112
168 165 111
167 165 110
169 167 112
170 168 112
170 166 110
169 166 110
166 163 109
172 169 112
169 166 111
171 168 112
168 166 110
171 168 111
168 166 111
168 166 110
171 167 111
169 166 111
168 165 110
174 171 113
167 164 109
169 166 110
170 167 110
170 167 110
171 168 112
170 167 110
166 162 107
168 163 108
165 162 108
172 168 110
169 166 110
163 160 105
170 167 110
171 167 110
171 167 110
166 163 108
166 161 104
168 165 109
167 164 108
169 166 110
165 161 105
163 159 103
163 159 104
162 159 104
161 157 101
163 159 103
162 158 102
168 163 106
165 162 104
165 161 103
166 162 103
164 159 101
161 156 99
161 156 100
161 157 101
164 158 100
167 162 104
166 161 101
162 157 96
161 156 98
155 151 94
155 151 93
155 149 92
156 151 93
155 150 93
154 150 93
158 153 95
155 149 93
155 150 90
146 141 84
155 148 90
147 142 84
160 153 90
158 151 90
143 136 77
142 138 75
143 139 73
153 154 73
147 149 66
150 153 65
151 161 53
154 167 42
163 178 37
164 181 36
169 187 30
166 185 28
171 195 11
174 197 0
172 195 0
173 197 0
173 196 0
173 196 0
172 195 0
174 198 0
174 197 0
173 197 0
173 197 0
174 197 0
174 198 0
171 195 0
174 197 0
175 198 0
174 198 0
173 197 0
174 197 0
174 197 0
175 198 0
172 196 0
174 197 0
175 198 0
173 196 0
173 197 0
174 197 0
172 196 0
173 197 0
175 198 0
174 198 0
172 196 0
175 198 0
176 198 0
172 195 0
176 199 0
175 198 0
172 196 0
174 197 0
174 197 0
174 197 0
174 197 0
174 197 0
174 197 0
175 198 0
176 199 0
174 198 0
172 196 0
173 197 0
173 197 0
172 196 0
174 197 0
174 197 0
173 196 0
174 197 0
173 197 0
174 197 0
173 196 0
172 197 0
173 197 0
174 198 0
174 197 0
174 198 0
174 196 0
174 196 0
172 196 0
174 198 0
174 197 0
172 195 0
170 194 0
173 197 0
173 197 0
174 197 0
174 197 0
172 196 0
171 195 0
173 197 0
175 198 0
173 197 0
172 195 0
172 196 0
172 196 0
172 196 0
171 194 0
171 195 0
174 198 0
171 194 0
173 196 0
174 198 0
173 197 0
173 197 0
171 194 0
173 197 0
171 194 0
170 194 0
173 196 0
173 196 0
172 196 0
175 198 0
172 196 0
171 194 0
171 195 0
173 197 0
174 198 0
173 197 0
172 196 0
171 195 0
174 197 0
174 198 0
174 198 0
173 196 0
170 194 0
173 197 0
172 196 0
172 196 0
173 196 0
173 196 0
174 197 0
174 197 0
172 196 0
171 195 0
174 196 0
174 197 0
172 195 0
170 194 0
174 197 0
174 197 0
173 197 0
173 196 0
170 193 0
174 197 0
173 196 0
173 197 0
172 196 0
173 197 0
174 197 0
173 197 0
174 197 0
173 197 0
173 196 0
173 197 0
174 197 0
173 196 0
170 194 0
170 192 0
172 196 25
165 188 54
132 158 124
88 119 165
62 99 181
62 99 179
62 99 180
61 98 180
62 99 179
61 98 179
62 99 181
61 98 179
61 99 180
62 99 179
61 99 180
61 98 179
62 99 181
61 98 180
62 99 181
61 99 181
61 99 181
62 99 181
61 99 181
62 99 181
62 99 181
61 99 181
61 99 181
61 98 181
61 98 181
62 99 181
61 99 181
61 98 181
62 99 181
62 99 181
61 99 181
61 98 181
61 98 181
62 99 181
61 99 181
61 98 181
62 99 181
61 99 181
62 99 181
61 99 181
61 98 181
61 99 180
61 99 181
62 99 181
61 98 180
61 98 180
62 99 180
62 99 181
62 99 181
61 98 180
61 98 180
62 99 181
61 98 180
62 99 181
61 98 179
62 99 181
61 98 179
62 99 179
62 99 180
62 99 180
61 98 179
61 98 177
61 98 180
62 99 177
62 98 179
61 98 176
87 117 164
119 145 136
151 175 94
167 190 44
173 197 0
169 193 0
174 197 0
170 194 0
173 196 0
175 197 0
172 195 0
174 197 0
174 197 0
173 196 0
172 195 0
173 195 0
172 196 0
171 194 0
173 195 0
171 194 0
172 196 0
171 194 0
171 195 0
172 195 0
172 196 0
169 191 0
169 191 16
167 186 30
164 186 11
164 183 28
158 173 42
160 174 48
155 167 47
156 172 32
146 152 57
144 152 53
146 152 53
146 145 69
142 139 71
134 133 71
134 131 72
138 133 78
144 139 83
136 132 80
146 142 83
150 145 90
142 138 85
143 139 85
141 138 85
137 134 87
154 149 93
149 143 91
147 143 88
144 140 88
142 140 91
136 134 87
155 151 99
149 145 96
151 147 97
148 145 95
152 149 99
149 147 97
153 150 100
150 146 95
144 142 94
147 145 96
155 151 100
151 148 99
159 156 104
157 154 102
150 147 99
160 158 105
157 153 102
162 159 106
148 147 100
160 157 105
164 161 108
163 160 107
163 160 106
158 157 106
162 159 106
162 160 106
160 158 107
166 163 109
162 159 107
162 160 108
162 160 108
156 154 103
163 160 107
166 164 110
164 162 110
165 163 109
167 164 110
169 166 111
167 165 111
167 164 109
170 166 110
167 164 109
166 164 110
172 168 112
171 167 110
170 167 110
167 165 110
169 166 110
163 161 107
171 168 112
166 163 109
166 163 109
170 167 111
168 166 110
166 163 109
165 163 109
170 167 111
171 166 109
171 167 111
171 168 112
172 169 113
171 168 112
172 169 112
168 165 109
170 167 110
166 164 109
168 165 110
168 165 109
166 164 109
170 167 110
170 166 109
168 165 109
173 169 112
165 163 107
169 165 109
166 163 108
164 160 106
170 166 109
163 160 105
168 166 110
167 163 106
168 165 109
171 167 110
169 164 106
162 159 105
164 160 104
173 167 108
167 163 107
163 159 103
167 163 107
166 162 103
169 164 107
163 158 101
166 161 103
172 166 106
162 157 101
163 158 100
168 163 103
162 157 100
162 157 99
165 160 104
167 162 104
155 150 93
150 145 90
153 149 90
151 147 93
155 149 91
161 156 97
156 151 93
162 156 97
152 147 88
152 147 89
161 155 92
153 147 90
150 144 87
151 146 84
150 145 87
151 144 85
143 136 78
130 126 67
146 142 77
147 150 63
161 162 75
145 153 51
156 167 49
164 179 41
164 181 37
167 184 32
166 187 19
171 192 16
170 192 0
173 197 0
174 197 0
174 197 0
176 198 0
174 197 0
174 197 0
174 198 0
173 196 0
173 197 0
173 197 0
174 198 0
175 198 0
174 197 0
174 197 0
173 196 0
174 197 0
172 196 0
173 197 0
175 198 0
173 195 0
173 197 0
174 197 0
173 196 0
175 198 0
173 196 0
173 197 0
173 197 0
175 197 0
174 197 0
174 198 0
173 196 0
175 198 0
173 196 0
171 194 0
173 196 0
172 197 0
174 197 0
172 196 0
171 194 0
173 197 0
173 197 0
173 196 0
173 197 0
174 197 0
173 197 0
172 196 0
174 197 0
172 196 0
174 197 0
174 197 0
174 197 0
174 197 0
175 198 0
171 194 0
172 196 0
174 197 0
171 195 0
175 198 0
172 195 0
174 197 0
171 194 0
171 195 0
173 197 0
173 196 0
173 197 0
173 196 0
174 197 0
172 196 0
172 196 0
171 195 0
174 198 0
171 194 0
171 194 0
174 197 0
172 197 0
172 196 0
173 196 0
172 196 0
172 195 0
175 198 0
172 196 0
172 196 0
175 198 0
174 197 0
174 196 0
173 197 0
170 194 0
174 198 0
172 195 0
171 194 0
171 195 0
173 196 0
174 197 0
173 196 0
174 197 0
175 198 0
173 196 0
175 197 0
173 195 0
170 194 0
170 193 0
173 197 0
171 194 0
171 195 0
173 197 0
173 196 0
171 194 0
170 193 0
173 196 0
173 196 0
170 193 0
174 196 0
175 198 0
173 197 0
173 195 0
173 196 0
173 197 0
171 195 0
172 195 0
173 195 0
174 197 0
173 196 0
174 196 0
173 196 0
175 198 0
174 197 0
172 196 0
174 196 0
173 197 0
173 197 0
173 197 0
173 197 0
173 195 0
174 197 0
174 197 0
173 196 0
173 196 0
169 194 0
174 198 0
175 198 0
175 198 0
171 194 31
151 175 92
113 141 144
86 117 168
63 100 181
62 99 179
62 99 179
63 100 180
61 98 180
62 99 181
61 99 179
62 99 180
61 99 181
62 99 181
61 99 180
62 99 181
62 99 181
62 99 181
61 98 181
62 99 181
62 99 181
61 99 181
62 99 181
62 99 181
62 99 181
62 99 181
61 98 181
61 98 181
61 98 181
61 99 181
61 98 181
62 99 181
60 98 181
62 99 181
61 98 181
61 98 181
61 99 181
62 99 181
61 99 181
61 98 181
61 99 181
61 99 181
61 98 181
62 99 181
62 99 181
61 99 181
61 99 181
61 99 181
61 99 181
61 99 181
61 98 181
61 98 180
61 98 180
61 99 181
61 98 181
61 98 181
61 99 181
61 98 178
62 99 181
62 99 181
62 99 181
61 99 181
62 99 181
62 99 180
62 99 180
62 98 178
61 99 180
61 98 178
61 98 177
62 98 178
61 98 180
62 99 180
62 98 176
61 98 177
69 104 171
109 136 144
145 169 105
161 185 72
171 194 31
172 195 0
173 196 0
171 194 0
172 196 0
174 197 0
171 194 0
171 193 0
173 196 0
172 196 0
172 196 0
174 196 0
173 196 0
171 194 0
172 194 0
172 195 0
173 196 0
173 196 0
171 194 0
172 195 11
170 193 11
167 187 22
168 187 22
158 176 25
160 173 44
161 174 47
158 169 50
153 166 42
148 156 53
145 150 60
140 142 67
144 145 65
142 143 69
143 140 78
150 144 85
142 136 83
146 141 82
147 142 87
142 137 83
145 141 87
140 136 85
148 144 90
150 145 91
148 143 90
149 146 91
138 134 83
142 139 88
152 148 95
153 149 96
149 146 96
149 146 96
157 153 95
148 146 96
147 146 97
149 146 95
152 149 98
153 150 99
150 146 97
150 148 97
146 144 97
159 156 105
159 156 103
151 148 98
161 158 105
155 151 98
153 151 102
157 154 103
162 158 104
161 158 107
155 153 102
154 152 102
157 155 105
162 160 107
162 158 105
161 160 107
157 156 106
160 158 106
158 155 103
162 159 105
167 164 109
163 159 106
156 154 104
168 165 110
163 160 108
168 165 111
165 163 110
165 162 109
169 166 110
169 166 111
169 165 111
165 162 108
167 165 110
171 167 111
166 163 109
168 165 110
170 167 111
171 168 112
163 161 107
164 161 108
171 168 111
169 166 110
169 166 110
176 171 113
168 165 109
169 166 110
167 165 110
167 165 109
169 166 111
172 169 112
171 168 112
168 165 109
171 167 111
169 167 112
171 168 112
173 168 111
169 164 108
169 166 109
171 168 112
173 169 111
171 167 110
173 170 113
172 169 112
170 167 110
172 168 110
168 165 109
168 166 108
171 167 110
168 164 107
169 165 109
168 164 109
168 164 108
168 164 107
165 162 106
166 163 106
168 164 106
167 163 107
161 156 101
171 166 108
167 163 104
160 156 101
166 161 103
167 162 107
162 158 101
163 158 102
161 157 101
163 158 101
155 151 96
163 158 102
161 156 97
156 151 93
171 165 103
158 153 97
163 158 102
159 155 98
159 154 98
168 161 99
153 148 93
158 152 93
156 151 92
164 158 98
156 149 90
155 149 93
155 149 90
159 153 94
156 150 87
154 149 87
147 142 83
143 138 76
143 137 77
143 140 75
147 142 78
140 138 71
144 147 66
148 158 49
155 164 54
158 171 48
158 172 36
167 183 42
170 188 36
171 191 19
173 195 16
175 197 11
174 197 0
175 198 0
173 196 0
173 195 0
172 196 0
174 197 0
175 198 0
175 198 0
173 197 0
172 196 0
173 197 0
173 197 0
172 196 0
175 197 0
172 196 0
175 198 0
173 197 0
175 198 0
175 197 0
174 197 0
173 197 0
175 198 0
172 195 0
172 195 0
174 197 0
172 196 0
174 198 0
173 197 0
176 198 0
173 197 0
175 198 0
174 197 0
174 197 0
173 196 0
172 195 0
172 196 0
175 198 0
174 198 0
171 195 0
173 196 0
170 195 0
172 195 0
173 196 0
172 196 0
175 197 0
172 195 0
173 197 0
172 195 0
174 197 0
173 196 0
174 197 0
174 197 0
175 198 0
174 197 0
173 197 0
172 195 0
174 197 0
174 197 0
171 194 0
173 196 0
174 196 0
173 196 0
174 197 0
174 198 0
174 197 0
174 197 0
173 197 0
172 196 0
172 196 0
174 197 0
170 194 0
174 197 0
172 196 0
172 195 0
170 194 0
175 198 0
173 196 0
173 196 0
173 197 0
174 197 0
176 198 0
173 196 0
175 198 0
172 195 0
171 195 0
171 194 0
172 196 0
172 196 0
173 196 0
170 194 0
173 197 0
172 196 0
173 197 0
175 198 0
173 197 0
174 197 0
175 198 0
171 194 0
169 192 0
171 195 0
172 195 0
171 194 0
171 195 0
175 198 0
172 196 0
173 196 0
173 196 0
171 195 0
173 196 0
173 197 0
175 198 0
174 197 0
172 196 0
174 197 0
174 196 0
172 195 0
170 193 0
175 198 0
174 197 0
172 196 0
174 197 0
173 196 0
174 197 0
172 195 0
174 197 0
172 196 0
172 195 0
174 197 0
173 196 0
174 197 0
173 197 0
172 195 0
173 196 0
173 196 0
174 198 0
170 193 0
174 197 0
170 194 0
168 191 40
157 181 78
107 134 147
66 102 178
61 98 180
62 99 179
63 100 180
62 99 181
62 99 181
62 99 181
61 99 181
62 99 181
61 99 181
61 98 180
61 99 181
62 99 181
62 99 181
62 99 181
62 99 181
62 99 181
61 99 181
62 99 181
62 99 181
62 99 181
62 99 181
61 99 181
61 99 181
61 98 181
61 99 181
61 99 181
62 99 181
61 98 181
61 99 181
61 99 181
62 99 181
62 99 181
62 99 181
62 99 181
61 98 181
61 99 181
61 99 181
62 99 181
61 99 181
61 98 181
61 98 181
61 99 181
61 98 181
61 98 181
61 99 181
61 99 181
61 99 181
62 99 181
61 99 181
61 99 181
61 99 181
61 99 181
61 99 181
61 99 181
62 99 181
61 99 181
62 99 181
61 99 181
61 98 179
61 98 179
62 99 181
62 99 180
61 98 179
61 98 179
62 99 180
62 99 180
62 99 181
61 98 179
62 99 178
62 98 176
62 99 179
62 98 177
62 99 178
60 96 173
63 98 172
92 122 159
136 159 115
163 187 62
168 191 25
170 194 0
173 197 0
170 193 0
169 193 0
171 194 0
171 194 0
174 197 0
173 196 0
172 195 0
172 195 0
175 198 0
173 196 0
171 193 0
172 193 0
172 195 0
173 196 11
169 190 19
171 189 30
164 184 11
165 183 32
162 179 37
160 175 42
159 170 49
151 162 41
155 163 57
146 152 59
156 161 66
147 147 65
142 142 73
147 143 77
138 133 74
140 135 80
137 132 75
139 135 78
134 130 82
146 141 81
137 133 84
143 139 83
145 141 91
150 145 88
149 145 93
140 136 87
143 139 87
148 143 88
154 149 94
146 142 92
155 152 100
152 148 95
150 146 94
150 148 97
142 139 91
154 151 99
155 151 101
154 151 100
151 148 98
158 154 103
156 154 101
158 154 101
151 149 100
146 145 98
146 145 98
146 144 97
147 144 97
155 153 104
159 155 104
160 157 104
158 156 104
163 159 107
160 157 106
159 156 105
162 159 106
165 161 107
166 162 107
159 156 105
166 163 109
166 164 109
164 161 107
163 160 108
164 162 108
163 161 108
167 165 110
166 163 109
168 165 110
167 164 109
167 164 109
167 164 109
175 171 113
171 167 111
165 162 108
170 166 110
168 165 109
169 166 110
167 164 110
164 162 108
172 169 112
163 160 107
168 166 110
172 169 113
169 166 111
172 168 111
173 169 112
170 167 111
174 170 113
168 165 110
171 168 112
172 168 112
169 166 111
168 164 108
173 169 112
171 167 109
166 163 108
173 170 113
174 170 112
172 168 111
170 166 110
169 164 108
168 164 108
168 164 108
168 163 108
170 166 109
168 164 108
170 166 109
169 165 107
168 164 107
173 169 112
167 163 106
172 168 110
166 162 106
171 166 106
170 167 109
167 163 108
163 160 105
171 167 109
174 169 109
172 167 108
163 158 101
162 157 102
166 162 102
167 161 104
169 164 106
167 162 103
159 154 98
162 158 101
162 158 102
156 151 96
158 153 97
160 156 97
160 155 99
150 146 88
161 156 97
164 159 98
156 152 94
162 158 101
157 151 96
160 155 95
155 150 89
160 154 90
157 151 93
161 155 89
151 145 87
153 146 87
147 142 84
149 143 87
129 125 68
142 137 77
147 141 84
149 142 80
143 139 74
146 146 70
146 147 64
156 162 61
154 163 56
151 162 45
158 173 37
166 184 32
169 188 32
170 188 34
173 194 22
174 195 16
174 197 0
174 198 0
174 197 0
174 197 0
173 196 0
173 197 0
174 197 0
175 198 0
172 196 0
174 197 0
172 196 0
175 198 0
174 197 0
174 197 0
175 198 0
173 197 0
173 197 0
173 196 0
174 197 0
175 198 0
176 198 0
172 196 0
174 197 0
172 195 0
174 197 0
173 197 0
174 198 0
175 197 0
173 196 0
174 197 0
174 197 0
175 198 0
174 198 0
173 197 0
173 197 0
172 196 0
174 198 0
172 196 0
176 199 0
173 197 0
175 198 0
175 198 0
173 196 0
173 197 0
175 198 0
173 196 0
175 198 0
173 197 0
173 196 0
171 195 0
171 196 0
175 197 0
174 198 0
174 197 0
174 197 0
172 196 0
172 195 0
173 197 0
173 196 0
172 196 0
173 197 0
174 197 0
174 197 0
171 193 0
171 195 0
173 195 0
174 197 0
174 197 0
170 193 0
175 198 0
173 197 0
173 197 0
174 197 0
172 195 0
170 194 0
175 198 0
172 196 0
172 196 0
172 196 0
175 197 0
174 197 0
175 197 0
173 197 0
172 195 0
173 196 0
174 197 0
175 198 0
173 197 0
172 196 0
172 196 0
173 197 0
172 195 0
173 197 0
172 196 0
174 197 0
172 195 0
172 196 0
172 196 0
172 195 0
171 195 0
172 196 0
174 196 0
173 197 0
171 194 0
171 195 0
172 195 0
175 198 0
173 197 0
172 196 0
173 196 0
173 196 0
173 197 0
172 194 0
172 195 0
174 197 0
175 198 0
172 196 0
173 197 0
173 197 0
174 197 0
174 197 0
174 197 0
170 193 0
172 195 0
174 198 0
174 198 0
171 195 0
172 196 0
172 196 0
172 196 0
173 197 0
174 197 0
171 194 0
174 196 0
173 196 0
174 197 0
171 194 31
160 184 70
113 140 144
68 103 175
61 98 179
62 99 178
62 99 181
62 99 179
61 98 177
61 99 180
62 99 181
61 99 181
62 99 181
62 99 181
62 99 180
61 99 181
62 99 181
61 99 181
61 99 181
62 99 181
62 99 181
61 99 181
61 99 181
62 99 181
61 99 181
61 99 181
61 99 181
62 99 181
61 98 181
61 99 181
61 99 181
61 99 181
61 99 181
61 99 181
61 99 181
62 99 181
61 98 181
61 99 181
61 99 181
61 98 181
61 99 181
61 98 181
62 99 181
61 98 181
62 99 181
62 99 181
62 99 181
61 99 181
61 99 181
62 99 181
62 99 181
61 98 181
61 99 181
61 99 181
62 99 181
61 99 181
62 99 181
61 99 181
62 99 181
62 99 181
61 99 181
61 99 180
61 99 181
62 99 180
61 98 180
61 98 180
62 99 180
61 99 181
61 98 179
61 99 180
62 99 181
62 99 180
62 99 178
62 99 179
62 99 180
61 98 177
62 99 180
62 99 179
61 98 178
61 98 178
62 99 178
62 99 179
60 97 174
95 123 156
129 154 125
162 186 65
172 194 36
170 194 0
172 195 0
171 192 0
171 194 0
173 195 0
173 195 0
172 195 0
172 195 0
173 196 0
173 195 0
170 194 0
172 195 0
174 197 0
171 193 11
166 188 0
170 190 25
170 191 19
164 181 34
164 181 36
162 176 43
149 162 41
150 157 54
145 154 44
146 150 58
145 148 66
141 141 65
138 139 71
145 141 79
140 135 75
143 138 80
136 132 76
145 140 85
145 140 83
145 141 84
139 134 86
149 144 88
145 141 85
139 136 84
137 135 85
143 140 88
153 148 99
155 150 95
152 147 95
142 139 92
145 142 90
151 147 96
148 145 92
152 148 96
145 142 96
141 140 95
138 136 89
155 152 100
153 150 98
158 154 101
151 148 100
151 148 100
152 150 102
161 158 104
161 158 104
160 158 105
155 153 103
157 154 104
158 156 105
157 155 103
153 150 102
165 162 108
162 159 106
164 160 107
158 156 106
159 156 105
160 157 105
159 156 105
164 162 109
158 156 105
163 160 108
168 165 110
168 165 110
159 158 108
165 163 109
169 166 109
162 159 107
169 166 111
159 157 105
168 165 110
167 164 109
162 158 105
166 163 108
169 166 111
170 167 111
172 168 111
170 167 111
172 169 111
166 163 110
171 167 111
168 165 110
171 168 112
170 167 110
167 165 109
168 165 109
171 168 111
170 166 111
167 163 108
171 168 112
164 162 108
174 171 113
172 169 112
169 167 110
169 165 110
171 167 111
174 169 111
171 168 109
166 164 108
174 171 112
170 167 110
164 161 106
170 166 110
164 160 105
171 166 110
172 168 112
173 169 112
172 167 109
168 165 109
167 163 106
171 168 109
170 166 109
170 166 108
169 164 106
171 167 109
167 164 107
170 166 110
164 161 107
164 159 103
170 165 108
168 163 107
166 161 106
168 163 106
165 160 104
169 165 107
165 160 102
166 162 103
165 160 103
166 161 103
162 157 97
167 163 103
160 156 99
155 151 93
163 158 102
161 156 97
163 158 102
156 151 94
159 153 90
159 154 94
164 158 99
154 150 93
147 142 87
153 147 85
159 154 96
153 148 92
159 152 90
157 150 90
158 152 90
146 140 85
154 148 90
147 141 77
142 137 75
147 142 79
138 136 68
146 147 63
147 148 66
149 157 54
153 162 57
156 171 36
169 184 39
168 185 36
169 187 30
173 194 16
171 194 11
173 197 0
174 197 0
172 194 0
174 197 0
175 197 0
173 197 0
174 198 0
173 196 0
173 196 0
171 196 0
173 197 0
174 197 0
173 196 0
174 197 0
174 197 0
174 197 0
173 196 0
173 197 0
175 198 0
172 196 0
173 197 0
172 196 0
175 198 0
170 194 0
175 198 0
172 196 0
172 196 0
173 197 0
173 197 0
175 198 0
176 199 0
174 197 0
172 196 0
174 196 0
171 195 0
175 197 0
174 197 0
174 197 0
173 196 0
175 198 0
175 198 0
174 197 0
173 197 0
174 198 0
173 196 0
173 197 0
172 195 0
172 196 0
174 197 0
173 196 0
174 197 0
173 196 0
172 196 0
172 196 0
175 198 0
173 196 0
173 197 0
175 197 0
172 196 0
171 195 0
172 196 0
173 196 0
172 196 0
172 196 0
173 195 0
173 196 0
173 197 0
174 197 0
174 197 0
172 196 0
170 194 0
172 196 0
171 195 0
173 196 0
173 197 0
172 196 0
171 194 0
172 195 0
174 198 0
173 197 0
174 197 0
171 196 0
174 197 0
173 196 0
174 197 0
174 198 0
173 196 0
174 197 0
175 198 0
174 197 0
170 193 0
173 196 0
175 198 0
173 196 0
172 196 0
172 196 0
172 195 0
173 196 0
175 198 0
174 197 0
172 195 0
172 196 0
174 197 0
172 196 0
172 195 0
173 197 0
173 197 0
173 195 0
174 197 0
171 195 0
173 196 0
172 195 0
173 196 0
174 197 0
172 196 0
172 195 0
174 197 0
175 197 0
173 196 0
175 197 0
174 197 0
172 195 0
172 195 0
175 198 0
172 195 0
171 194 0
172 195 0
171 195 0
172 196 0
174 197 0
172 196 0
173 197 0
173 196 0
172 195 0
170 192 25
155 180 82
110 137 143
67 102 178
61 98 179
62 99 181
62 99 179
62 99 181
62 99 180
61 99 179
62 99 181
62 99 179
62 99 181
62 99 180
62 99 180
62 99 181
62 99 180
62 99 181
61 99 181
61 99 181
62 99 181
62 99 181
61 99 181
61 99 181
62 99 181
62 99 181
62 99 181
61 99 181
61 98 181
62 99 181
61 98 181
62 99 181
62 99 181
61 99 181
62 99 181
61 98 181
62 99 181
62 99 181
62 99 181
61 98 181
61 98 181
61 98 181
61 98 181
61 98 181
61 98 181
61 99 181
61 98 181
61 99 181
62 99 181
62 99 181
61 98 181
61 99 181
62 99 181
62 99 181
62 99 181
61 99 181
61 98 181
62 99 181
61 99 181
61 99 181
62 99 181
61 99 181
61 98 180
62 99 180
61 99 181
61 98 179
62 99 181
61 98 179
62 99 181
61 99 181
62 99 180
62 99 181
62 99 180
62 99 181
62 99 180
62 99 181
61 98 178
61 97 177
61 98 178
62 99 180
61 98 178
62 99 179
61 98 177
62 99 177
61 98 176
61 98 178
65 100 172
101 128 149
145 169 101
167 189 57
170 194 0
173 196 0
173 196 0
172 195 0
170 193 0
174 197 0
175 198 0
173 196 0
172 195 0
172 195 0
173 196 0
166 189 0
173 195 11
170 191 19
161 180 16
163 182 30
162 182 22
157 172 32
157 171 39
156 169 34
148 158 56
149 158 53
139 139 62
138 139 66
147 148 72
148 146 74
134 134 63
138 133 76
139 135 79
146 141 82
138 134 80
141 136 80
142 138 84
150 145 92
144 139 86
144 141 88
147 143 87
142 139 90
145 140 90
140 137 90
152 148 96
148 145 94
143 140 91
143 141 91
147 144 94
140 139 94
145 142 94
150 146 96
149 147 97
148 146 96
150 147 99
157 153 101
151 149 100
153 151 101
142 141 97
158 154 102
154 152 100
158 155 104
153 151 102
159 155 104
162 159 105
154 152 102
162 159 105
163 160 107
156 153 101
158 155 105
158 155 104
155 152 101
164 161 107
163 159 106
164 161 107
162 159 105
170 166 109
161 158 106
161 159 107
164 161 108
169 166 110
162 160 108
163 160 108
167 163 108
169 165 110
165 163 109
167 164 110
167 165 110
172 168 112
168 166 111
167 165 111
170 168 112
172 168 111
171 167 111
168 164 109
168 166 110
166 164 109
170 167 111
171 168 112
172 169 111
164 162 108
171 168 112
174 170 111
170 167 110
172 169 113
173 169 112
172 169 112
172 169 111
170 167 110
168 165 108
173 169 112
172 168 111
170 167 109
174 170 113
168 165 109
169 165 108
164 160 106
169 166 109
175 170 110
170 167 108
170 166 108
170 167 111
166 164 108
169 166 108
171 167 109
168 163 107
169 165 109
171 167 109
173 168 110
165 161 104
172 168 108
169 164 108
168 163 106
168 164 108
167 163 106
166 162 104
167 163 106
163 158 101
173 169 110
166 161 102
171 166 104
164 159 97
162 158 99
163 158 103
162 157 102
165 161 103
156 151 96
162 158 98
166 160 101
166 160 99
159 154 98
161 156 97
154 149 90
159 153 93
159 153 97
157 151 95
157 152 93
154 149 93
160 155 93
157 153 93
164 156 94
152 146 92
154 147 88
153 147 86
154 147 90
150 144 85
148 143 76
144 139 80
146 141 77
149 145 75
148 146 73
142 146 52
151 154 58
154 164 48
158 170 42
161 175 42
163 179 30
164 184 16
168 188 22
173 196 0
171 195 0
173 197 0
173 197 0
173 196 0
173 196 0
171 195 0
174 198 0
172 196 0
173 196 0
175 198 0
175 198 0
174 198 0
173 197 0
173 196 0
175 198 0
172 195 0
174 198 0
175 198 0
174 198 0
170 195 0
174 197 0
174 197 0
174 197 0
171 195 0
174 197 0
172 195 0
173 196 0
172 196 0
171 194 0
175 198 0
174 197 0
174 197 0
174 198 0
175 198 0
172 195 0
172 195 0
174 197 0
174 196 0
174 197 0
174 197 0
174 197 0
172 196 0
174 198 0
173 197 0
174 197 0
173 196 0
174 197 0
174 196 0
173 196 0
175 198 0
173 196 0
173 197 0
173 197 0
173 196 0
174 198 0
172 196 0
173 196 0
170 195 0
173 197 0
175 198 0
172 196 0
173 197 0
174 197 0
173 196 0
174 197 0
173 195 0
176 199 0
173 196 0
172 194 0
172 196 0
173 196 0
172 196 0
173 197 0
174 197 0
172 196 0
172 196 0
174 197 0
173 197 0
173 196 0
173 197 0
175 198 0
173 196 0
174 197 0
173 196 0
171 194 0
172 196 0
174 198 0
172 196 0
172 195 0
171 195 0
174 196 0
173 196 0
174 197 0
171 195 0
172 195 0
172 195 0
171 196 0
173 196 0
171 195 0
172 195 0
172 196 0
170 194 0
171 194 0
173 197 0
173 196 0
174 197 0
172 196 0
172 195 0
171 195 0
171 194 0
169 193 0
173 196 0
171 195 0
174 197 0
170 193 0
172 195 0
173 197 0
171 195 0
170 192 0
173 197 0
174 198 0
174 197 0
175 198 0
173 197 0
172 195 0
173 196 0
171 195 0
173 196 0
171 195 0
172 196 0
173 196 0
172 196 0
174 197 0
165 190 47
125 150 131
75 108 169
61 99 177
62 99 180
62 99 179
62 99 179
62 99 178
62 99 177
61 99 180
62 99 181
61 99 181
62 99 180
61 98 180
61 99 181
62 99 180
62 99 180
62 99 181
62 99 181
61 99 180
62 99 180
61 99 181
62 99 180
61 99 181
62 99 181
61 98 181
62 99 181
61 99 181
61 99 181
61 99 181
61 98 181
62 99 181
62 99 181
62 99 181
61 99 181
61 99 181
61 99 181
61 99 181
61 98 181
61 99 181
61 99 181
61 98 181
62 99 181
62 99 181
61 99 181
62 99 181
62 99 181
62 99 181
61 99 181
61 99 181
61 99 181
61 99 181
61 98 181
62 99 181
61 99 181
62 99 181
61 99 181
61 99 181
61 99 181
61 99 181
62 99 181
62 99 181
62 99 181
62 99 181
62 99 181
61 98 181
61 99 181
62 99 181
61 99 181
61 99 180
62 99 180
62 99 180
61 98 180
61 98 180
61 98 176
61 99 181
62 99 181
62 99 180
62 99 180
61 99 181
61 97 175
62 98 179
62 99 179
61 98 180
62 98 176
62 98 177
62 99 179
61 98 176
62 98 177
70 102 169
99 128 151
146 170 97
164 187 57
171 194 18
170 194 0
172 195 0
173 195 0
173 196 0
171 194 0
174 197 0
172 194 0
171 195 0
167 190 0
166 187 16
164 184 19
162 182 16
169 187 32
157 175 26
154 168 32
156 168 44
162 175 45
145 150 62
148 154 52
139 141 58
146 148 64
146 146 69
143 140 69
133 129 68
140 134 75
138 133 78
153 147 88
137 132 78
143 138 78
152 146 92
144 139 82
145 141 88
143 138 88
140 137 87
161 156 100
139 136 84
148 144 91
145 141 91
156 151 96
145 142 94
141 139 91
150 146 93
143 140 92
144 141 92
154 151 101
151 147 97
159 155 102
153 150 100
143 141 94
154 152 101
152 148 98
146 145 98
153 150 100
153 150 101
157 153 102
154 151 100
158 155 103
149 147 100
160 157 106
157 154 104
156 153 103
165 162 108
165 162 109
162 159 107
157 154 103
160 158 106
164 161 108
158 156 105
156 154 104
167 164 108
168 165 110
164 161 108
166 163 109
162 160 108
165 162 109
166 163 109
165 161 107
171 168 112
168 165 111
169 166 110
170 167 111
166 162 108
167 165 110
165 163 109
170 167 110
166 163 107
172 168 111
170 167 112
167 164 110
170 167 111
169 165 110
171 167 111
174 170 112
174 170 111
173 169 112
168 165 110
174 170 113
172 168 112
174 169 111
172 168 110
176 171 113
170 166 108
172 168 110
169 165 109
176 171 112
169 165 108
172 168 111
169 166 109
171 168 110
171 167 110
171 168 110
174 169 110
172 169 112
173 168 110
169 165 108
165 161 105
169 166 108
169 164 106
169 165 109
164 160 104
169 165 106
172 168 108
168 163 107
169 164 105
165 161 106
170 166 106
167 163 108
166 161 104
170 165 106
171 166 109
166 162 104
167 162 104
167 162 103
158 153 97
166 160 103
164 158 99
160 156 100
165 160 103
167 161 100
159 154 97
156 151 93
158 154 99
158 154 99
161 157 97
164 158 99
160 155 94
162 156 95
158 152 93
154 149 89
158 152 94
155 150 89
149 143 87
165 160 95
157 151 92
153 147 87
148 142 81
151 145 84
153 146 90
146 140 84
151 145 84
144 139 74
147 140 77
158 154 82
143 141 72
140 144 65
152 155 60
151 159 56
165 173 60
155 169 42
158 172 44
165 181 32
163 182 22
174 195 22
174 196 11
174 197 0
174 197 0
173 196 0
175 198 0
173 197 0
173 197 0
173 197 0
172 196 0
172 196 0
173 197 0
173 197 0
174 198 0
173 197 0
172 196 0
171 194 0
171 195 0
172 196 0
173 196 0
173 197 0
175 198 0
174 198 0
173 196 0
175 197 0
174 197 0
173 196 0
175 198 0
173 195 0
173 197 0
174 197 0
173 197 0
173 197 0
172 196 0
174 197 0
175 198 0
174 197 0
174 198 0
172 196 0
173 197 0
174 196 0
173 196 0
173 196 0
172 196 0
173 196 0
174 197 0
173 197 0
171 195 0
174 198 0
174 197 0
172 196 0
172 195 0
173 197 0
174 197 0
174 197 0
175 198 0
172 196 0
171 195 0
173 196 0
172 196 0
173 197 0
174 198 0
174 197 0
174 197 0
174 197 0
174 197 0
174 197 0
173 196 0
173 197 0
171 195 0
174 198 0
173 197 0
176 198 0
173 196 0
173 197 0
172 196 0
171 194 0
172 196 0
175 198 0
174 197 0
173 197 0
174 198 0
169 192 0
173 197 0
173 196 0
172 196 0
172 196 0
174 197 0
174 196 0
173 196 0
174 198 0
173 196 0
174 196 0
169 193 0
172 195 0
175 198 0
174 197 0
175 197 0
171 195 0
173 196 0
173 197 0
174 197 0
172 195 0
173 196 0
172 196 0
175 198 0
172 195 0
171 195 0
173 196 0
172 196 0
173 196 0
172 195 0
172 196 0
172 195 0
171 194 0
172 195 0
174 197 0
172 195 0
175 198 0
174 198 0
172 196 0
172 196 0
174 197 0
172 195 0
172 194 0
172 195 0
172 196 0
174 197 0
173 196 0
171 195 0
173 195 0
173 196 0
170 193 31
129 155 126
79 111 167
62 99 178
62 99 181
62 99 180
62 99 178
62 99 181
62 99 177
62 99 181
62 99 179
62 99 180
62 99 181
61 99 181
61 99 180
62 99 181
62 99 180
61 99 181
62 99 181
62 99 181
61 99 181
62 99 181
62 99 181
61 99 181
62 99 181
62 99 181
62 99 181
62 99 181
62 99 181
62 99 181
61 99 181
62 99 181
62 99 181
62 99 181
61 99 181
61 99 181
61 98 181
61 99 181
62 99 181
61 99 180
62 99 181
61 99 181
62 99 181
61 99 181
61 98 181
62 99 181
61 99 181
61 99 181
61 98 181
62 99 181
62 99 181
61 98 181
61 99 181
61 99 181
61 98 181
61 99 181
62 99 181
61 99 181
61 99 181
61 99 181
61 98 180
61 99 181
61 99 181
61 99 181
61 99 181
61 98 181
61 99 181
61 99 181
62 99 181
61 99 181
62 99 181
61 98 179
62 99 181
62 99 178
61 98 180
62 99 181
61 99 181
61 98 179
61 98 179
62 99 181
61 99 179
61 99 180
61 98 178
62 98 177
62 98 179
62 99 181
61 98 176
62 98 176
62 99 180
62 98 178
60 97 175
61 98 176
61 98 176
72 105 167
126 151 122
157 181 72
170 193 31
171 193 0
173 195 0
173 196 0
172 195 0
171 194 0
171 194 0
173 195 0
173 195 11
165 185 11
166 186 16
159 178 25
169 184 45
163 178 45
157 167 48
153 164 51
146 152 55
149 157 56
148 153 60
145 149 63
145 146 72
137 134 71
131 127 70
138 135 79
145 140 83
143 139 81
139 135 77
140 135 80
138 134 82
142 138 85
138 134 84
135 132 80
147 143 90
141 138 88
135 132 86
149 144 94
142 140 92
146 143 92
152 148 96
150 147 97
147 144 96
141 139 92
150 146 96
147 144 97
143 141 96
142 140 94
146 144 95
150 148 99
149 147 99
152 148 99
149 146 97
150 147 98
147 144 98
143 142 98
159 156 104
153 151 101
160 157 106
156 154 104
149 147 99
165 162 108
152 151 101
157 155 105
157 155 105
157 155 105
159 156 106
159 156 105
156 154 104
159 158 107
157 155 103
161 158 106
160 157 106
159 157 106
164 161 109
170 168 111
164 161 107
165 162 109
163 160 106
167 164 109
157 156 105
169 166 110
169 167 111
171 167 110
166 163 108
164 163 108
174 170 113
170 166 110
170 166 110
169 166 110
169 166 111
169 165 109
173 169 111
174 170 111
169 165 110
173 168 111
169 166 110
174 169 111
169 166 110
172 168 110
173 169 110
174 170 112
173 170 112
169 165 107
172 169 112
170 167 111
174 170 111
173 169 112
170 167 110
169 166 110
174 169 110
168 164 108
172 168 111
172 167 109
170 166 109
168 165 109
168 164 109
172 167 109
167 164 108
166 162 106
170 166 106
165 161 104
168 163 107
171 167 108
168 163 107
167 163 106
172 166 107
169 164 106
168 162 101
169 165 107
163 160 104
169 164 105
165 161 103
167 163 103
165 161 102
161 157 100
164 159 100
163 159 100
168 163 104
165 161 99
167 162 102
157 153 95
165 159 97
170 164 104
165 160 99
162 157 97
161 155 95
153 149 93
156 152 95
159 153 93
155 150 92
167 160 99
155 150 90
156 151 92
148 144 90
150 145 87
154 149 90
156 149 88
145 141 84
149 144 84
145 139 80
148 142 82
145 139 76
143 136 80
134 129 71
141 138 69
155 153 74
144 149 54
159 166 61
156 168 49
154 165 49
160 176 44
166 183 36
162 182 25
170 191 11
173 195 0
172 195 0
174 198 0
173 195 0
174 197 0
173 196 0
173 197 0
174 197 0
174 197 0
175 198 0
173 197 0
171 195 0
172 196 0
175 198 0
174 197 0
173 197 0
173 197 0
174 197 0
171 195 0
174 197 0
174 198 0
174 198 0
173 196 0
174 197 0
173 196 0
173 197 0
173 196 0
175 198 0
171 195 0
174 198 0
172 196 0
172 195 0
171 195 0
173 197 0
173 196 0
173 197 0
174 197 0
175 198 0
175 198 0
172 195 0
173 196 0
170 194 0
175 198 0
174 197 0
173 196 0
173 197 0
174 197 0
173 197 0
174 197 0
174 197 0
175 198 0
173 197 0
174 198 0
171 196 0
173 196 0
174 197 0
173 197 0
174 197 0
172 196 0
173 197 0
174 197 0
172 196 0
175 198 0
173 197 0
174 197 0
173 197 0
174 198 0
172 196 0
173 196 0
173 197 0
174 197 0
172 196 0
172 196 0
174 198 0
173 195 0
172 196 0
173 197 0
171 194 0
172 196 0
173 195 0
171 194 0
171 195 0
174 197 0
173 196 0
174 197 0
173 197 0
172 195 0
173 196 0
172 196 0
173 197 0
174 197 0
174 197 0
171 195 0
170 194 0
173 196 0
174 197 0
174 197 0
171 194 0
170 193 0
171 194 0
173 195 0
174 198 0
173 197 0
175 197 0
172 195 0
173 197 0
173 197 0
172 195 0
171 195 0
171 195 0
173 197 0
174 197 0
173 196 0
174 196 0
174 198 0
173 197 0
171 195 0
172 195 0
172 195 0
173 196 0
173 197 0
174 197 0
172 195 0
170 194 0
171 194 0
171 195 0
171 194 0
173 197 0
173 195 0
174 197 0
158 182 76
111 138 144
62 99 180
62 99 178
62 99 180
62 99 178
62 99 180
62 99 177
62 99 181
62 99 180
62 99 181
62 99 180
62 99 181
62 99 179
62 99 180
61 99 180
61 98 179
62 99 181
62 99 181
61 98 181
62 99 180
62 99 181
61 99 180
62 99 181
62 99 181
61 99 181
61 99 181
61 99 181
62 99 181
61 98 181
61 99 181
61 99 181
61 99 181
61 98 181
62 99 181
62 99 181
62 99 181
61 98 181
61 98 181
61 99 181
62 99 181
61 99 181
61 99 181
62 99 181
62 99 181
61 99 181
62 99 181
61 99 180
61 99 181
61 99 181
62 99 181
62 99 181
61 99 181
61 98 181
61 98 181
61 99 181
61 98 181
61 99 181
62 99 181
62 99 181
62 99 181
62 99 181
61 99 181
61 99 181
61 98 181
62 99 181
61 99 181
62 99 181
62 99 181
61 98 180
62 99 181
62 99 181
62 98 179
62 99 181
61 98 179
62 99 181
62 99 180
61 98 180
61 99 181
61 98 178
61 98 178
62 99 180
62 99 180
62 99 179
61 98 179
61 98 177
61 99 179
62 99 178
62 99 179
62 98 176
61 97 176
61 97 175
61 97 175
61 97 173
61 97 175
64 99 174
92 121 156
132 157 112
163 187 48
171 194 0
173 196 0
171 195 0
172 195 0
169 191 0
169 192 11
171 192 16
169 190 16
168 188 25
163 181 28
156 173 26
163 177 46
152 164 41
159 169 52
153 162 47
150 157 52
146 149 60
146 149 65
147 146 75
140 138 71
149 145 85
139 134 76
131 127 71
136 132 77
139 134 78
145 141 83
135 132 81
129 126 74
136 132 82
153 149 93
142 138 88
145 141 91
132 131 83
136 134 90
137 135 86
144 141 89
138 136 89
147 144 97
153 149 96
138 136 91
139 138 93
143 141 93
149 146 97
136 134 90
149 146 97
151 147 99
158 153 100
153 149 100
150 147 99
151 148 98
147 145 97
152 150 101
147 145 98
150 149 102
160 156 104
159 156 104
154 152 102
149 148 99
162 160 107
160 157 106
162 159 106
158 155 104
160 158 106
162 159 107
168 165 110
159 156 106
158 156 104
157 156 106
164 161 107
167 163 109
162 159 107
163 160 107
164 161 108
163 161 108
168 164 109
166 163 107
163 161 106
169 165 110
165 161 108
167 164 109
171 168 111
167 164 110
170 167 111
171 167 109
172 168 110
170 167 111
166 163 107
172 167 110
171 167 111
171 168 109
171 168 111
171 168 112
175 171 113
171 168 111
171 167 110
172 169 112
172 168 110
175 170 112
173 169 111
173 168 110
173 168 110
174 170 113
173 169 110
175 170 112
175 171 112
169 166 109
173 170 111
172 168 110
171 167 110
172 168 109
172 167 109
168 164 106
170 166 106
170 166 108
168 164 108
172 167 109
170 166 105
174 170 110
167 164 106
170 166 110
166 162 104
163 158 101
167 163 103
168 164 104
170 165 108
169 164 106
166 161 104
171 166 104
165 161 102
169 164 105
167 162 106
165 160 102
167 162 103
171 166 105
167 162 101
161 156 98
164 158 99
163 157 100
159 154 97
161 156 97
158 153 93
164 158 99
164 159 99
163 157 99
152 148 91
159 153 97
167 160 97
153 147 90
161 155 93
157 152 92
163 156 95
150 145 87
159 154 93
156 150 90
154 148 87
157 151 87
149 143 84
149 143 84
159 152 92
153 146 77
154 147 84
146 142 76
138 138 61
150 150 71
148 156 54
152 158 61
153 166 48
164 177 48
162 176 39
169 188 30
166 186 19
173 196 11
171 195 11
175 197 0
173 196 0
174 197 0
174 197 0
174 197 0
174 198 0
175 198 0
175 198 0
174 198 0
173 196 0
175 198 0
174 197 0
173 197 0
173 197 0
175 198 0
174 198 0
172 197 0
175 197 0
175 198 0
172 196 0
176 199 0
173 197 0
172 196 0
172 195 0
172 196 0
175 197 0
174 198 0
175 197 0
172 196 0
174 198 0
173 197 0
174 196 0
171 195 0
174 197 0
174 197 0
174 197 0
172 195 0
174 197 0
174 197 0
174 198 0
172 195 0
173 197 0
173 196 0
174 197 0
172 195 0
175 198 0
174 197 0
174 197 0
174 197 0
172 195 0
172 196 0
171 195 0
171 195 0
173 195 0
173 196 0
172 196 0
175 198 0
173 196 0
172 196 0
171 195 0
174 197 0
174 197 0
171 195 0
173 197 0
172 196 0
174 197 0
170 194 0
173 195 0
172 195 0
173 196 0
173 196 0
174 197 0
175 197 0
174 197 0
173 196 0
170 194 0
174 198 0
174 197 0
173 197 0
172 196 0
174 197 0
172 196 0
174 197 0
171 195 0
174 197 0
173 197 0
171 195 0
172 196 0
174 197 0
174 197 0
173 196 0
172 196 0
174 197 0
173 196 0
171 194 0
173 196 0
172 196 0
173 197 0
173 197 0
172 196 0
172 196 0
174 197 0
172 196 0
173 197 0
175 198 0
170 193 0
174 197 0
172 196 0
173 197 0
174 198 0
173 197 0
172 196 0
171 194 0
171 194 0
173 197 0
173 196 0
172 195 0
173 196 0
171 193 0
173 197 0
171 194 0
172 195 0
173 196 0
175 198 0
172 194 0
175 198 0
171 195 31
128 153 130
70 104 169
63 99 176
62 99 176
62 99 178
62 99 177
62 99 179
62 99 178
62 99 180
62 99 181
62 99 180
62 99 180
62 99 180
62 99 180
62 99 180
62 99 181
62 99 181
62 99 181
62 99 180
62 99 181
61 99 181
61 99 181
62 99 181
61 98 181
61 99 181
62 99 180
61 98 181
61 99 181
62 99 181
62 99 181
62 99 181
62 99 181
62 99 181
61 98 181
62 99 181
61 99 181
62 99 181
62 99 181
62 99 181
61 98 181
61 99 181
61 99 181
61 99 181
61 98 181
61 99 181
62 99 181
61 99 181
62 99 181
62 99 181
61 99 181
62 99 181
61 98 181
62 99 181
61 99 181
61 99 181
61 98 181
62 99 181
61 99 181
61 98 181
61 98 181
61 99 181
62 99 181
61 99 181
62 99 181
62 99 181
61 99 181
62 99 181
61 98 181
62 99 180
62 99 181
61 98 181
61 99 181
61 98 179
62 99 180
61 98 178
61 99 181
62 99 181
61 98 179
62 99 181
62 99 181
62 99 181
61 98 180
61 98 178
61 98 179
62 99 180
62 98 179
62 99 179
62 99 180
61 98 179
62 99 179
61 98 180
61 98 179
62 99 180
62 98 176
61 98 176
62 98 177
61 97 171
61 98 176
69 102 168
106 133 147
143 167 102
164 187 47
172 195 0
173 195 0
169 191 0
172 192 0
168 189 16
170 190 22
163 182 30
165 182 37
160 176 32
159 174 34
159 171 45
162 174 56
145 153 51
136 141 54
144 149 60
144 145 62
140 139 67
145 140 78
143 139 81
141 136 78
138 135 78
144 139 85
140 135 79
123 121 73
141 137 81
133 130 76
129 127 78
139 137 85
144 140 88
144 140 91
134 133 87
136 133 83
147 144 92
153 148 94
137 135 90
139 136 89
142 139 92
141 139 92
143 141 91
144 141 93
143 142 93
150 147 95
147 145 96
144 142 96
146 144 98
150 148 99
146 144 97
147 144 96
150 147 99
146 145 98
155 151 101
153 151 101
157 154 103
147 146 100
158 155 104
156 154 104
155 152 103
157 154 104
166 163 109
159 157 105
164 161 107
163 161 108
159 156 104
159 157 105
162 160 107
161 158 106
158 156 104
167 164 108
164 161 106
163 160 107
174 170 112
164 160 107
162 160 108
166 163 109
164 162 109
165 163 108
166 164 110
166 164 110
171 167 111
171 167 111
170 166 111
167 163 108
168 165 110
172 168 111
168 165 110
171 168 111
174 169 112
172 168 111
174 171 113
169 166 109
172 168 111
171 168 112
173 168 109
172 168 111
174 169 109
172 169 112
172 168 110
173 169 110
174 170 112
173 169 110
173 170 110
173 168 109
171 166 108
176 171 111
173 169 112
172 168 109
174 170 110
172 169 110
174 169 110
174 170 110
173 168 109
168 165 109
171 167 109
164 161 104
171 167 109
169 165 108
170 166 108
171 166 108
170 165 107
171 167 107
170 167 108
169 165 106
164 160 101
166 161 104
172 168 109
173 168 106
167 163 104
160 156 101
166 161 101
163 159 102
164 159 101
168 163 105
172 167 107
167 161 101
161 156 101
162 157 95
165 158 99
168 162 102
163 158 99
166 161 101
165 160 96
159 154 96
162 156 95
157 153 95
159 153 91
155 149 91
156 151 91
150 145 86
159 153 96
148 142 86
157 151 86
151 145 82
141 136 75
141 137 75
155 148 87
141 137 74
156 149 86
148 141 80
154 148 82
153 148 76
144 144 71
141 140 64
148 154 54
155 165 54
159 172 45
160 173 49
164 181 36
166 181 41
175 196 22
168 190 11
172 194 0
174 196 0
173 196 0
173 197 0
174 197 0
172 196 0
174 197 0
171 195 0
174 198 0
174 198 0
174 197 0
175 198 0
173 197 0
173 196 0
172 196 0
174 197 0
174 197 0
174 197 0
173 197 0
172 196 0
173 196 0
174 197 0
172 196 0
173 196 0
172 194 0
173 196 0
173 196 0
174 198 0
171 196 0
174 197 0
173 196 0
173 196 0
173 196 0
174 198 0
173 196 0
174 196 0
173 197 0
173 196 0
174 197 0
173 196 0
175 198 0
174 197 0
175 197 0
172 196 0
175 198 0
175 197 0
173 197 0
174 197 0
173 197 0
173 197 0
174 197 0
174 197 0
172 196 0
173 196 0
174 197 0
174 197 0
172 196 0
173 196 0
175 198 0
174 197 0
174 197 0
172 195 0
172 194 0
171 194 0
173 196 0
174 197 0
172 195 0
174 197 0
173 197 0
172 196 0
173 196 0
172 195 0
172 196 0
172 195 0
173 196 0
173 196 0
171 194 0
173 196 0
171 195 0
174 196 0
174 197 0
173 196 0
170 192 0
172 196 0
173 197 0
173 196 0
171 195 0
172 196 0
173 196 0
175 198 0
171 195 0
172 196 0
174 196 0
174 197 0
174 198 0
174 198 0
173 196 0
175 197 0
171 194 0
172 195 0
172 196 0
172 196 0
172 195 0
172 196 0
172 195 0
169 192 0
173 196 0
172 195 0
174 196 0
171 196 0
173 197 0
171 195 0
173 196 0
169 193 0
174 196 0
173 196 0
173 196 0
173 197 0
173 195 0
173 197 0
173 196 0
173 195 0
170 194 0
174 197 0
174 197 0
170 193 18
156 180 82
93 123 156
62 99 179
62 99 173
61 99 179
61 98 176
62 99 178
62 99 180
62 99 180
62 99 178
62 99 178
62 99 180
62 99 181
62 99 178
62 99 179
61 99 180
62 99 181
61 99 181
61 99 180
61 99 181
62 99 181
62 99 181
62 99 181
62 99 181
62 99 181
61 99 180
61 99 181
61 99 181
62 99 181
61 99 181
61 99 181
61 99 181
61 99 181
61 99 180
62 99 181
61 99 181
61 99 181
62 99 181
62 99 181
62 99 181
62 99 181
61 98 181
61 99 181
62 99 181
61 99 181
60 98 181
61 99 181
61 99 181
62 99 181
61 99 181
61 98 181
62 99 181
61 99 181
61 99 181
61 99 181
61 99 181
61 99 181
62 99 181
61 99 181
61 98 181
61 99 181
62 99 181
61 99 181
62 99 181
61 98 181
62 99 181
62 99 181
62 99 181
61 99 181
61 99 181
61 98 181
62 99 181
61 98 180
62 99 180
62 99 181
62 99 181
62 99 179
61 99 180
62 99 181
62 99 181
62 99 178
62 99 181
61 99 180
63 99 180
61 98 179
61 99 180
63 100 181
61 98 178
63 100 178
62 99 179
61 98 177
61 98 178
61 98 178
61 98 176
61 97 175
61 98 178
62 98 177
62 99 177
62 98 178
62 98 175
61 97 172
61 98 176
87 116 158
124 149 123
163 187 63
173 194 18
172 194 11
170 193 0
167 188 16
165 184 22
170 191 25
162 180 16
158 174 41
159 171 42
145 156 44
147 158 46
147 155 51
148 153 61
149 153 63
134 136 58
142 144 63
127 125 67
135 129 77
146 139 82
144 139 81
133 130 76
145 141 85
143 139 83
143 139 83
143 138 86
145 142 90
138 134 85
142 140 90
142 139 86
136 133 84
129 127 82
141 138 89
143 140 90
138 137 93
135 133 90
144 142 94
143 140 93
139 137 92
154 150 99
147 143 94
148 145 95
147 145 95
147 145 97
153 150 100
143 142 99
147 145 99
150 147 98
148 147 99
151 149 101
148 147 100
154 152 102
152 149 101
161 157 105
162 159 106
161 159 108
156 154 104
160 157 105
163 161 108
161 159 106
161 158 104
156 153 103
166 162 107
162 160 107
163 160 107
163 160 106
162 159 107
165 161 107
162 160 108
166 163 109
166 162 107
169 166 110
172 169 113
170 166 110
166 163 109
168 165 110
166 163 108
169 166 109
173 170 113
170 167 110
167 163 108
172 169 111
169 166 111
171 167 111
171 167 110
171 167 109
173 169 111
166 163 108
171 167 111
171 167 112
173 169 111
170 167 110
173 169 111
169 165 107
172 168 109
172 168 110
175 171 112
172 168 109
173 169 111
168 165 109
174 170 110
175 170 109
174 169 111
171 167 109
170 167 110
171 167 109
171 167 109
173 170 112
168 164 106
174 170 111
173 169 109
173 168 109
168 163 106
174 169 110
176 170 110
169 164 106
168 163 105
171 167 108
171 166 108
172 167 108
169 164 104
165 160 103
173 167 108
169 164 105
171 167 107
166 162 105
164 159 103
165 161 104
166 163 105
168 163 104
169 165 107
162 157 101
165 160 102
171 165 104
162 156 95
163 158 101
161 156 95
163 159 98
163 158 95
166 160 101
167 161 100
163 158 97
160 154 93
162 156 100
161 155 97
151 146 90
157 152 92
159 153 93
155 150 88
153 148 84
160 154 93
158 152 91
155 148 88
152 146 84
156 149 88
147 142 79
147 142 81
142 136 77
128 123 71
145 139 74
141 137 73
152 152 71
153 155 63
150 157 56
151 162 48
161 175 44
160 176 39
165 183 25
169 190 19
172 194 22
172 195 0
174 197 0
173 196 0
175 198 0
174 197 0
174 198 0
172 196 0
175 198 0
174 198 0
174 196 0
174 197 0
175 198 0
172 196 0
174 197 0
173 197 0
172 196 0
173 197 0
172 195 0
174 198 0
175 197 0
173 197 0
172 196 0
173 197 0
172 196 0
174 198 0
175 198 0
175 198 0
175 198 0
171 195 0
173 197 0
172 195 0
171 195 0
175 198 0
173 197 0
172 196 0
174 197 0
172 196 0
173 196 0
172 195 0
174 198 0
172 195 0
173 196 0
169 192 0
173 197 0
172 195 0
173 196 0
175 198 0
173 196 0
170 194 0
171 194 0
175 198 0
172 196 0
174 197 0
174 197 0
172 196 0
172 196 0
172 195 0
170 194 0
174 197 0
175 198 0
172 195 0
176 198 0
173 196 0
173 196 0
172 195 0
173 196 0
175 198 0
175 198 0
172 195 0
173 197 0
173 197 0
173 196 0
174 197 0
172 196 0
172 195 0
174 197 0
170 194 0
170 194 0
172 195 0
175 198 0
174 197 0
174 197 0
172 196 0
171 195 0
173 196 0
174 198 0
174 198 0
172 196 0
176 199 0
172 195 0
173 196 0
172 195 0
172 196 0
170 193 0
173 196 0
171 194 0
172 195 0
175 198 0
174 197 0
172 195 0
172 196 0
175 198 0
170 193 0
174 198 0
169 193 0
171 195 0
171 195 0
172 196 0
171 194 0
172 196 0
172 196 0
173 197 0
171 194 0
173 196 0
173 197 0
172 196 0
171 196 0
170 194 0
173 197 0
171 195 0
174 197 0
170 194 0
171 195 0
170 194 0
170 194 36
135 160 118
76 109 167
62 99 177
62 99 175
62 99 177
62 99 180
62 99 179
63 100 180
61 98 177
61 99 179
62 99 178
61 99 179
61 99 178
62 99 179
62 99 180
63 100 181
62 99 180
61 98 179
62 99 180
62 100 181
62 99 181
61 99 181
62 99 181
62 99 180
62 99 180
62 99 181
62 99 181
61 99 181
61 99 181
61 99 180
61 98 181
62 99 181
61 98 181
61 98 181
61 99 181
62 99 181
62 99 181
62 99 180
62 99 181
62 99 181
61 99 181
61 99 181
61 99 181
61 99 181
61 98 181
61 98 181
61 98 181
61 99 181
62 99 181
61 99 181
61 98 181
62 99 181
62 99 181
61 99 181
62 99 181
61 99 181
62 99 181
61 99 181
62 99 181
61 99 180
61 99 181
62 99 181
61 99 181
61 99 181
62 99 181
61 99 181
61 98 180
61 99 181
61 98 181
62 99 181
62 99 181
62 99 181
62 99 181
62 99 180
62 99 180
62 99 180
62 99 181
62 99 180
62 99 181
62 99 180
62 99 180
62 99 180
61 99 181
61 99 180
62 99 180
62 99 179
61 98 180
62 99 181
61 98 175
61 98 177
61 98 177
62 99 179
62 99 179
62 99 179
62 99 179
61 98 177
62 98 175
62 98 177
61 98 177
62 98 176
61 97 172
61 97 169
61 97 173
61 97 172
70 102 167
112 137 129
148 173 83
170 193 36
173 194 0
167 189 11
166 186 24
163 179 36
162 180 33
155 172 26
157 172 41
155 168 47
147 157 49
143 149 51
141 144 60
147 148 69
142 140 68
150 149 76
138 135 72
129 125 74
130 124 72
138 133 81
146 141 84
134 129 75
122 120 72
142 137 83
136 133 82
135 132 81
139 135 85
143 140 87
132 130 82
139 136 91
139 137 88
130 129 86
146 143 94
144 141 91
135 134 90
142 140 93
143 140 88
144 140 90
141 139 94
138 137 91
146 144 97
145 144 97
138 136 93
148 147 99
148 146 100
153 149 98
141 139 94
149 149 100
150 148 99
142 140 95
151 149 101
148 148 102
154 152 102
155 153 103
157 155 105
154 153 103
144 143 97
152 150 101
156 154 104
165 162 108
160 157 105
157 155 105
161 158 105
162 158 106
161 158 105
161 158 105
165 163 109
165 162 108
164 161 107
162 160 108
163 161 109
162 160 107
164 161 106
169 166 109
168 165 109
169 166 110
165 163 108
163 161 107
170 166 110
168 165 108
167 164 110
171 167 109
170 166 110
169 166 110
174 170 110
171 168 111
172 168 111
173 169 110
174 171 112
173 169 109
174 169 111
173 168 111
171 167 110
173 169 111
174 169 111
175 170 110
174 169 110
171 167 110
173 169 110
172 168 109
174 169 110
172 168 110
174 170 109
169 165 107
170 167 109
174 169 110
172 168 109
170 165 104
172 167 106
171 167 110
170 167 110
169 164 105
166 162 105
171 167 109
173 169 110
171 167 109
170 166 103
168 163 104
168 162 103
168 164 107
167 162 103
170 165 106
174 169 109
168 164 106
166 162 103
170 166 107
173 168 104
169 165 103
166 161 104
156 152 96
163 159 99
163 159 99
167 161 100
165 159 101
161 157 100
162 157 99
167 161 101
160 155 96
169 163 101
170 164 103
161 155 98
165 159 96
162 155 94
157 152 91
163 157 95
167 161 97
159 154 93
153 148 89
151 146 86
155 149 84
159 153 96
150 145 85
153 147 84
154 148 88
150 145 86
146 140 76
136 131 69
132 127 72
138 133 68
143 141 68
150 150 74
149 150 64
147 151 60
150 159 52
158 168 47
160 175 34
160 176 28
168 185 39
173 195 19
174 195 19
173 197 0
174 197 0
174 197 0
174 197 0
172 196 0
174 197 0
174 197 0
171 194 0
175 198 0
172 196 0
172 196 0
175 198 0
173 196 0
173 197 0
175 198 0
173 197 0
172 195 0
175 198 0
174 198 0
174 197 0
174 197 0
173 197 0
173 197 0
173 197 0
173 196 0
173 196 0
173 196 0
173 196 0
173 197 0
173 197 0
171 195 0
173 197 0
172 195 0
173 196 0
172 195 0
172 195 0
174 197 0
173 197 0
174 198 0
172 196 0
172 196 0
170 193 0
175 198 0
174 198 0
175 198 0
174 197 0
173 196 0
175 198 0
172 195 0
171 195 0
173 197 0
173 197 0
175 197 0
172 195 0
174 197 0
174 197 0
171 195 0
174 197 0
173 196 0
173 196 0
172 195 0
171 195 0
174 197 0
173 197 0
174 197 0
171 194 0
174 197 0
174 198 0
174 198 0
173 196 0
173 196 0
171 195 0
174 197 0
172 195 0
174 197 0
172 196 0
173 196 0
174 198 0
172 195 0
174 197 0
174 197 0
173 197 0
173 196 0
173 196 0
171 194 0
171 195 0
174 197 0
174 198 0
173 196 0
173 197 0
173 196 0
172 195 0
172 194 0
172 196 0
173 197 0
173 196 0
173 196 0
171 195 0
173 196 0
174 197 0
174 197 0
171 195 0
172 196 0
171 195 0
174 196 0
171 195 0
173 196 0
172 196 0
174 196 0
173 196 0
173 196 0
171 194 0
174 197 0
173 196 0
169 193 0
170 194 0
172 195 0
171 194 0
170 194 0
175 197 0
172 196 0
170 193 0
160 183 67
122 148 133
66 102 174
63 99 178
62 99 173
62 99 177
62 99 176
62 99 178
62 99 179
62 99 178
62 99 179
62 99 180
62 99 180
62 99 180
61 99 180
62 99 179
61 98 181
62 99 181
61 99 181
62 99 181
61 99 181
62 99 181
62 99 181
62 99 180
61 99 181
62 99 180
62 99 180
62 99 181
61 99 180
62 99 181
62 99 181
62 99 180
61 99 181
62 99 181
61 99 181
61 98 181
61 99 181
61 98 180
61 99 181
61 99 181
61 98 180
62 99 181
62 99 181
62 99 181
61 98 181
61 99 181
62 99 181
62 99 181
62 99 181
61 99 181
62 99 181
62 99 181
61 99 181
62 99 181
61 99 181
62 99 181
61 99 181
62 99 181
61 99 181
62 99 181
62 99 181
62 99 181
61 99 181
61 98 181
61 99 181
62 99 181
62 99 181
61 98 181
62 99 181
61 99 181
62 99 181
62 99 181
61 99 181
62 99 180
61 99 181
62 99 181
61 99 181
62 99 181
62 99 180
61 98 180
62 99 181
62 99 180
62 99 180
62 99 181
62 99 181
62 98 179
61 98 179
61 98 178
62 99 179
62 99 181
61 98 176
62 99 180
62 99 179
61 98 179
62 99 180
63 99 178
61 98 178
61 98 178
61 97 175
62 98 175
61 97 175
61 98 178
62 98 176
61 97 174
62 99 178
61 98 174
61 96 171
60 96 169
90 119 154
139 161 104
163 185 44
166 186 25
168 187 28
160 178 29
161 179 33
155 168 41
154 166 45
141 150 48
148 157 51
141 147 55
149 151 66
139 141 59
139 138 71
136 133 76
140 136 80
134 130 75
131 127 75
140 135 80
146 140 86
142 138 81
133 129 79
130 127 75
135 132 86
149 145 94
131 128 81
137 134 83
127 125 83
139 137 90
128 126 85
143 140 91
136 135 89
133 132 89
139 137 90
139 137 90
138 136 92
146 143 95
137 135 91
141 139 93
149 147 98
142 139 92
151 149 100
142 140 95
141 139 94
145 143 97
153 151 100
149 147 100
145 143 97
138 137 94
163 159 106
148 147 101
146 144 98
153 151 103
163 160 108
158 155 104
157 155 105
157 154 103
165 162 108
162 159 106
163 160 108
151 149 101
165 162 109
164 161 108
157 156 104
159 157 105
163 160 107
162 158 105
166 162 106
162 159 106
165 162 108
162 159 107
168 165 110
167 165 110
167 164 108
167 164 109
166 163 109
170 167 110
166 163 109
166 163 109
172 168 111
172 169 112
171 167 111
171 167 109
170 166 108
169 165 109
172 168 110
172 168 111
172 168 110
173 169 112
173 169 112
173 168 109
171 166 108
172 168 112
175 170 112
171 167 110
173 168 110
175 170 111
174 169 109
172 168 107
173 169 110
175 171 111
172 167 110
175 171 112
173 168 109
172 168 109
173 169 108
176 171 111
168 163 106
171 167 108
174 169 109
171 167 108
167 163 106
169 164 106
170 165 108
172 168 108
172 167 106
171 168 109
168 165 104
173 169 108
173 168 108
169 165 107
169 164 104
165 160 101
173 169 107
169 163 102
169 164 103
168 163 104
169 163 103
170 165 105
162 158 103
167 161 98
167 161 100
168 162 102
163 157 93
163 157 98
165 160 99
160 155 95
162 158 99
160 155 96
160 156 93
164 159 97
159 154 95
154 148 91
158 152 94
156 150 92
162 155 93
155 150 87
163 156 94
149 143 84
160 154 94
151 146 86
154 148 86
150 143 85
150 145 80
149 144 84
151 145 81
147 140 83
138 132 73
152 147 76
143 142 65
154 156 67
149 154 60
154 161 57
154 166 45
158 170 48
162 177 39
168 186 30
169 191 19
170 193 0
171 195 0
173 196 0
174 197 0
172 196 0
173 197 0
173 196 0
173 197 0
171 194 0
174 197 0
173 197 0
172 195 0
173 196 0
174 196 0
173 196 0
174 197 0
174 197 0
173 197 0
174 197 0
174 197 0
173 196 0
174 198 0
172 195 0
173 195 0
173 196 0
174 198 0
172 195 0
174 197 0
173 197 0
173 197 0
174 198 0
174 198 0
174 197 0
173 196 0
171 195 0
172 195 0
172 196 0
175 198 0
173 197 0
171 195 0
173 197 0
174 198 0
173 196 0
172 196 0
171 194 0
172 196 0
174 197 0
173 196 0
172 196 0
173 197 0
172 197 0
173 195 0
170 195 0
172 196 0
173 197 0
175 198 0
172 196 0
175 198 0
172 194 0
173 196 0
173 195 0
171 195 0
173 197 0
174 198 0
173 196 0
173 197 0
174 197 0
173 196 0
173 196 0
174 197 0
172 195 0
172 195 0
174 197 0
171 193 0
174 197 0
173 197 0
173 197 0
174 197 0
172 195 0
175 198 0
173 197 0
171 195 0
172 195 0
174 197 0
172 196 0
171 194 0
174 197 0
170 194 0
172 195 0
171 195 0
172 195 0
173 197 0
172 195 0
170 192 0
173 196 0
174 197 0
174 197 0
171 195 0
174 197 0
173 196 0
174 197 0
174 197 0
173 196 0
170 194 0
170 194 0
171 195 0
173 196 0
175 197 0
173 197 0
172 196 0
169 194 0
175 198 0
170 193 0
172 195 0
172 195 0
170 194 0
174 197 0
172 195 0
172 195 0
172 196 0
168 191 0
173 196 0
156 180 80
90 120 160
62 99 176
61 98 172
62 98 173
62 99 180
62 99 176
62 99 178
62 99 179
62 99 178
61 98 176
62 99 178
61 98 177
62 99 179
62 99 181
62 99 180
63 100 180
62 99 180
62 99 181
62 99 179
62 99 181
61 99 181
62 99 179
62 99 180
62 99 181
62 99 181
62 99 181
62 99 181
61 99 181
62 99 181
62 99 180
61 99 181
62 99 181
61 99 181
62 99 181
62 99 180
62 99 181
61 99 181
62 99 181
61 99 181
61 99 181
61 99 181
62 99 181
62 99 181
62 99 181
62 99 181
62 99 181
62 99 181
61 98 181
62 99 181
61 99 181
61 99 181
62 99 181
62 99 181
62 99 181
61 98 181
61 98 181
61 99 181
62 99 181
62 99 181
62 99 181
61 98 181
61 99 181
62 99 181
61 99 181
62 99 181
62 99 181
61 99 181
62 99 181
61 99 181
61 98 180
62 99 181
62 99 181
61 99 181
62 99 181
61 98 180
62 99 181
62 99 180
62 99 180
62 99 181
62 99 181
62 99 181
62 99 180
61 99 181
61 99 180
61 98 179
62 99 180
62 99 180
62 99 181
62 99 179
61 97 176
62 99 180
62 99 181
62 99 178
62 99 177
61 98 177
62 99 180
62 99 180
62 99 176
62 99 178
61 98 177
62 98 177
62 99 177
61 98 177
61 97 174
61 98 176
61 97 174
60 96 171
60 96 170
61 97 174
72 104 160
131 151 116
155 174 66
158 178 11
161 176 29
160 175 42
156 170 44
147 160 37
155 165 48
148 156 51
148 154 56
143 146 58
141 143 64
130 129 69
135 130 72
126 122 71
138 134 76
141 136 79
127 122 69
120 118 69
136 131 79
134 131 80
135 131 78
127 125 83
134 131 82
134 132 86
131 129 84
138 135 85
138 136 87
143 140 89
132 131 89
140 137 90
133 132 89
134 133 89
136 134 88
125 125 87
149 146 97
136 136 90
141 139 94
141 138 93
147 144 94
134 133 90
144 144 98
160 156 104
152 150 101
142 140 96
143 141 95
149 147 99
151 149 101
147 145 99
150 148 100
150 149 102
148 146 99
152 150 102
155 153 102
152 150 101
155 152 103
154 151 101
157 153 103
152 150 102
159 156 106
158 157 105
163 160 107
153 151 103
162 159 106
158 155 105
166 163 108
163 160 107
161 158 106
166 162 108
165 162 108
169 165 109
163 160 106
165 163 108
166 163 109
169 166 110
169 165 110
172 168 112
171 168 112
165 162 108
171 167 111
170 166 110
170 167 109
170 166 110
174 170 112
170 166 109
174 170 111
175 170 111
169 165 109
171 167 109
171 167 110
173 169 110
176 170 111
173 169 111
169 166 105
172 169 113
173 169 112
175 169 109
173 169 108
176 171 111
171 168 110
172 167 108
168 163 106
171 167 109
176 170 109
171 167 108
171 166 106
168 164 107
172 168 108
177 171 110
171 167 108
170 166 106
168 164 108
170 166 107
170 165 104
174 169 108
172 168 109
170 166 106
171 166 104
171 166 106
170 164 103
169 164 104
168 163 103
168 164 105
169 163 103
168 164 104
166 161 100
174 168 106
168 162 103
166 161 101
162 158 97
167 162 101
169 163 103
168 162 101
160 155 93
159 154 95
168 162 101
170 165 101
166 160 99
158 153 93
166 160 99
159 153 93
161 155 93
156 150 86
161 155 94
155 149 87
159 153 90
164 156 92
154 148 84
155 149 93
150 144 82
149 144 81
153 147 88
150 144 82
139 133 75
150 144 81
139 134 73
136 130 77
153 146 84
145 143 70
144 144 65
151 153 67
154 163 54
159 169 51
155 171 37
155 169 36
170 189 28
174 195 25
170 192 19
173 195 11
175 197 0
174 196 0
172 196 0
174 197 0
173 196 0
173 197 0
173 196 0
172 195 0
174 197 0
172 195 0
173 196 0
172 196 0
173 197 0
172 196 0
175 198 0
174 197 0
172 196 0
174 198 0
175 198 0
173 197 0
173 197 0
172 196 0
172 196 0
173 196 0
171 196 0
174 198 0
174 197 0
173 196 0
172 195 0
172 195 0
174 197 0
173 196 0
172 196 0
174 197 0
175 198 0
174 197 0
172 196 0
173 196 0
173 197 0
175 198 0
173 196 0
172 196 0
174 197 0
171 194 0
175 197 0
175 197 0
173 197 0
173 196 0
173 197 0
173 196 0
173 197 0
171 195 0
173 197 0
174 197 0
172 195 0
173 197 0
173 196 0
174 197 0
174 197 0
172 196 0
171 195 0
173 197 0
172 196 0
173 197 0
171 195 0
174 197 0
172 195 0
173 196 0
172 196 0
172 195 0
173 196 0
169 193 0
171 195 0
172 195 0
171 195 0
173 196 0
172 195 0
174 197 0
173 196 0
172 196 0
173 197 0
170 193 0
174 197 0
172 196 0
174 197 0
172 196 0
174 197 0
174 197 0
172 196 0
170 194 0
172 196 0
175 198 0
172 196 0
172 195 0
172 196 0
173 196 0
172 196 0
174 197 0
172 196 0
172 195 0
173 196 0
171 195 0
174 197 0
173 196 0
172 196 0
169 192 0
173 196 0
167 190 0
173 197 0
172 196 0
172 195 0
170 193 0
173 196 0
170 193 0
171 195 0
172 195 0
172 196 0
174 197 0
167 190 36
147 171 97
72 106 168
62 99 176
63 100 177
62 99 178
62 99 178
62 99 178
61 98 173
62 99 180
62 99 180
62 99 180
62 99 178
62 99 179
62 99 179
62 99 178
62 99 179
62 99 180
62 99 181
62 99 179
62 99 180
62 99 179
61 99 181
61 98 181
62 99 181
62 99 180
62 99 180
61 99 181
61 99 181
62 99 181
62 99 181
61 99 181
62 99 181
61 99 181
62 99 181
62 99 181
62 99 181
62 99 181
61 99 180
62 99 181
62 99 181
61 98 181
62 99 181
62 99 181
62 99 181
61 99 181
61 98 181
61 99 181
61 98 181
61 99 181
62 99 181
62 99 181
61 99 181
62 99 181
61 99 180
61 99 181
61 98 181
61 99 181
61 98 180
61 99 181
62 99 181
61 98 181
61 99 181
61 98 181
61 99 181
62 99 181
62 99 181
61 99 181
62 99 181
62 99 181
61 99 181
61 99 180
61 98 181
61 99 181
62 99 181
61 99 180
61 98 181
62 99 180
61 98 180
62 99 180
62 99 181
62 99 181
61 98 181
61 98 179
62 99 180
61 99 181
62 99 181
62 99 179
61 99 180
62 99 180
62 99 179
62 99 180
62 99 181
62 99 180
62 99 180
62 98 178
61 98 178
62 99 179
62 99 180
62 99 179
62 98 178
62 98 176
62 98 178
61 98 179
61 98 176
62 98 177
61 97 175
62 98 175
61 98 175
61 98 175
61 96 168
60 96 169
61 98 174
69 103 170
110 135 139
149 167 77
164 181 32
160 175 41
158 171 44
153 162 42
160 170 52
148 155 53
133 136 54
133 134 59
143 142 62
149 145 75
139 134 73
134 131 78
139 135 73
133 130 79
127 124 73
142 137 85
141 138 89
138 134 80
128 125 77
134 131 85
139 134 82
138 134 86
125 123 78
132 129 85
136 133 84
147 144 91
147 144 94
146 143 92
144 142 93
148 144 96
151 148 96
136 134 90
140 138 92
136 134 91
135 133 91
147 145 98
131 131 90
148 145 98
133 132 92
137 136 91
144 143 97
143 141 97
151 148 97
143 142 96
144 143 98
146 145 100
156 154 104
144 143 99
153 150 100
150 149 102
152 151 104
154 153 103
158 156 105
160 156 103
158 156 104
160 158 105
156 154 103
158 156 104
163 160 106
165 162 108
160 157 103
161 158 105
159 157 107
165 162 108
159 157 107
162 159 106
162 160 107
165 161 107
161 158 106
170 166 109
167 163 108
166 164 109
165 162 108
167 163 108
170 166 109
172 168 111
165 163 109
166 163 108
174 169 110
171 167 110
171 167 109
173 168 110
174 169 110
172 167 109
174 169 111
169 165 106
174 170 110
169 165 108
175 170 111
172 168 110
174 170 109
173 169 111
179 173 112
175 171 110
176 171 110
172 168 109
174 170 110
174 169 110
174 169 110
175 169 109
176 170 107
175 170 109
171 167 109
174 169 107
175 170 109
173 168 107
175 170 109
169 166 106
169 165 107
172 168 109
170 165 105
165 161 102
166 161 100
168 164 104
170 165 106
170 165 107
170 165 106
170 165 104
173 167 105
168 163 103
167 162 103
171 166 104
171 167 104
171 166 106
168 163 103
167 162 103
166 160 102
163 159 102
167 161 98
163 158 100
169 163 100
164 158 99
165 158 99
161 155 95
160 155 93
162 156 94
165 158 99
158 153 92
162 156 95
165 157 92
153 148 91
155 149 90
156 151 90
160 154 92
158 152 90
141 136 78
153 147 82
150 145 86
155 149 87
154 149 87
152 147 84
144 137 77
147 140 82
146 140 77
154 148 80
139 134 70
155 154 71
151 152 71
146 153 51
161 170 56
159 171 41
164 179 41
159 177 22
168 186 30
170 191 19
173 197 0
171 193 0
173 196 0
173 197 0
175 198 0
173 197 0
174 197 0
174 197 0
173 196 0
174 196 0
174 197 0
175 198 0
172 196 0
174 197 0
173 197 0
174 197 0
171 195 0
174 196 0
173 196 0
172 195 0
173 196 0
174 198 0
174 198 0
174 197 0
173 196 0
171 195 0
173 196 0
173 196 0
173 197 0
172 196 0
173 196 0
173 196 0
175 198 0
173 196 0
172 195 0
174 197 0
175 198 0
174 197 0
175 198 0
172 196 0
171 195 0
175 198 0
175 198 0
174 198 0
173 197 0
173 197 0
172 196 0
174 197 0
174 197 0
173 196 0
172 196 0
173 197 0
173 196 0
175 198 0
169 193 0
175 198 0
173 197 0
173 196 0
172 197 0
172 196 0
173 197 0
174 197 0
171 195 0
174 198 0
174 197 0
173 196 0
173 197 0
174 197 0
172 196 0
170 194 0
173 196 0
173 196 0
172 196 0
170 195 0
175 198 0
171 195 0
171 194 0
174 198 0
171 194 0
173 197 0
175 198 0
172 196 0
174 196 0
174 197 0
173 196 0
173 196 0
173 195 0
171 196 0
174 197 0
172 195 0
174 197 0
173 195 0
172 196 0
173 196 0
173 196 0
170 194 0
172 196 0
171 195 0
173 196 0
173 196 0
171 194 0
173 197 0
174 198 0
171 195 0
172 196 0
173 197 0
171 195 0
170 193 0
169 192 0
172 196 0
173 196 0
173 197 0
171 195 0
172 195 0
172 194 0
170 193 0
170 194 0
170 194 0
170 193 31
122 148 126
68 103 166
62 99 177
62 99 176
62 99 174
62 99 178
62 99 176
61 98 177
62 99 178
63 99 177
62 99 179
61 99 181
61 99 178
62 99 177
62 99 180
62 99 179
62 99 179
62 99 180
61 99 180
61 99 179
62 99 180
62 99 181
62 99 179
62 99 180
62 99 180
62 99 180
61 98 179
61 98 180
62 99 180
62 99 181
62 99 181
61 99 181
62 99 180
62 99 181
62 99 181
61 98 180
62 99 181
62 99 181
61 98 181
62 99 181
62 99 181
61 98 181
62 99 180
62 99 181
62 99 181
61 99 181
62 99 181
62 99 181
62 99 181
62 99 181
61 99 181
61 99 181
62 99 181
61 99 181
61 98 181
61 99 181
62 99 181
62 99 180
62 99 181
62 99 180
61 99 181
62 99 181
61 99 181
62 99 181
61 98 181
62 99 181
62 99 181
62 99 181
62 99 181
62 99 181
61 98 180
61 98 180
61 99 181
62 99 181
61 99 180
62 99 180
61 99 181
61 99 180
61 98 179
61 98 181
62 99 180
62 99 181
62 99 181
62 99 180
61 99 180
61 99 181
62 99 179
62 99 181
62 99 181
61 98 179
62 99 181
61 98 179
62 99 180
62 99 181
61 98 179
61 98 177
62 99 177
62 99 179
62 99 178
61 98 177
62 99 178
62 99 177
61 98 176
61 98 176
62 99 179
62 98 174
61 97 173
62 99 177
62 99 177
61 98 173
62 99 179
61 98 177
62 97 172
62 98 174
63 98 170
100 125 144
138 156 90
152 165 54
157 171 44
151 162 47
158 165 56
148 153 61
143 148 58
137 140 63
129 127 65
138 135 72
132 129 72
126 122 67
141 136 76
132 129 73
138 134 77
136 133 78
130 126 78
140 136 82
142 138 88
137 134 83
141 136 86
141 138 89
134 131 84
133 131 83
140 138 89
135 133 85
138 135 83
145 142 94
137 136 92
131 130 89
137 135 90
141 139 93
140 139 90
140 138 93
136 136 93
146 144 98
143 141 93
142 140 94
139 139 95
137 135 93
138 137 94
138 137 94
154 152 102
152 150 103
151 149 101
152 150 101
155 154 103
155 153 103
154 152 102
150 148 100
159 156 104
150 148 100
152 151 101
152 150 101
157 155 105
161 158 105
160 157 105
163 160 107
158 156 105
161 159 107
158 156 105
159 157 105
162 159 106
158 156 105
169 165 110
163 160 107
162 159 106
166 163 108
165 162 106
167 164 108
169 165 108
167 164 109
171 167 110
175 171 111
172 168 109
170 166 109
172 168 111
166 163 107
168 166 109
168 164 108
176 171 111
175 171 110
172 169 110
171 168 111
171 167 108
173 169 110
170 166 106
174 170 110
173 169 109
175 171 113
175 170 110
174 170 110
170 167 109
175 171 111
174 169 108
172 168 110
171 167 108
171 167 108
175 170 112
173 168 108
173 169 109
176 170 110
171 167 108
172 166 108
171 167 108
172 168 108
174 170 111
174 170 109
173 168 106
171 166 104
174 169 109
170 166 109
174 169 109
169 165 107
173 167 108
168 164 103
172 166 106
171 166 107
172 166 106
167 163 104
167 162 104
165 159 101
171 166 104
170 164 103
165 160 101
166 161 100
165 159 99
162 156 96
164 159 98
161 157 95
168 163 100
162 159 97
158 153 91
163 157 97
160 154 94
159 154 93
162 156 95
162 156 94
161 155 95
156 151 88
161 156 97
155 150 85
163 157 93
154 148 86
157 151 84
154 148 85
156 151 91
155 149 87
154 148 86
152 147 84
159 152 84
151 145 80
147 139 76
151 145 85
142 137 73
151 149 73
142 142 64
143 146 60
156 162 60
155 165 56
154 168 39
156 173 28
167 184 39
167 186 25
169 189 16
172 194 11
173 196 0
172 194 0
172 195 0
172 196 0
174 197 0
171 195 0
174 197 0
174 197 0
173 197 0
172 196 0
173 197 0
174 197 0
172 195 0
174 198 0
175 197 0
172 196 0
171 195 0
173 196 0
173 196 0
174 198 0
173 197 0
173 197 0
174 197 0
174 197 0
172 195 0
174 197 0
175 198 0
173 196 0
175 198 0
173 197 0
172 195 0
172 196 0
172 196 0
174 197 0
174 197 0
172 195 0
174 196 0
173 197 0
174 198 0
174 198 0
171 195 0
174 196 0
173 197 0
171 195 0
172 196 0
174 197 0
172 196 0
172 196 0
174 197 0
171 195 0
173 197 0
172 194 0
175 198 0
175 198 0
171 195 0
174 197 0
172 194 0
172 196 0
173 197 0
174 197 0
174 198 0
173 197 0
173 197 0
172 196 0
173 196 0
173 196 0
174 198 0
173 196 0
172 195 0
173 196 0
173 195 0
172 196 0
172 195 0
175 198 0
173 197 0
173 196 0
173 196 0
173 197 0
173 196 0
171 195 0
173 196 0
171 195 0
171 194 0
173 195 0
171 194 0
174 197 0
174 197 0
174 197 0
171 195 0
172 194 0
172 195 0
173 196 0
173 196 0
172 197 0
172 196 0
167 191 0
171 195 0
169 192 0
172 195 0
173 197 0
173 196 0
171 194 0
172 195 0
169 193 0
169 192 0
168 192 0
175 198 0
174 196 0
174 197 0
174 198 0
172 195 0
174 197 0
173 195 0
172 195 0
173 196 0
173 197 0
159 182 65
115 142 139
63 99 173
62 99 176
62 99 176
63 100 179
61 98 178
62 99 179
62 99 179
63 100 179
62 99 180
62 99 178
61 99 180
62 99 177
62 99 180
61 98 175
62 99 181
61 98 179
61 98 175
61 98 181
62 99 179
62 99 178
62 99 181
62 99 180
62 99 179
61 99 181
61 99 181
61 99 178
62 99 181
62 99 180
62 99 180
62 99 180
62 99 179
62 99 180
62 99 181
61 99 181
62 99 180
61 98 181
62 99 181
62 99 181
61 99 181
61 99 181
61 99 180
62 99 181
61 99 180
62 99 181
61 98 181
62 99 181
62 99 181
62 99 181
62 99 180
61 99 181
62 99 181
61 98 181
61 99 181
62 99 181
62 99 181
61 98 181
61 98 181
61 99 180
62 99 181
62 99 181
61 99 181
62 99 181
62 99 181
61 99 181
62 99 181
62 99 179
61 99 181
62 99 181
61 98 181
62 99 181
62 99 181
62 99 181
62 99 181
62 99 181
62 99 181
61 98 179
61 99 181
61 98 180
61 99 181
61 99 180
62 99 181
61 99 180
62 99 180
61 99 180
62 99 180
62 99 179
61 98 179
62 99 179
61 98 180
62 98 178
62 99 181
62 99 180
62 99 179
61 99 179
61 99 180
62 99 179
62 98 179
61 98 178
61 98 178
61 97 170
62 99 177
61 98 174
61 98 178
62 99 177
61 98 176
62 99 177
62 99 179
62 99 176
61 98 174
62 98 175
62 98 174
62 98 176
61 97 173
62 98 175
61 97 175
61 97 172
89 116 155
127 143 120
146 157 73
151 157 60
151 153 68
149 153 58
142 145 58
140 145 59
143 141 66
120 117 61
130 126 73
141 136 75
122 119 68
137 133 83
128 124 74
127 125 81
145 141 87
127 125 79
122 120 78
128 126 79
136 133 87
134 131 86
135 133 87
123 122 81
139 136 86
128 127 84
129 127 83
142 140 92
138 136 90
128 128 86
138 137 91
134 132 89
124 124 85
135 134 90
136 135 92
123 124 85
144 143 97
135 135 94
141 140 95
138 137 94
142 141 96
145 144 98
149 147 101
144 143 97
148 146 97
145 143 96
144 144 100
143 142 96
147 145 99
154 152 101
154 152 104
161 158 106
154 151 100
150 149 99
156 154 104
158 156 104
159 156 104
162 159 106
162 159 106
162 159 105
159 156 105
159 157 106
168 165 110
168 165 108
165 161 108
162 159 108
160 157 104
167 164 110
168 164 109
161 158 105
168 164 108
164 162 106
167 164 107
168 164 105
168 164 108
171 167 110
168 165 109
175 171 112
171 168 112
171 168 110
169 166 108
169 165 108
174 169 109
174 169 109
172 168 108
171 167 109
175 170 111
173 169 111
174 169 109
172 169 110
179 172 111
173 168 107
173 168 110
174 169 109
172 169 111
172 168 110
173 168 107
176 171 110
171 167 107
173 169 110
173 168 108
169 166 104
173 168 108
176 170 109
171 166 105
171 166 106
172 167 108
174 169 110
177 171 109
171 166 107
172 167 108
170 166 108
176 170 110
171 167 107
164 159 102
169 165 106
172 167 107
169 164 104
171 166 108
169 165 103
167 162 98
170 164 104
170 164 104
168 163 103
168 163 103
166 161 98
172 166 102
163 158 97
157 152 93
165 159 97
160 155 95
166 161 100
161 156 95
155 151 88
158 151 95
165 159 96
158 153 91
158 153 90
162 156 95
163 157 97
165 158 97
160 154 89
160 153 90
164 157 92
158 153 91
157 151 89
144 138 80
153 147 88
142 137 80
152 146 87
143 138 75
137 132 80
149 142 79
144 139 72
147 141 76
148 143 75
129 127 64
149 150 66
144 149 56
149 158 49
159 169 53
159 172 37
161 180 30
168 187 28
168 189 16
172 195 0
173 197 0
172 195 0
176 198 0
173 196 0
175 198 0
172 196 0
173 197 0
172 196 0
174 197 0
175 198 0
173 196 0
174 197 0
173 196 0
173 196 0
175 198 0
174 197 0
174 197 0
174 197 0
174 197 0
172 195 0
172 196 0
175 198 0
172 196 0
173 197 0
174 198 0
174 197 0
171 194 0
172 194 0
174 196 0
171 195 0
173 197 0
172 196 0
171 195 0
175 198 0
174 198 0
168 192 0
171 194 0
173 196 0
173 196 0
173 197 0
173 197 0
172 196 0
173 196 0
174 196 0
174 197 0
173 196 0
172 196 0
170 194 0
172 196 0
170 194 0
173 196 0
172 197 0
174 197 0
173 196 0
174 197 0
173 195 0
173 196 0
173 196 0
172 195 0
171 195 0
171 195 0
172 196 0
172 195 0
172 195 0
169 192 0
171 194 0
171 195 0
172 195 0
172 196 0
172 195 0
174 197 0
174 197 0
171 194 0
175 198 0
169 193 0
171 195 0
175 198 0
171 194 0
171 196 0
171 194 0
173 196 0
172 196 0
173 197 0
173 197 0
171 195 0
173 196 0
172 195 0
173 196 0
173 197 0
172 195 0
170 193 0
174 197 0
174 197 0
171 195 0
173 196 0
171 194 0
171 195 0
172 195 0
171 194 0
173 197 0
168 193 0
173 196 0
171 195 0
172 196 0
171 195 0
170 195 0
173 196 0
175 197 0
167 190 0
173 196 0
173 196 0
174 197 0
173 196 0
169 193 0
174 197 0
161 184 67
102 131 147
62 99 171
61 98 171
62 99 178
63 99 174
63 99 179
62 99 179
62 99 177
62 99 178
62 99 179
62 99 180
62 99 179
62 99 180
62 99 180
62 99 181
62 99 180
62 99 180
61 99 178
62 99 179
62 99 181
62 99 180
62 99 181
62 99 179
62 99 180
62 99 180
62 99 181
62 99 181
62 99 181
62 99 181
61 98 181
62 99 181
62 99 180
62 99 180
62 99 181
62 99 181
61 99 181
62 99 180
61 99 179
63 100 181
62 99 181
62 99 181
62 99 181
62 99 181
62 99 181
62 99 181
62 99 180
62 99 181
61 99 181
62 99 181
62 99 181
61 98 181
61 99 181
62 99 181
62 99 181
61 98 180
61 98 181
62 99 180
61 99 181
61 98 181
62 99 181
62 99 181
61 99 181
62 99 181
61 98 180
61 98 181
62 99 181
62 99 181
62 99 181
62 99 181
62 99 181
62 99 181
61 98 180
62 99 179
61 99 180
61 99 181
62 99 180
61 99 180
62 99 181
62 99 181
62 99 181
61 98 181
62 99 181
62 99 181
62 99 181
61 98 181
61 99 180
62 99 181
62 99 181
61 99 179
61 98 180
62 99 181
62 99 179
62 99 180
61 98 179
62 99 181
62 99 181
62 99 180
61 98 175
61 99 181
62 99 180
62 99 179
62 99 178
62 98 176
62 99 178
62 99 179
62 99 177
61 98 176
61 97 173
62 99 178
61 97 174
62 99 176
60 97 174
62 98 173
62 98 176
61 98 173
61 98 173
62 97 172
62 97 171
61 96 169
84 110 154
124 138 105
143 153 68
147 153 49
140 144 58
146 150 59
130 129 53
137 137 71
131 128 69
141 137 79
131 127 65
137 131 76
134 130 78
136 133 81
129 126 78
128 126 77
129 128 80
134 130 86
137 134 85
139 136 86
121 119 74
134 130 83
141 138 91
130 129 84
127 126 86
132 132 88
129 128 87
129 128 89
133 132 86
133 132 89
137 135 91
142 139 93
140 139 95
140 138 93
146 144 97
138 137 92
141 141 97
140 139 94
141 140 95
145 144 99
144 144 98
152 150 100
146 145 98
147 146 101
140 139 95
151 150 101
140 140 95
148 147 100
151 149 101
152 150 101
164 159 104
155 152 101
158 155 104
151 149 101
150 149 102
155 153 101
162 159 106
166 163 108
161 157 102
156 153 102
161 158 104
161 159 103
163 160 107
163 161 106
159 157 105
166 163 109
168 164 109
166 164 110
165 162 108
173 168 110
165 162 106
172 168 110
168 165 107
172 168 110
168 164 108
168 164 108
174 169 109
175 171 112
173 168 109
173 169 109
169 166 109
173 169 110
172 169 110
170 166 107
177 172 113
172 168 106
174 169 108
172 168 107
174 170 108
173 169 106
173 169 108
174 170 111
173 169 108
176 171 111
174 169 106
177 171 109
175 170 109
173 168 106
178 172 109
176 170 109
172 168 109
174 169 107
173 168 108
177 172 110
173 168 108
170 166 107
172 168 109
176 171 110
172 168 105
171 166 104
171 166 106
174 169 110
175 170 106
169 164 103
170 165 104
172 166 104
171 167 106
166 162 103
172 166 104
168 163 101
173 167 106
175 169 104
166 160 97
167 161 103
167 162 102
168 162 103
166 161 97
166 160 97
169 163 102
161 157 95
161 156 94
171 164 100
167 161 101
161 156 96
160 154 91
162 156 96
160 154 93
162 156 93
159 154 93
156 152 89
168 161 99
148 142 84
166 159 97
156 149 87
158 153 86
162 154 92
159 153 87
154 147 84
152 146 82
151 145 81
150 145 84
139 134 73
148 143 75
141 136 70
146 143 72
137 137 60
149 149 65
155 158 68
146 153 53
155 166 42
155 169 37
159 176 22
164 182 28
169 189 11
169 191 19
172 195 0
174 197 0
171 195 0
175 198 0
176 198 0
172 195 0
174 198 0
173 197 0
175 198 0
173 197 0
173 197 0
175 198 0
172 196 0
174 197 0
174 196 0
174 198 0
174 197 0
172 196 0
172 196 0
174 197 0
172 196 0
174 197 0
174 197 0
172 197 0
171 194 0
172 196 0
174 197 0
173 197 0
174 197 0
173 196 0
173 196 0
174 197 0
172 196 0
173 197 0
169 193 0
171 195 0
176 199 0
173 196 0
174 197 0
172 196 0
174 197 0
172 196 0
172 195 0
172 196 0
174 196 0
170 195 0
174 197 0
172 196 0
172 196 0
174 197 0
173 197 0
173 197 0
172 195 0
173 196 0
172 195 0
174 197 0
172 196 0
172 196 0
173 197 0
170 193 0
171 195 0
175 197 0
175 198 0
173 197 0
174 198 0
176 198 0
174 197 0
175 198 0
169 194 0
173 196 0
171 193 0
176 199 0
174 198 0
173 197 0
174 198 0
171 194 0
170 193 0
172 196 0
171 195 0
171 194 0
172 195 0
172 196 0
170 194 0
171 195 0
175 198 0
171 194 0
171 195 0
171 195 0
173 196 0
173 196 0
170 195 0
174 197 0
172 195 0
172 195 0
170 193 0
172 195 0
171 195 0
172 195 0
173 196 0
171 196 0
175 198 0
171 195 0
173 195 0
170 193 0
172 196 0
173 196 0
173 196 0
171 194 0
173 196 0
172 196 0
173 196 0
172 195 0
174 198 0
173 196 0
155 180 67
105 133 152
63 99 174
62 99 179
62 99 179
62 99 177
63 99 176
62 99 176
62 99 179
62 99 178
63 99 178
62 99 179
62 99 180
62 99 180
62 99 179
62 99 177
61 98 178
62 99 178
62 99 179
62 99 180
61 98 179
63 100 180
62 99 178
61 99 179
62 99 178
61 98 179
62 99 180
62 99 181
61 99 181
62 99 179
61 99 180
62 99 180
61 99 181
62 99 181
61 99 181
61 99 181
61 99 181
62 99 181
62 99 181
62 99 181
61 99 180
61 99 180
62 99 181
61 98 181
62 99 181
62 99 181
62 99 181
62 99 181
62 99 180
62 99 181
62 99 181
61 99 181
62 99 181
62 99 180
62 99 181
61 99 181
61 99 181
61 99 180
61 99 181
61 99 180
61 98 181
61 99 181
61 99 181
62 99 180
61 99 181
62 99 181
61 99 181
62 99 180
62 99 181
61 99 181
61 98 179
62 99 181
61 98 180
62 99 181
61 99 180
61 99 181
62 99 180
62 99 181
62 99 181
61 99 180
62 99 181
62 99 181
61 99 181
62 99 180
62 99 180
62 99 181
62 99 178
62 99 181
61 98 181
62 99 180
62 99 181
62 99 179
61 99 181
62 99 180
61 98 180
61 98 180
61 98 178
62 99 179
61 98 179
62 99 180
62 99 179
62 99 181
62 99 180
62 99 177
62 99 180
62 99 178
61 98 174
62 99 178
62 98 175
62 99 177
61 97 175
62 99 177
62 99 178
62 99 180
60 96 174
61 98 173
62 99 176
62 98 171
62 97 172
60 96 171
61 97 174
61 96 170
75 105 160
113 128 125
146 152 65
143 149 55
144 146 58
143 142 65
149 147 76
134 131 71
140 136 77
130 126 73
132 128 74
132 128 72
131 128 76
117 117 75
138 135 82
128 126 81
126 125 77
127 126 81
123 122 78
126 125 80
123 121 79
124 124 83
130 129 86
121 121 83
136 134 91
130 130 87
139 136 91
131 129 89
127 128 89
124 125 85
136 136 95
148 146 96
129 129 88
130 131 94
142 141 97
139 138 94
134 133 90
134 134 94
153 151 103
133 134 94
139 138 96
146 143 97
150 148 101
148 146 98
146 144 99
152 150 103
145 144 97
147 147 101
153 150 100
144 143 98
158 155 103
151 150 102
149 148 101
150 148 100
151 149 100
155 155 105
161 158 106
159 156 103
163 160 107
163 160 106
163 159 105
167 164 108
168 164 108
164 161 106
166 162 106
163 159 105
166 163 108
166 162 106
167 164 107
163 161 107
168 165 109
168 166 109
166 162 107
170 166 108
168 164 108
173 168 110
166 162 105
173 169 110
169 166 108
173 169 110
169 165 107
174 169 111
168 165 108
173 168 110
172 167 107
172 168 106
171 168 109
173 169 109
173 169 109
172 168 110
176 171 110
175 170 109
176 170 110
174 169 110
172 168 107
175 170 108
176 171 109
171 167 106
178 172 111
172 168 109
174 169 106
177 171 109
176 171 109
175 171 109
173 168 108
174 169 108
170 166 106
172 167 106
172 167 109
174 169 107
170 165 106
168 164 103
175 169 108
169 164 103
171 166 104
169 165 107
169 164 103
169 164 104
172 166 103
165 161 101
174 168 106
164 159 97
171 166 105
166 161 101
162 157 94
166 161 100
164 158 97
166 159 97
164 159 97
167 162 95
166 161 103
158 153 93
166 161 95
159 154 90
158 151 94
160 154 90
164 158 95
163 157 94
153 148 90
163 156 94
169 163 97
153 148 84
165 158 93
154 148 82
144 138 80
153 148 84
155 150 86
153 148 84
154 148 82
143 138 80
149 143 80
146 140 78
147 141 79
152 145 79
148 145 69
150 152 64
164 168 64
156 163 53
163 173 57
159 172 37
157 170 39
165 182 37
167 187 25
171 193 11
172 195 11
172 195 0
173 197 0
173 197 0
170 194 0
170 194 0
173 196 0
175 198 0
172 196 0
174 197 0
172 197 0
173 196 0
173 196 0
172 195 0
173 196 0
175 198 0
173 196 0
172 196 0
174 198 0
172 196 0
175 198 0
173 196 0
172 196 0
170 195 0
174 196 0
173 195 0
172 196 0
173 196 0
171 195 0
174 197 0
172 196 0
175 197 0
174 197 0
172 195 0
172 196 0
172 195 0
173 197 0
170 194 0
174 197 0
174 196 0
173 197 0
173 196 0
172 196 0
171 195 0
173 196 0
174 197 0
172 195 0
175 198 0
172 196 0
171 195 0
174 198 0
173 196 0
173 197 0
175 197 0
175 198 0
170 194 0
173 195 0
173 196 0
170 194 0
173 196 0
174 197 0
171 195 0
173 196 0
173 197 0
171 195 0
175 198 0
174 198 0
172 196 0
171 194 0
172 195 0
173 195 0
174 196 0
173 197 0
168 192 0
172 195 0
172 195 0
171 194 0
171 194 0
173 196 0
171 194 0
174 197 0
174 197 0
173 197 0
174 197 0
171 194 0
173 196 0
172 194 0
175 198 0
172 196 0
174 197 0
173 196 0
168 192 0
172 196 0
172 196 0
174 197 0
171 195 0
173 196 0
170 194 0
170 193 0
170 193 0
173 195 0
171 194 0
173 196 0
173 197 0
173 197 0
171 193 0
174 198 0
173 197 0
171 195 0
173 196 0
171 193 0
173 196 0
172 196 18
162 185 65
88 119 162
62 99 174
62 98 170
62 99 176
62 99 177
62 99 177
62 99 178
62 99 178
62 99 177
62 99 178
62 99 176
62 99 174
63 100 181
62 99 180
62 99 179
63 99 179
61 99 178
62 99 180
62 99 181
61 99 179
62 99 180
62 99 179
62 99 180
62 99 178
62 99 179
62 99 180
61 98 180
63 100 181
62 99 179
62 99 181
62 99 179
62 99 181
62 99 181
62 99 181
62 99 181
62 99 180
61 99 181
61 99 181
62 99 181
61 99 181
62 99 181
61 99 180
61 98 178
62 99 181
62 99 181
62 99 181
62 99 181
62 99 181
62 99 180
62 99 181
62 99 181
61 99 181
62 99 181
62 99 181
62 99 180
62 99 181
62 99 181
62 99 181
62 99 181
62 99 181
62 99 181
61 99 181
62 99 181
61 98 181
62 99 181
62 99 181
62 99 181
62 99 181
61 99 181
62 99 181
62 99 181
62 99 180
61 99 180
62 99 181
62 99 181
62 99 180
62 99 181
62 99 181
61 98 180
62 99 181
62 99 180
62 99 181
62 99 181
62 99 180
62 99 180
62 99 179
62 99 181
62 99 181
62 99 181
62 99 178
62 99 181
62 99 180
62 99 181
61 99 179
62 99 178
62 99 180
61 99 179
62 99 179
62 99 177
61 98 175
62 99 179
61 98 179
62 99 179
62 99 179
62 99 179
62 99 176
62 99 179
61 98 175
62 98 173
61 98 176
61 98 176
62 98 176
62 99 176
62 98 176
62 98 177
61 98 178
61 98 175
61 97 172
61 97 172
61 98 176
60 95 169
61 97 173
59 93 163
79 106 160
113 124 124
137 141 84
146 149 62
147 147 71
142 140 75
128 124 65
120 117 67
131 128 74
131 128 72
131 127 75
128 126 75
117 115 70
130 128 79
128 125 81
123 120 71
130 127 80
116 115 74
126 125 81
124 123 82
123 122 82
120 120 81
133 131 86
122 121 81
134 132 89
138 136 90
128 128 87
122 123 84
135 134 91
133 131 86
140 139 94
131 130 90
137 135 89
134 133 90
134 134 93
128 128 88
134 133 91
144 144 100
142 141 98
139 138 95
138 138 95
145 144 99
145 144 99
150 149 100
141 141 97
139 140 97
146 146 100
146 145 99
142 141 97
153 150 102
154 152 103
157 154 102
155 153 104
155 152 102
154 152 102
161 158 106
156 155 104
155 153 101
158 156 105
162 159 106
164 160 106
155 154 104
164 160 105
163 160 105
167 163 107
165 163 108
168 165 109
166 162 105
165 162 108
172 168 109
169 165 108
160 157 103
165 162 108
169 166 106
171 167 109
168 165 108
171 168 109
173 170 110
175 170 111
173 168 110
173 168 108
172 168 109
175 170 108
168 165 106
172 168 108
177 171 111
173 169 109
171 166 106
171 167 106
170 167 109
175 171 112
167 164 104
170 166 106
172 167 105
176 170 110
174 168 106
176 170 109
174 169 107
174 169 108
174 169 109
174 169 106
171 167 109
172 167 105
174 169 109
173 168 108
173 167 103
173 168 106
174 169 108
172 167 106
172 168 105
167 162 103
168 163 104
168 162 101
171 165 104
169 164 104
164 160 100
169 164 102
168 164 100
168 163 102
165 160 97
163 159 97
169 164 103
168 163 101
168 163 101
164 158 96
171 164 101
163 158 97
172 166 100
165 159 98
164 159 96
165 160 98
159 154 94
154 149 90
158 152 87
157 151 89
162 156 93
163 158 95
160 154 92
160 154 91
157 151 88
158 152 87
167 160 93
158 153 87
157 151 86
156 150 85
156 151 84
151 145 81
146 141 79
136 131 72
143 137 74
145 139 77
145 139 73
147 142 74
138 136 61
142 141 64
146 148 62
149 156 51
157 166 51
161 173 47
160 174 34
165 182 36
165 184 28
168 188 22
169 192 16
173 195 0
174 197 0
175 198 0
173 196 0
175 198 0
172 195 0
173 197 0
175 198 0
175 198 0
171 195 0
171 195 0
173 197 0
174 197 0
171 194 0
174 197 0
173 197 0
175 198 0
171 195 0
173 197 0
171 194 0
174 197 0
172 195 0
174 197 0
170 194 0
170 194 0
172 196 0
173 196 0
172 196 0
173 196 0
176 198 0
173 197 0
171 195 0
172 196 0
169 193 0
173 196 0
172 196 0
173 197 0
172 195 0
172 195 0
172 196 0
171 195 0
174 197 0
171 194 0
173 196 0
173 196 0
174 196 0
172 196 0
172 196 0
173 196 0
171 194 0
174 197 0
173 196 0
173 197 0
174 197 0
172 196 0
175 198 0
173 197 0
174 197 0
173 197 0
173 197 0
171 195 0
173 196 0
174 197 0
172 196 0
170 194 0
170 193 0
171 195 0
171 195 0
172 195 0
175 197 0
170 194 0
172 196 0
171 195 0
171 195 0
171 195 0
172 196 0
172 196 0
172 195 0
172 196 0
173 196 0
176 198 0
172 196 0
172 195 0
175 198 0
174 197 0
173 197 0
173 196 0
169 193 0
171 194 0
175 198 0
171 194 0
171 195 0
171 195 0
172 195 0
172 195 0
170 193 0
174 197 0
173 196 0
173 196 0
172 195 0
173 196 0
171 194 0
170 194 0
171 194 0
170 194 0
173 196 0
170 194 0
173 197 0
169 193 0
173 196 0
173 196 0
158 182 74
82 113 161
62 99 172
62 99 173
62 99 175
62 99 175
62 99 175
62 99 172
62 99 176
62 99 178
62 99 181
62 99 174
62 99 177
63 100 178
61 99 181
62 99 176
63 100 180
62 99 179
62 99 179
61 99 177
62 99 181
62 99 178
61 99 180
62 99 180
61 99 180
61 98 178
62 99 179
63 100 180
62 99 177
62 99 180
62 99 180
62 99 180
62 99 179
61 99 181
61 99 181
62 99 181
62 99 181
61 98 180
62 99 180
61 99 181
62 99 181
62 99 181
62 99 180
62 99 181
62 99 180
62 99 179
61 99 181
62 99 181
62 99 181
61 99 181
62 99 181
61 98 181
61 99 180
62 99 181
61 99 181
62 99 180
62 99 181
62 99 181
61 99 181
62 99 181
61 99 181
62 99 181
62 99 181
62 99 181
62 99 180
63 100 181
62 99 181
62 99 181
62 99 181
62 99 181
62 99 181
62 99 181
62 99 181
62 99 181
61 98 181
62 99 178
62 99 180
62 99 181
62 99 181
62 99 181
62 99 181
62 99 180
62 99 181
62 99 181
62 99 181
62 99 180
61 98 179
62 99 178
62 99 180
62 99 179
62 99 180
62 99 179
62 99 179
62 99 178
62 99 180
61 99 179
62 99 180
61 98 178
61 99 180
61 99 180
62 99 178
61 98 178
62 99 179
62 99 180
62 98 176
62 99 178
62 99 179
62 99 176
63 99 177
62 99 178
61 98 174
62 98 174
61 97 171
62 98 177
62 98 176
61 98 177
61 97 171
61 97 170
61 98 175
61 97 170
61 98 177
62 99 178
61 97 173
61 97 174
61 98 173
61 96 169
62 95 164
107 119 127
139 143 74
131 130 66
133 131 61
129 126 65
129 126 70
136 132 71
128 125 67
136 131 81
122 120 71
124 122 72
137 135 85
123 120 74
117 116 74
125 124 79
130 129 83
121 120 77
124 123 82
123 122 80
124 124 81
125 125 85
132 131 89
124 124 83
130 130 90
128 127 86
130 128 86
131 130 88
135 134 91
131 130 90
134 134 92
128 127 88
145 144 96
132 131 90
143 141 95
136 134 89
140 140 97
135 134 93
139 137 93
139 139 96
141 140 97
143 143 98
140 140 95
144 142 97
147 146 99
142 142 97
149 148 102
144 143 99
158 155 103
153 150 102
157 155 103
159 155 103
152 150 100
151 149 100
156 154 102
158 156 102
158 155 105
154 153 103
168 164 108
155 154 104
157 155 103
159 157 103
162 159 105
162 159 104
164 161 106
174 170 110
163 160 103
165 162 107
162 159 105
161 159 104
168 165 106
165 162 107
171 167 107
168 164 107
170 166 107
174 169 109
175 170 110
174 169 110
171 168 109
169 166 108
174 168 108
173 168 109
174 170 110
171 168 108
173 169 110
172 167 108
175 170 110
172 168 107
173 169 110
174 170 110
173 169 108
174 170 108
171 166 105
171 167 108
172 168 108
175 170 109
175 170 107
174 169 106
172 168 106
171 166 104
168 163 103
174 168 107
171 165 105
173 168 108
175 170 108
176 170 110
174 169 104
173 167 105
177 171 108
172 167 103
176 170 104
166 162 99
176 169 108
173 167 106
170 164 102
171 164 101
165 160 99
173 167 104
168 162 101
168 162 101
169 163 101
169 163 101
166 160 97
172 166 103
175 168 103
170 164 102
171 165 101
163 158 94
165 159 95
165 160 97
166 161 98
155 150 90
159 154 91
160 154 88
160 154 94
161 156 89
157 151 90
169 164 98
151 145 84
159 152 89
163 157 95
162 156 94
153 146 86
156 151 87
151 146 80
148 142 79
149 143 79
144 139 75
145 140 78
147 140 76
138 134 69
137 133 70
155 150 75
145 144 62
150 153 60
152 157 61
151 162 45
154 165 44
163 176 47
158 176 22
164 182 36
168 188 19
172 194 19
172 195 0
170 194 0
174 197 0
174 197 0
176 198 0
175 198 0
175 198 0
174 197 0
173 196 0
174 197 0
173 196 0
173 197 0
173 196 0
174 197 0
171 196 0
175 198 0
172 195 0
171 196 0
172 196 0
175 198 0
170 193 0
174 197 0
172 196 0
175 198 0
174 197 0
170 193 0
175 198 0
172 196 0
173 196 0
172 195 0
172 195 0
173 196 0
173 196 0
173 196 0
172 195 0
173 197 0
173 196 0
173 197 0
171 195 0
174 197 0
171 195 0
173 197 0
172 196 0
174 197 0
174 197 0
173 196 0
174 197 0
174 198 0
174 197 0
175 198 0
173 197 0
173 196 0
173 197 0
172 196 0
173 195 0
171 195 0
172 195 0
170 194 0
173 197 0
173 196 0
173 196 0
171 195 0
175 198 0
172 195 0
174 197 0
174 197 0
172 196 0
172 196 0
172 196 0
172 196 0
171 194 0
173 196 0
174 197 0
171 195 0
174 197 0
174 197 0
174 197 0
172 195 0
171 195 0
172 196 0
172 194 0
172 195 0
172 195 0
171 194 0
172 196 0
173 196 0
171 195 0
173 196 0
174 198 0
172 195 0
171 194 0
174 197 0
174 196 0
172 196 0
173 196 0
173 197 0
171 194 0
171 195 0
172 196 0
174 197 0
174 197 0
169 193 0
172 195 0
173 196 0
173 196 0
173 196 0
172 196 0
172 196 0
170 193 0
174 196 0
158 181 74
80 112 158
62 98 170
62 99 174
62 98 173
63 99 175
61 98 172
62 99 174
62 99 176
62 99 176
61 98 177
62 99 177
62 99 179
62 99 180
62 99 178
61 99 179
61 99 178
63 100 178
62 99 180
62 99 180
62 99 178
62 99 179
62 99 181
62 99 180
62 99 180
61 99 180
62 99 179
62 99 181
62 99 179
62 99 180
61 99 180
62 99 181
62 99 180
62 99 181
61 99 180
61 99 180
61 98 181
61 99 181
61 99 180
62 99 181
62 99 181
62 99 181
62 99 181
62 99 181
62 99 181
62 99 181
61 99 180
61 99 180
61 99 181
62 99 181
62 99 181
62 99 181
62 99 181
62 99 181
61 98 181
61 98 180
62 99 181
62 99 181
62 99 181
61 99 181
62 99 181
61 99 181
62 99 181
62 99 180
62 99 181
61 99 181
62 99 181
61 99 181
62 99 181
62 99 181
62 99 181
62 99 181
62 100 181
62 99 181
62 99 181
61 99 181
62 99 181
61 98 177
62 99 181
61 99 181
62 99 181
61 98 180
62 99 181
62 99 180
61 99 180
62 99 180
62 99 180
61 98 178
62 99 180
62 99 179
62 99 181
62 99 181
62 99 180
61 98 177
62 99 180
63 100 181
62 99 181
62 99 178
62 99 180
62 99 179
63 99 180
62 99 180
62 99 179
62 99 177
62 99 180
62 98 175
62 98 179
62 99 177
62 99 180
61 98 173
61 98 178
62 98 178
61 98 174
61 98 172
62 98 177
61 98 177
62 98 174
61 97 176
61 97 174
61 98 174
61 97 170
62 98 173
62 98 176
62 99 176
60 95 169
61 97 172
62 97 170
61 96 170
69 98 164
101 113 136
133 133 80
134 132 71
123 121 62
131 127 73
124 122 65
125 121 72
124 122 81
131 128 80
128 125 81
128 127 80
126 125 76
119 117 73
126 124 80
126 124 83
133 131 85
134 132 87
123 122 83
129 127 81
121 121 81
127 127 87
124 124 87
117 117 77
124 124 82
121 121 83
132 131 89
118 119 84
122 122 83
135 135 95
135 134 92
139 137 94
135 134 90
128 128 88
148 146 99
141 140 95
139 138 95
133 133 92
141 140 96
131 131 91
145 143 97
138 138 95
142 141 96
147 145 100
141 141 97
147 146 99
146 144 97
144 143 96
146 145 99
151 150 102
145 144 96
152 150 101
155 152 100
156 154 102
156 153 103
156 153 101
154 152 101
160 158 105
158 156 105
161 159 105
162 159 106
164 161 106
170 166 107
167 163 107
166 163 108
163 159 104
166 163 106
166 163 107
172 168 110
169 164 104
166 164 106
170 165 109
167 164 106
166 162 105
172 167 107
174 170 109
172 167 107
169 164 104
174 170 109
171 166 106
177 172 112
176 171 108
176 170 110
170 166 108
173 169 108
175 169 108
176 170 107
177 172 111
175 170 109
174 169 107
174 169 109
174 169 106
175 170 107
175 169 107
174 170 110
171 166 105
173 168 104
173 168 104
175 169 108
167 163 102
174 168 102
173 168 104
173 168 109
173 169 108
175 169 106
175 170 106
168 163 102
168 162 101
172 167 104
172 167 103
177 171 108
170 165 104
172 167 104
168 162 100
173 167 104
167 162 97
172 167 101
166 160 96
165 158 97
171 165 101
167 162 99
175 168 104
164 159 97
170 163 103
161 155 93
164 158 97
170 163 100
160 155 95
163 157 90
158 152 95
164 159 97
164 158 99
162 156 95
163 157 90
162 156 88
155 149 87
154 147 87
161 155 93
164 158 93
159 152 90
162 156 87
151 145 84
153 147 84
153 146 85
149 143 78
158 151 88
148 143 79
152 144 80
149 143 81
140 135 72
145 138 73
140 139 65
138 135 63
145 146 63
138 140 51
148 156 48
159 173 41
166 181 41
169 186 37
168 187 16
167 188 19
171 194 11
173 196 0
172 196 0
174 198 0
174 197 0
173 197 0
172 196 0
172 195 0
171 195 0
173 197 0
174 197 0
173 196 0
172 196 0
174 197 0
173 197 0
171 195 0
173 196 0
171 195 0
173 197 0
174 197 0
175 198 0
173 197 0
172 196 0
174 197 0
175 198 0
173 196 0
174 197 0
171 194 0
173 196 0
173 197 0
171 194 0
172 196 0
174 197 0
174 197 0
174 197 0
171 194 0
174 196 0
173 196 0
175 198 0
172 197 0
173 197 0
172 195 0
175 198 0
170 194 0
175 197 0
172 195 0
172 195 0
173 197 0
173 197 0
173 196 0
172 195 0
172 196 0
173 196 0
170 194 0
175 198 0
174 197 0
172 196 0
173 196 0
173 196 0
173 197 0
171 194 0
173 196 0
170 193 0
173 196 0
172 196 0
175 198 0
170 194 0
171 194 0
174 197 0
173 197 0
170 194 0
171 195 0
172 195 0
171 195 0
172 195 0
171 195 0
172 196 0
173 196 0
171 194 0
173 196 0
169 193 0
171 194 0
174 197 0
170 193 0
174 196 0
173 196 0
171 195 0
173 196 0
173 197 0
172 194 0
171 193 0
174 196 0
171 194 0
172 196 0
174 198 0
169 193 0
170 195 0
171 195 0
171 195 0
172 195 0
173 195 0
175 198 0
173 196 0
169 192 0
170 194 0
171 194 0
172 196 0
171 195 0
171 194 0
170 193 0
156 180 74
86 117 163
62 99 178
63 99 177
61 98 176
62 99 176
62 99 177
62 99 180
63 100 178
63 99 174
62 99 180
62 99 179
62 99 178
62 99 178
63 99 177
62 99 179
62 99 176
62 99 176
62 99 180
61 99 178
62 99 181
62 99 181
61 99 180
62 99 178
62 99 180
62 99 181
62 99 181
62 99 181
62 99 180
63 99 178
62 99 179
62 99 179
61 98 178
62 99 180
62 99 181
62 99 181
62 99 180
61 99 179
62 99 181
62 99 179
62 99 181
61 99 181
62 99 180
62 99 181
62 99 179
62 99 180
62 99 181
62 99 181
62 99 181
62 99 181
62 99 181
62 99 181
61 99 181
62 99 181
62 99 181
62 99 180
61 98 180
61 98 180
61 98 180
62 99 181
62 99 181
61 99 180
62 99 181
61 99 181
62 99 181
61 99 181
62 99 181
62 99 180
62 99 180
62 99 180
62 99 180
62 99 181
62 99 181
61 99 181
61 99 181
62 99 181
61 98 180
62 99 179
62 99 181
62 99 180
62 99 181
61 99 180
62 99 181
61 99 181
62 99 181
62 99 180
62 99 179
61 98 181
61 99 179
61 99 181
62 99 177
62 99 181
61 99 178
62 99 181
61 99 181
62 99 181
62 99 179
61 99 180
62 99 178
62 99 179
62 99 180
61 98 178
62 99 178
61 99 179
62 99 179
61 98 178
62 99 176
62 99 178
61 98 175
62 99 176
62 99 179
62 99 176
62 99 178
61 98 176
62 98 176
62 99 177
62 98 175
62 99 177
61 98 174
62 98 174
61 97 170
61 98 174
61 97 173
61 97 173
61 97 173
61 97 172
60 97 175
60 96 170
60 95 169
61 96 170
66 98 163
99 109 125
121 120 77
139 134 77
117 114 65
135 130 76
123 121 72
126 123 70
128 125 75
122 120 71
103 103 65
121 120 74
112 111 71
124 121 81
129 128 81
120 120 79
126 125 81
119 118 75
120 120 83
128 126 84
114 114 76
125 125 86
131 130 87
122 122 86
129 130 90
135 134 90
126 125 86
125 124 84
125 125 86
124 124 85
140 140 95
134 133 92
133 132 91
135 134 93
121 122 87
134 134 92
136 135 93
137 137 91
136 136 94
145 143 98
140 140 97
157 154 104
138 137 93
145 144 99
146 145 99
153 151 101
153 151 100
149 147 100
149 148 102
151 149 98
149 148 99
156 154 103
161 159 105
156 153 99
161 158 105
161 158 104
157 155 103
164 161 107
159 156 104
158 155 101
172 167 108
162 159 103
163 160 105
170 165 107
172 167 109
169 166 108
162 159 104
169 164 107
168 164 105
166 162 106
168 164 105
169 165 107
167 164 105
171 166 105
173 168 108
171 167 110
175 170 111
172 167 107
170 167 107
175 170 110
169 166 106
174 170 109
171 168 107
176 170 109
174 169 107
174 170 110
175 170 109
171 168 106
177 171 106
174 169 109
175 170 108
171 167 104
174 169 105
171 167 105
177 171 110
174 170 107
173 168 106
172 167 104
172 166 106
173 168 106
171 166 103
172 167 106
174 169 106
173 168 104
175 170 108
171 165 101
171 166 101
175 169 107
175 168 107
170 164 101
170 164 101
175 169 108
167 162 101
175 167 104
173 168 106
165 160 96
168 162 95
172 166 101
163 158 93
166 161 101
167 162 99
173 167 106
170 164 101
172 166 99
166 160 97
163 157 93
165 160 95
161 155 94
168 162 97
165 159 94
161 155 93
170 163 97
158 152 91
160 154 91
164 158 91
150 145 81
149 144 85
159 153 90
158 153 90
151 145 81
149 144 77
152 146 81
154 148 84
155 148 87
146 141 77
150 144 74
143 137 70
144 139 75
147 142 77
132 127 64
144 140 71
136 135 61
141 144 59
147 152 51
147 158 44
158 170 47
155 169 37
164 181 28
165 183 34
167 188 16
170 193 0
172 196 0
174 198 0
175 198 0
174 198 0
171 195 0
175 198 0
173 196 0
171 195 0
175 198 0
172 197 0
174 197 0
176 198 0
174 197 0
173 197 0
172 196 0
170 194 0
174 197 0
173 197 0
172 195 0
171 195 0
172 196 0
173 196 0
173 197 0
172 195 0
174 198 0
174 198 0
172 196 0
172 196 0
174 196 0
171 195 0
174 197 0
172 195 0
174 197 0
173 196 0
174 197 0
173 197 0
172 196 0
173 196 0
173 196 0
173 196 0
176 198 0
172 196 0
170 194 0
172 195 0
172 195 0
174 197 0
173 196 0
173 196 0
172 196 0
174 197 0
174 197 0
170 194 0
172 196 0
173 196 0
175 198 0
172 195 0
172 196 0
173 196 0
176 198 0
173 197 0
170 193 0
173 196 0
171 195 0
173 197 0
175 198 0
169 193 0
171 195 0
172 195 0
173 195 0
174 197 0
174 197 0
172 195 0
170 194 0
173 197 0
173 196 0
173 196 0
167 191 0
172 196 0
170 194 0
170 194 0
170 194 0
172 195 0
175 198 0
174 197 0
173 196 0
172 196 0
174 197 0
173 196 0
170 193 0
171 193 0
170 193 0
173 196 0
171 195 0
171 195 0
174 198 0
172 196 0
173 196 0
173 197 0
173 196 0
174 197 0
172 195 0
171 195 0
171 194 0
171 194 0
173 195 0
170 193 0
169 193 0
173 197 0
160 183 70
84 115 158
62 98 167
62 99 176
62 99 176
62 99 177
62 99 173
62 99 178
62 99 176
61 98 178
62 99 179
61 98 172
62 99 178
62 99 176
62 99 176
62 99 178
62 99 179
62 99 180
62 99 180
62 99 180
62 99 179
62 99 179
62 99 178
62 99 179
62 99 180
62 99 179
62 99 179
62 99 178
62 99 180
62 99 180
61 98 180
62 99 181
63 100 179
62 99 181
62 99 181
62 99 179
61 99 180
62 99 179
62 99 181
62 99 181
62 99 181
62 99 181
62 99 180
62 99 180
62 99 181
61 99 180
62 99 181
62 99 181
62 99 181
62 99 179
62 99 181
62 99 181
62 99 181
61 99 181
62 99 181
61 99 179
62 99 181
62 99 181
62 99 181
61 99 180
62 99 181
62 99 181
61 99 181
63 100 181
62 99 180
61 99 180
62 99 181
62 99 180
62 99 180
62 99 181
62 99 178
61 99 181
61 99 181
61 98 181
62 99 181
61 99 181
62 99 180
62 99 181
62 99 180
62 99 178
62 99 181
62 99 181
62 99 181
62 99 181
62 99 181
63 100 179
61 98 180
62 99 179
62 99 181
62 99 181
62 99 181
62 99 179
63 100 179
62 99 178
62 99 180
62 99 179
61 99 178
62 99 179
62 99 181
62 99 178
62 99 181
62 99 180
62 99 179
62 99 181
61 98 176
62 99 181
61 98 175
61 98 176
62 99 178
61 98 179
61 98 175
62 98 177
61 98 178
62 99 175
62 98 178
62 99 178
62 98 174
61 98 177
62 99 176
62 98 174
62 99 176
62 98 176
62 99 178
61 98 177
62 99 177
61 97 171
61 97 175
61 98 172
62 98 173
61 96 169
61 96 169
59 94 163
81 104 156
105 114 122
117 115 80
129 125 71
129 126 73
118 116 67
115 113 69
121 119 76
113 113 72
122 121 79
130 128 81
108 107 64
122 121 79
123 122 77
123 122 81
113 113 74
122 122 79
123 122 78
131 130 87
122 122 83
130 128 87
130 129 88
115 116 81
119 120 83
130 130 89
117 118 83
127 126 88
128 127 87
133 133 91
138 136 93
129 129 89
130 129 89
135 134 92
137 137 95
136 134 90
128 128 89
138 138 95
137 136 92
147 145 98
142 141 95
138 138 93
142 142 95
139 138 96
152 150 102
148 147 100
149 147 99
149 148 101
153 150 99
149 147 100
150 148 98
152 150 100
159 156 103
158 155 104
159 157 106
154 153 103
157 156 103
155 153 100
169 164 108
164 161 105
161 158 103
161 158 103
161 159 103
161 158 101
165 162 104
167 163 106
167 163 108
171 166 109
168 164 107
175 170 110
166 163 105
167 163 106
173 168 108
169 165 106
169 165 105
171 166 104
172 168 110
169 165 108
170 166 105
171 167 106
176 170 108
170 166 103
170 166 107
174 169 107
173 168 110
174 169 108
174 168 107
173 168 107
169 165 105
177 171 110
177 171 110
172 168 106
174 169 109
176 170 108
176 170 107
172 168 106
172 167 106
176 171 109
168 164 105
174 169 106
172 167 105
168 163 99
177 170 106
173 168 106
175 169 105
178 171 106
168 163 99
173 168 102
177 171 107
170 165 103
170 164 100
167 162 102
174 168 104
169 162 104
169 164 99
173 167 102
165 160 100
169 164 100
166 159 96
170 165 97
163 157 92
167 162 99
162 156 95
162 157 92
165 159 97
165 160 93
163 157 95
166 161 97
159 155 94
159 155 91
168 162 92
158 153 87
159 154 93
159 153 90
164 158 92
169 162 95
168 161 93
155 148 83
158 152 87
161 154 90
155 149 86
159 152 81
155 149 85
148 143 80
149 143 80
151 145 75
149 143 77
156 150 81
145 139 78
140 135 70
139 134 68
153 149 78
153 155 60
144 149 51
148 156 49
149 164 36
159 173 44
161 174 36
169 185 41
167 188 25
173 194 19
173 196 0
174 198 0
169 193 0
171 195 0
173 197 0
174 197 0
172 196 0
173 196 0
173 196 0
174 197 0
174 197 0
171 195 0
174 197 0
172 196 0
174 197 0
173 197 0
174 197 0
174 197 0
171 195 0
174 197 0
173 196 0
173 197 0
172 197 0
171 195 0
174 197 0
173 197 0
176 198 0
174 198 0
176 198 0
170 194 0
175 198 0
174 197 0
170 194 0
175 197 0
173 197 0
173 197 0
174 197 0
174 196 0
173 196 0
171 195 0
174 197 0
172 195 0
173 197 0
172 196 0
172 196 0
174 196 0
173 196 0
174 198 0
174 196 0
170 194 0
174 197 0
175 198 0
171 194 0
175 197 0
171 195 0
174 197 0
174 196 0
171 194 0
171 194 0
173 197 0
169 193 0
174 197 0
173 196 0
172 195 0
170 193 0
173 196 0
173 196 0
172 195 0
172 196 0
173 196 0
172 196 0
174 197 0
171 193 0
170 194 0
173 196 0
171 194 0
172 196 0
173 197 0
175 198 0
174 197 0
171 195 0
172 195 0
173 197 0
170 193 0
171 194 0
171 195 0
174 197 0
171 194 0
173 197 0
173 195 0
171 194 0
173 196 0
170 194 0
174 197 0
172 196 0
171 195 0
168 191 0
173 196 0
172 195 0
169 193 0
173 195 0
172 196 0
172 195 0
174 197 0
168 192 0
174 197 0
171 195 0
166 190 51
95 125 153
62 98 171
62 99 172
63 99 176
61 98 172
62 99 173
62 99 172
62 99 170
63 99 178
62 99 174
62 99 176
62 99 179
62 99 176
62 99 176
62 99 181
62 99 176
61 98 178
61 98 178
62 99 180
62 99 175
61 98 174
62 99 180
61 99 179
62 99 176
62 99 178
62 99 180
62 99 181
62 99 181
62 99 179
62 99 181
62 99 180
62 99 179
61 99 181
62 99 180
62 99 180
62 99 181
62 99 180
62 99 181
62 99 181
62 99 181
61 99 181
61 99 181
62 99 180
61 99 181
62 99 181
61 99 181
61 99 181
62 99 180
62 99 181
61 98 181
62 99 180
61 99 181
62 99 181
62 99 179
62 99 181
62 99 180
61 99 180
62 99 181
61 99 181
62 99 181
62 99 181
62 99 181
61 98 179
61 99 181
62 99 181
62 99 181
61 99 180
62 99 181
62 99 181
61 99 181
62 99 181
62 99 180
62 99 181
62 99 181
61 99 181
61 99 180
61 99 181
61 99 180
62 99 181
62 99 181
62 99 179
62 99 180
62 99 180
62 99 179
62 99 181
62 99 180
62 99 180
62 99 180
61 99 181
61 98 179
62 99 181
62 99 180
62 99 181
62 99 179
62 99 180
62 99 180
62 99 179
61 99 180
61 99 179
62 99 178
62 99 178
63 100 180
62 99 180
62 99 177
61 99 179
62 99 179
62 99 180
61 98 177
62 99 179
61 98 177
62 99 175
61 98 174
63 100 179
61 98 174
62 99 179
61 98 174
61 98 176
62 98 175
62 99 174
63 99 176
62 99 179
62 99 173
61 98 174
61 97 172
62 97 171
62 98 176
61 98 171
62 98 175
61 97 174
60 95 166
61 96 170
62 97 170
61 96 169
68 97 158
103 111 115
125 122 82
121 118 68
129 127 76
126 123 71
117 116 68
120 118 67
123 121 77
120 119 76
124 121 74
106 106 67
121 119 78
117 116 78
107 107 73
121 121 82
120 120 81
119 119 82
120 120 81
126 124 84
139 137 92
128 127 87
127 127 87
122 123 86
130 129 89
118 120 85
129 129 89
119 120 86
115 117 84
132 131 91
138 138 96
129 130 90
132 132 91
129 129 89
141 140 95
138 137 94
132 132 92
140 139 96
142 142 96
143 142 96
137 136 93
143 142 97
136 135 94
148 147 97
153 151 100
149 147 99
150 148 100
152 150 101
152 150 98
153 151 100
152 150 100
158 155 101
154 151 101
162 158 102
166 162 107
163 160 105
157 155 100
160 157 102
160 157 105
167 164 107
158 156 101
168 164 106
167 163 104
159 157 103
164 161 106
168 164 105
168 164 106
165 161 106
170 165 107
167 164 104
169 165 106
172 168 108
170 166 106
173 169 104
169 166 108
173 169 107
174 170 109
171 166 103
171 168 106
176 171 110
172 168 108
175 170 110
171 167 105
172 169 108
176 170 107
176 171 109
175 169 105
178 172 108
175 169 105
174 169 104
176 170 107
173 168 106
176 170 106
169 166 106
177 171 107
172 168 105
176 170 107
173 168 106
176 170 108
171 167 105
169 163 99
177 172 109
171 167 106
171 166 105
172 167 107
174 169 107
171 165 95
170 165 103
173 167 102
165 160 97
167 163 101
166 161 100
173 168 104
170 164 97
163 158 95
170 164 101
171 165 99
165 159 97
169 164 99
172 166 102
168 162 100
168 162 95
168 161 95
168 162 99
161 156 95
162 156 90
171 165 95
171 164 97
168 162 96
161 154 90
161 155 87
163 157 93
165 158 93
154 148 86
156 150 84
161 155 90
159 154 91
157 151 87
161 154 88
163 156 90
154 148 86
151 145 76
144 140 72
148 143 81
146 141 71
148 141 72
147 141 75
140 135 68
150 146 75
144 141 68
143 144 66
143 146 57
150 158 47
152 163 45
160 175 39
163 181 28
165 184 16
166 186 11
169 191 11
174 197 0
173 197 0
171 195 0
174 196 0
175 198 0
170 194 0
174 196 0
171 195 0
170 193 0
175 198 0
172 195 0
174 197 0
173 196 0
171 194 0
174 197 0
171 194 0
172 195 0
173 197 0
173 196 0
174 197 0
171 195 0
172 196 0
174 197 0
174 196 0
172 195 0
172 196 0
175 198 0
173 196 0
173 196 0
172 194 0
175 198 0
172 195 0
172 195 0
172 195 0
170 194 0
171 195 0
170 193 0
173 196 0
173 196 0
173 197 0
175 198 0
170 194 0
172 195 0
172 195 0
173 196 0
173 196 0
174 198 0
173 196 0
172 195 0
171 194 0
173 196 0
171 194 0
173 196 0
173 197 0
172 196 0
175 198 0
175 198 0
173 196 0
172 196 0
174 197 0
173 197 0
172 196 0
170 193 0
172 196 0
173 196 0
173 196 0
172 195 0
172 195 0
171 194 0
171 195 0
172 196 0
173 196 0
172 195 0
168 193 0
172 195 0
170 194 0
173 197 0
173 196 0
172 195 0
174 197 0
175 198 0
171 195 0
172 195 0
172 195 0
170 194 0
176 198 0
171 194 0
171 194 0
173 196 0
176 198 0
172 195 0
174 197 0
174 197 0
171 194 0
171 194 0
171 195 0
172 195 0
171 194 0
171 194 0
170 194 0
173 197 0
172 196 0
170 194 0
169 193 0
173 196 0
171 193 0
167 191 44
108 135 141
63 99 170
62 99 175
62 99 176
62 99 176
62 99 174
61 98 176
62 99 174
62 99 169
62 99 175
62 99 176
63 100 181
62 99 172
62 99 178
62 99 178
62 99 179
62 99 176
62 99 181
62 99 180
62 99 178
62 99 178
62 99 178
62 99 176
62 99 178
62 99 179
62 99 180
62 99 180
63 100 181
62 99 180
62 99 181
62 99 179
63 100 180
62 99 179
62 99 179
61 99 180
61 99 178
62 99 181
61 99 179
62 99 181
62 99 180
62 99 179
62 99 181
61 99 181
62 99 181
62 99 180
62 99 180
61 99 180
62 99 181
62 99 181
62 99 181
62 99 180
62 99 180
62 99 181
61 99 181
62 99 180
62 99 181
61 99 181
62 99 180
62 99 181
63 100 180
61 99 179
62 99 180
62 99 180
62 99 180
61 99 181
62 99 181
62 99 180
62 99 180
62 99 181
62 99 180
62 99 179
61 98 179
62 99 179
63 100 181
62 99 180
62 99 181
62 99 181
61 98 179
62 99 179
61 99 180
62 99 181
61 99 181
62 99 176
61 99 178
61 98 177
62 99 181
61 99 178
62 99 180
61 99 180
62 99 179
61 99 180
62 99 180
62 99 180
62 99 180
62 99 178
62 99 178
62 99 178
61 99 177
62 99 178
62 99 177
61 98 179
61 98 174
62 99 178
61 99 179
61 98 178
61 98 179
61 98 177
62 99 179
63 99 177
62 99 178
62 98 174
62 99 179
62 99 176
62 99 178
62 99 178
61 98 175
62 99 179
62 98 176
61 98 175
62 99 179
62 98 169
62 99 176
63 99 177
61 98 172
62 98 172
61 98 178
63 99 177
62 98 176
61 97 172
61 98 173
62 97 173
62 98 171
61 97 168
61 96 172
60 95 169
69 97 153
111 116 105
108 106 70
124 122 69
114 112 61
121 120 73
115 112 69
122 119 74
113 111 73
119 118 79
110 109 68
116 115 74
116 116 78
116 115 78
119 119 78
125 124 81
114 114 78
115 116 81
125 125 87
116 117 80
120 120 82
122 122 84
127 125 84
117 118 82
113 115 82
104 107 80
123 125 87
127 127 87
123 126 91
131 131 90
146 145 99
132 132 91
131 132 91
123 124 83
144 143 98
136 137 95
135 135 94
135 134 93
143 142 94
152 149 100
140 139 95
141 141 97
148 146 99
147 145 98
148 147 101
149 147 100
147 146 97
156 154 103
153 151 100
153 151 99
155 154 102
153 152 99
158 155 101
151 150 101
162 159 105
159 156 103
162 159 104
165 161 105
162 158 102
162 158 102
165 162 105
162 159 100
164 161 104
165 161 103
163 159 104
167 163 106
169 166 108
173 168 109
170 166 108
171 166 106
172 167 105
174 168 108
172 167 108
172 168 106
173 169 110
170 166 107
172 166 106
172 168 105
171 167 104
174 169 105
171 167 105
174 170 103
173 168 106
171 166 105
174 170 107
178 172 108
172 168 103
175 169 107
175 169 104
175 170 109
176 169 103
174 169 107
175 170 106
175 170 106
175 169 108
175 170 107
174 169 104
175 170 108
172 167 101
177 171 107
172 166 101
171 166 100
172 167 101
174 168 104
175 168 105
171 166 106
172 167 101
171 166 103
171 165 101
170 165 99
171 164 101
171 165 101
171 165 102
173 167 103
169 163 101
169 164 95
166 159 96
167 161 97
168 163 101
169 163 97
166 161 95
166 160 95
163 158 94
171 165 101
165 158 95
166 161 93
171 164 96
169 162 96
170 164 94
161 154 89
156 151 86
157 151 89
157 151 90
157 151 85
155 150 88
154 148 85
154 148 82
152 147 80
157 150 84
149 143 80
153 147 83
144 139 75
151 144 79
151 145 80
146 139 71
145 140 74
144 138 74
132 127 67
145 142 67
147 147 61
153 158 59
152 159 52
157 170 47
155 168 39
164 182 28
163 178 36
167 187 11
170 192 0
171 194 11
174 198 0
174 197 0
173 196 0
173 197 0
172 196 0
173 197 0
173 197 0
174 197 0
171 195 0
175 198 0
172 196 0
172 195 0
172 195 0
173 196 0
173 197 0
171 195 0
170 194 0
172 196 0
175 198 0
174 197 0
172 195 0
174 197 0
172 196 0
174 197 0
172 196 0
169 192 0
174 198 0
173 197 0
173 196 0
174 197 0
173 196 0
173 197 0
171 195 0
173 196 0
172 196 0
170 193 0
173 196 0
173 197 0
173 196 0
172 196 0
175 198 0
171 195 0
172 197 0
174 197 0
172 195 0
175 198 0
174 197 0
174 197 0
172 196 0
172 196 0
173 196 0
171 193 0
172 195 0
174 197 0
174 196 0
174 198 0
175 198 0
170 195 0
174 197 0
173 197 0
173 196 0
172 196 0
172 196 0
171 194 0
173 196 0
171 194 0
172 195 0
170 195 0
172 195 0
174 197 0
175 198 0
168 192 0
173 196 0
175 198 0
173 196 0
169 192 0
173 197 0
172 195 0
175 198 0
170 194 0
171 195 0
170 193 0
174 197 0
173 195 0
175 198 0
171 194 0
171 194 0
169 192 0
172 195 0
170 194 0
173 196 0
172 196 0
173 195 0
173 196 0
170 194 0
172 195 0
171 194 0
173 196 0
169 192 0
173 196 0
174 196 0
172 195 0
170 194 0
172 195 0
167 191 31
119 144 133
62 98 170
62 99 172
63 99 177
62 99 170
62 99 175
63 100 178
62 99 170
62 99 175
62 99 178
62 99 177
62 99 178
62 99 175
61 98 176
62 99 180
62 99 176
62 99 178
62 99 177
62 99 179
62 99 177
62 99 180
62 99 181
62 99 177
62 99 178
63 100 181
62 99 179
63 100 179
62 99 178
62 99 177
62 99 180
62 99 180
62 99 178
62 99 180
63 100 180
62 99 181
62 99 181
62 99 181
61 98 179
62 99 180
63 100 180
62 99 181
62 99 179
62 99 179
61 99 181
62 99 179
62 99 181
62 99 180
62 99 179
62 99 181
62 99 181
61 99 181
61 98 180
61 99 180
61 99 180
62 99 181
62 99 181
62 99 181
62 99 181
62 99 180
62 99 181
62 99 181
62 99 179
63 100 181
61 99 181
62 99 181
62 99 179
62 99 180
62 99 179
62 99 180
62 99 181
62 99 181
62 99 179
62 99 180
62 99 181
62 99 181
61 98 178
61 98 180
61 99 180
62 99 180
62 99 179
61 99 179
61 99 180
62 99 181
62 99 178
61 99 180
62 99 180
62 99 181
62 99 179
62 99 180
62 99 178
61 98 179
61 99 178
62 99 181
61 98 177
62 99 180
62 99 181
62 99 175
61 99 180
62 99 179
63 100 181
61 98 177
62 99 178
62 99 180
62 99 178
61 98 178
62 99 180
62 99 180
62 99 178
62 99 179
62 99 178
62 99 178
62 99 180
61 98 176
62 99 178
61 98 175
61 98 173
61 98 173
62 98 174
63 99 176
62 98 175
61 97 173
62 98 173
62 98 174
62 99 178
61 98 171
62 99 177
62 99 177
61 98 173
62 99 176
61 97 173
62 98 170
62 98 172
62 98 175
61 97 170
61 96 167
62 98 173
60 95 167
86 105 147
119 121 101
121 119 74
105 105 57
114 112 68
118 116 70
109 107 67
120 118 74
121 120 77
117 116 74
112 111 74
117 116 78
125 122 77
118 119 77
120 119 80
125 125 84
115 115 79
113 113 78
124 124 84
123 123 84
119 119 83
119 119 83
118 118 83
126 127 89
126 127 88
114 116 82
120 120 84
117 119 85
128 129 90
132 132 91
125 127 90
135 135 92
128 129 89
131 130 89
142 140 92
144 142 98
140 140 95
134 134 91
141 140 94
144 143 96
140 140 95
150 148 99
143 143 94
140 140 93
148 146 98
137 137 94
150 149 99
156 153 100
158 155 100
161 158 100
154 151 100
154 151 98
155 153 99
160 157 102
165 161 104
160 157 101
163 160 104
161 158 105
164 160 104
169 164 105
168 164 106
162 159 102
168 163 103
165 162 104
164 161 106
169 164 102
167 163 102
172 167 108
171 167 108
170 165 104
173 168 107
172 167 106
173 168 106
175 170 107
170 165 100
174 169 108
173 168 107
173 168 107
174 170 110
176 170 104
174 169 107
172 167 105
173 168 106
175 170 107
175 170 109
176 170 105
175 170 107
175 170 106
171 167 106
175 170 104
175 169 104
176 170 106
172 168 106
172 167 104
172 167 101
176 169 107
171 166 103
171 166 101
175 170 106
173 167 103
167 162 98
171 166 103
171 165 100
171 166 103
171 166 103
172 167 104
167 162 97
170 164 101
172 166 99
173 167 102
171 165 98
170 164 101
170 163 99
169 164 99
169 163 98
167 161 99
166 160 94
170 163 99
164 159 93
165 159 95
171 166 103
165 160 93
165 159 96
169 163 97
169 164 96
163 157 96
172 166 100
161 154 90
167 161 94
167 161 98
163 157 89
156 151 84
155 150 84
160 154 91
153 147 84
156 151 78
154 147 86
152 146 80
153 147 79
152 146 81
146 143 80
150 145 80
149 143 80
156 150 82
149 142 74
145 139 75
149 142 69
149 148 66
146 143 66
140 142 59
155 161 54
158 168 54
162 175 48
147 162 30
160 178 22
168 187 19
164 185 11
172 195 0
171 194 0
172 195 0
174 198 0
172 195 0
173 197 0
173 196 0
174 198 0
172 195 0
173 196 0
173 196 0
172 195 0
173 196 0
171 195 0
173 196 0
174 196 0
171 195 0
172 196 0
172 196 0
173 196 0
174 196 0
171 194 0
174 197 0
173 197 0
171 195 0
171 194 0
173 196 0
171 194 0
174 197 0
172 196 0
174 196 0
173 196 0
173 197 0
172 196 0
175 198 0
172 196 0
173 197 0
174 197 0
173 196 0
174 197 0
174 197 0
173 197 0
174 197 0
170 194 0
173 197 0
172 197 0
172 196 0
173 196 0
175 198 0
172 195 0
170 194 0
174 197 0
174 197 0
171 194 0
171 194 0
172 195 0
174 197 0
173 196 0
171 195 0
173 196 0
170 193 0
173 197 0
175 198 0
171 195 0
174 197 0
171 194 0
171 194 0
171 195 0
170 194 0
170 194 0
171 194 0
174 198 0
171 195 0
172 196 0
171 194 0
170 193 0
172 195 0
173 197 0
174 197 0
172 195 0
172 195 0
171 194 0
172 196 0
172 196 0
173 197 0
173 197 0
171 195 0
173 196 0
174 197 0
171 195 0
172 195 0
171 194 0
171 195 0
171 194 0
170 194 0
172 195 0
173 196 0
173 196 0
172 195 0
170 193 0
170 193 0
173 197 0
173 196 0
169 192 0
169 193 31
140 165 103
64 100 172
63 99 170
63 99 171
62 98 172
62 99 173
61 98 170
62 99 174
62 99 177
62 99 171
62 99 176
62 99 176
62 99 173
62 99 175
62 99 178
62 99 176
62 99 175
62 99 181
62 99 179
62 99 178
62 99 180
62 99 179
62 99 179
62 99 177
62 99 180
62 99 178
62 99 177
61 99 179
62 99 179
62 99 179
62 99 180
62 99 177
61 99 181
62 99 180
61 99 181
62 99 180
62 99 178
62 99 181
63 99 179
62 99 181
62 99 179
62 99 181
62 99 181
62 99 181
62 99 177
62 99 181
62 99 181
62 99 181
61 99 181
62 99 180
62 99 181
62 99 179
62 99 180
62 99 181
62 99 180
61 99 180
61 99 181
61 99 180
62 99 181
61 99 180
62 99 181
62 99 181
62 99 181
61 99 180
63 100 180
62 99 181
62 99 181
62 99 180
62 99 181
63 100 181
62 99 181
62 99 180
62 99 181
62 99 180
61 99 181
62 99 178
61 99 181
62 100 181
62 99 180
62 99 180
62 99 181
62 99 179
61 99 181
62 99 179
62 99 178
61 99 178
61 99 181
61 99 180
62 99 180
62 99 179
61 99 180
61 99 178
62 99 180
62 99 180
62 99 178
62 99 176
61 99 180
62 99 179
62 99 178
61 98 178
61 98 179
62 99 179
62 99 179
62 99 177
61 98 176
62 99 177
62 99 178
62 99 177
62 99 179
62 99 177
61 98 179
61 98 177
62 99 175
62 99 177
61 98 175
62 99 179
62 99 173
62 99 178
62 99 176
62 99 177
62 99 176
62 99 178
62 99 178
62 99 178
62 98 172
61 98 172
61 98 173
61 98 174
61 98 170
62 98 175
62 98 175
62 99 174
62 98 169
61 97 171
61 96 168
61 96 169
61 97 168
59 94 161
61 95 169
81 101 145
107 109 82
107 107 62
115 112 72
124 122 75
122 121 76
117 116 70
110 111 71
117 117 77
109 108 72
104 105 72
107 107 73
115 115 77
113 114 78
112 112 75
113 114 79
105 106 74
115 117 83
103 104 74
126 126 86
117 117 76
112 113 80
116 116 82
123 123 85
123 123 85
118 120 84
128 129 89
124 124 85
136 134 90
130 130 92
128 128 90
118 121 87
137 137 94
137 135 91
135 135 93
140 139 94
144 142 98
135 136 94
145 144 98
142 141 96
148 146 98
148 146 100
154 151 102
151 150 101
144 144 96
152 150 100
154 151 98
152 150 95
155 152 100
160 157 103
157 154 101
156 153 101
152 150 100
164 161 106
155 152 98
163 160 105
164 161 104
161 158 103
163 159 101
160 157 100
169 165 107
171 167 107
170 166 106
169 165 105
171 166 106
168 164 105
172 168 108
175 168 107
164 161 102
172 167 105
173 168 106
173 168 105
169 165 107
170 166 107
169 166 104
174 169 106
172 167 103
173 169 105
175 169 106
178 171 106
175 169 108
174 170 108
172 167 104
175 169 102
171 166 103
173 168 106
176 170 105
173 168 106
174 169 103
174 169 106
175 169 104
173 167 100
176 170 107
174 170 108
172 167 102
168 163 96
176 170 104
175 168 104
171 167 103
173 167 103
172 166 103
170 165 104
176 170 106
170 166 103
168 163 101
167 160 99
176 170 106
173 167 104
171 166 102
172 167 101
172 166 99
168 163 99
170 165 99
169 164 93
163 158 97
170 164 97
166 160 95
172 165 100
162 155 92
171 164 99
164 158 92
167 161 98
164 157 90
168 162 95
163 156 90
161 156 91
165 158 90
162 155 88
165 159 91
161 155 90
158 153 86
150 145 84
156 150 87
148 143 79
152 146 80
160 153 87
162 155 88
158 152 82
157 150 84
151 146 75
149 143 79
148 141 78
149 143 74
152 146 77
149 143 76
146 140 71
142 141 61
136 137 57
144 147 56
155 165 52
150 159 47
147 161 25
156 170 36
162 178 32
166 185 22
168 190 0
173 196 11
175 198 0
173 197 0
172 195 0
172 196 0
174 197 0
174 197 0
172 196 0
173 197 0
174 197 0
171 195 0
174 197 0
173 196 0
174 197 0
174 197 0
173 197 0
173 196 0
171 194 0
173 197 0
172 195 0
175 198 0
173 196 0
172 197 0
172 196 0
170 194 0
172 195 0
174 197 0
173 196 0
172 196 0
172 196 0
174 197 0
174 197 0
174 197 0
175 198 0
171 195 0
172 196 0
175 198 0
172 196 0
174 196 0
171 195 0
172 196 0
173 197 0
173 196 0
174 198 0
171 195 0
172 195 0
172 194 0
173 197 0
170 194 0
172 195 0
172 195 0
173 196 0
172 195 0
172 195 0
173 197 0
172 195 0
171 194 0
174 197 0
170 192 0
172 195 0
173 195 0
172 195 0
172 195 0
174 197 0
171 194 0
174 197 0
174 197 0
171 193 0
174 196 0
170 193 0
168 192 0
173 195 0
171 194 0
174 197 0
174 197 0
173 196 0
173 196 0
174 197 0
171 194 0
172 195 0
172 196 0
173 196 0
173 197 0
173 196 0
171 195 0
174 197 0
170 193 0
172 195 0
172 195 0
174 197 0
168 192 0
174 196 0
174 198 0
175 198 0
171 195 0
173 197 0
171 194 0
173 195 0
173 197 0
172 195 0
171 194 0
171 195 0
170 193 0
172 195 0
158 182 74
66 101 168
62 99 171
63 99 177
62 99 176
63 99 175
62 99 176
62 98 171
63 99 173
62 99 174
62 99 175
62 99 174
62 99 178
62 99 179
62 99 175
61 98 175
62 99 179
62 99 178
62 99 177
63 99 178
62 99 176
62 99 178
62 99 177
62 99 180
61 98 178
61 99 177
62 99 179
63 100 180
62 99 179
62 99 179
61 99 180
62 99 181
62 99 181
62 100 181
62 99 178
62 99 179
61 99 179
62 99 179
62 99 180
62 99 180
62 99 179
62 99 181
61 98 177
62 99 177
62 99 181
62 99 180
62 99 179
62 99 179
62 99 179
62 99 179
62 99 177
62 99 180
61 99 181
61 99 179
61 99 180
62 99 181
62 99 180
62 99 180
61 98 180
61 99 179
61 99 181
62 99 180
62 99 180
63 100 179
62 99 181
62 99 178
62 99 180
61 98 180
62 99 180
61 99 178
61 99 181
62 99 179
62 99 181
62 99 180
62 99 181
62 99 179
62 99 180
62 99 181
62 99 181
62 99 178
62 99 180
62 99 179
62 99 180
62 99 181
62 99 180
62 99 180
63 100 180
61 98 176
62 99 178
62 99 181
62 99 179
62 99 181
61 99 179
62 99 180
62 99 179
62 99 179
62 99 177
62 99 180
62 99 176
62 99 178
62 99 179
62 99 181
61 98 179
62 99 178
62 99 179
62 99 179
62 99 179
62 99 179
62 99 177
62 99 180
62 99 178
62 99 179
62 99 177
62 99 176
62 99 180
62 99 181
62 99 177
62 99 179
62 99 175
61 98 174
62 98 176
62 99 178
61 98 179
62 98 174
62 99 177
62 98 172
62 99 176
62 98 172
61 98 173
62 98 174
62 98 172
63 99 175
62 99 174
62 98 176
62 97 169
61 97 168
61 97 170
61 96 164
60 96 167
61 95 163
64 99 174
87 105 134
114 114 78
116 115 66
118 116 75
116 116 74
98 99 67
122 119 75
125 123 82
116 115 74
107 109 73
100 102 67
110 111 75
112 112 75
108 108 74
108 109 76
110 111 73
124 125 87
120 122 85
112 113 79
107 109 75
117 118 82
104 107 79
125 125 87
109 112 81
120 122 86
119 120 83
122 123 87
125 126 89
128 128 88
129 130 90
130 130 91
136 135 93
135 134 92
136 135 93
137 137 94
141 140 95
140 140 96
145 143 98
135 134 88
147 145 98
137 137 94
145 144 97
142 141 96
151 150 100
151 149 98
147 146 97
152 150 99
155 153 98
150 149 100
157 153 98
162 159 103
156 153 99
155 153 95
152 151 96
160 156 102
157 155 101
159 157 101
163 160 105
164 160 99
163 159 100
171 167 103
165 162 104
163 160 105
171 166 103
169 165 104
169 165 106
168 165 103
170 165 105
166 163 103
173 168 105
176 170 109
173 168 106
170 165 99
175 169 105
172 167 103
172 167 107
172 167 103
171 167 106
171 167 102
174 169 104
175 170 109
174 168 106
175 170 110
170 166 106
175 169 106
174 169 105
174 168 104
174 168 104
175 170 104
172 167 104
173 168 105
174 168 101
173 168 104
175 170 107
174 169 103
171 166 101
170 165 100
173 168 104
174 168 103
173 168 103
172 167 104
172 166 102
173 166 101
168 161 96
169 163 99
174 168 102
168 162 93
171 165 96
170 164 99
167 161 94
167 162 100
173 166 101
169 162 97
169 163 99
166 161 96
168 162 99
169 163 95
167 160 94
166 161 97
163 157 93
163 157 92
163 158 93
161 154 90
164 157 94
159 153 88
162 155 90
166 159 88
155 150 82
158 152 87
160 155 87
155 149 85
160 154 88
155 148 87
162 156 84
155 149 79
155 148 84
151 146 82
147 139 75
153 146 79
151 146 82
152 146 76
149 143 80
143 137 74
151 144 77
142 138 69
140 138 64
145 145 64
146 150 53
150 159 51
153 164 41
160 172 51
162 177 36
165 182 36
168 191 11
172 193 16
173 195 0
174 198 0
173 196 0
173 196 0
173 197 0
173 196 0
173 196 0
172 195 0
172 197 0
173 197 0
173 196 0
172 197 0
170 194 0
174 198 0
174 197 0
173 197 0
173 197 0
173 196 0
171 196 0
172 195 0
171 195 0
172 196 0
170 193 0
171 195 0
174 197 0
172 196 0
174 197 0
170 194 0
170 194 0
169 193 0
173 196 0
171 195 0
174 197 0
171 194 0
173 196 0
175 198 0
171 195 0
173 196 0
173 197 0
172 195 0
174 197 0
174 196 0
171 195 0
170 193 0
172 195 0
173 196 0
173 197 0
174 197 0
172 196 0
171 194 0
172 196 0
172 195 0
172 195 0
170 194 0
174 197 0
174 197 0
172 196 0
170 193 0
172 194 0
174 197 0
172 195 0
172 195 0
173 196 0
169 193 0
172 196 0
170 194 0
172 195 0
173 197 0
170 195 0
174 196 0
173 197 0
172 194 0
172 195 0
172 194 0
170 193 0
172 196 0
172 195 0
171 195 0
172 196 0
173 196 0
172 196 0
171 195 0
173 195 0
171 195 0
171 195 0
171 195 0
169 193 0
171 194 0
173 196 0
171 195 0
170 192 0
169 194 0
169 191 0
174 197 0
171 195 0
174 197 0
171 194 0
172 196 0
174 196 0
173 196 0
168 193 0
170 192 0
171 194 0
163 186 60
80 112 166
63 99 172
62 99 171
62 98 170
62 99 172
63 99 172
62 99 173
62 99 176
62 99 179
62 99 177
62 99 173
62 99 178
62 99 178
62 99 173
62 99 178
62 99 175
62 99 177
62 99 179
63 100 181
62 99 178
62 99 181
63 100 180
62 99 178
62 99 176
62 99 181
62 99 180
62 99 178
62 99 180
62 99 180
62 99 179
61 99 177
62 99 179
63 99 178
61 99 178
61 99 178
61 98 181
62 99 180
62 99 179
62 99 178
62 99 180
62 99 178
62 99 181
62 99 181
62 99 180
61 98 180
62 99 180
62 99 181
62 99 181
61 99 180
62 99 181
62 99 181
62 99 180
62 99 180
62 99 179
61 98 179
61 98 180
61 99 179
62 99 180
61 99 178
62 99 179
61 99 180
62 99 180
62 99 181
62 99 180
63 99 180
62 99 181
61 99 180
62 99 180
62 99 181
62 99 180
62 99 180
61 98 177
62 99 180
62 99 179
62 99 179
62 99 179
62 99 181
62 99 181
61 99 181
62 99 178
62 99 180
62 99 181
62 99 180
62 99 178
62 99 178
62 99 179
62 99 180
62 99 180
62 99 181
62 99 180
62 99 181
62 99 179
62 99 180
61 98 178
62 99 181
61 99 177
62 99 178
61 98 178
62 99 178
62 99 179
62 99 179
62 99 180
62 99 178
62 99 176
61 98 176
62 99 181
63 99 177
61 98 177
62 99 178
62 99 177
62 99 174
62 99 178
62 99 180
61 98 175
62 98 176
62 99 179
62 99 180
61 98 175
61 97 173
62 99 175
62 99 176
61 98 175
62 99 178
62 99 173
62 99 177
61 98 176
63 99 176
61 98 175
60 96 174
62 98 174
62 99 176
62 98 174
61 96 171
62 98 176
60 96 170
60 96 168
61 97 170
61 96 165
61 96 167
60 95 166
61 96 167
72 99 157
93 106 126
106 108 87
106 105 65
123 120 77
114 114 72
108 108 69
110 110 72
97 98 64
119 118 78
111 110 71
104 106 75
98 100 69
111 112 79
110 112 77
102 103 71
119 119 81
104 105 73
112 114 79
114 115 82
111 112 78
115 115 79
121 122 86
110 111 79
124 125 86
113 113 80
115 117 83
129 130 91
131 132 94
124 125 88
129 129 89
129 129 89
126 127 88
125 125 84
122 123 87
135 135 92
143 142 95
139 138 94
135 135 91
137 137 93
144 142 95
144 143 96
139 138 91
156 153 101
156 154 102
153 151 97
152 150 100
157 154 101
153 152 100
154 152 98
158 155 101
165 161 102
160 157 98
152 150 96
158 155 102
158 155 101
161 158 101
163 160 103
157 155 100
164 160 104
169 165 107
163 159 98
165 161 100
167 163 104
168 164 103
168 164 104
166 161 104
170 166 107
169 165 105
172 167 104
169 165 103
171 166 102
174 168 105
171 167 108
171 166 105
171 166 105
173 169 108
174 168 107
173 168 102
171 167 106
172 168 103
175 170 106
174 169 104
172 167 100
175 169 108
177 171 104
173 168 107
176 170 103
176 170 106
175 169 104
176 170 104
174 169 104
172 167 102
175 169 105
172 166 102
172 166 102
176 169 104
173 167 101
177 171 106
172 167 104
175 169 102
173 167 99
173 167 99
170 164 98
166 160 98
173 166 101
171 166 97
171 165 99
171 165 99
164 159 95
168 162 96
174 167 100
170 164 100
172 167 99
162 157 94
165 160 95
174 167 95
168 162 95
166 160 97
168 162 97
170 164 96
165 159 95
166 159 93
165 159 92
169 162 95
162 155 91
157 151 88
158 153 88
163 156 89
162 156 94
162 156 90
152 147 82
157 151 83
159 153 87
160 154 83
151 144 80
142 137 68
149 143 78
141 135 71
150 144 79
144 138 72
148 143 71
143 137 69
141 136 69
137 132 69
140 138 61
137 138 56
154 159 56
141 147 44
151 159 49
157 168 47
156 171 36
161 178 28
164 184 19
167 189 0
169 194 11
171 195 0
172 195 0
172 195 0
175 198 0
174 197 0
172 196 0
172 195 0
172 196 0
174 197 0
172 196 0
174 197 0
172 196 0
173 197 0
173 196 0
176 198 0
169 192 0
174 197 0
172 196 0
171 195 0
172 196 0
174 197 0
172 196 0
168 192 0
174 197 0
173 197 0
172 195 0
171 196 0
173 197 0
172 194 0
173 197 0
172 196 0
173 197 0
172 195 0
173 196 0
171 194 0
171 194 0
174 197 0
170 194 0
170 194 0
173 195 0
173 197 0
171 195 0
174 197 0
174 197 0
173 196 0
172 196 0
174 197 0
173 197 0
172 196 0
173 196 0
171 195 0
175 198 0
171 194 0
172 195 0
171 194 0
171 196 0
174 197 0
174 197 0
173 196 0
173 197 0
171 195 0
173 196 0
172 196 0
175 198 0
173 196 0
171 194 0
171 195 0
172 196 0
172 195 0
170 193 0
173 196 0
171 195 0
174 197 0
172 196 0
173 197 0
170 193 0
175 198 0
174 197 0
171 194 0
174 196 0
170 194 0
171 195 0
174 197 0
173 196 0
174 196 0
169 193 0
172 196 0
167 190 0
172 195 0
170 193 0
173 196 0
171 194 0
170 193 0
169 193 0
170 193 0
169 193 0
173 195 0
171 194 0
171 193 0
171 194 0
171 194 0
162 186 47
95 125 151
62 99 167
62 99 174
62 98 169
63 99 173
62 99 174
62 99 175
63 99 174
63 99 175
62 99 176
62 99 173
62 99 176
62 99 174
62 98 173
63 99 177
62 99 180
62 98 174
62 99 179
62 99 180
63 100 180
62 99 179
62 99 178
61 98 177
62 99 181
61 99 179
62 98 175
62 99 179
61 98 177
62 99 179
62 99 181
62 99 179
62 99 178
62 99 179
62 99 175
63 100 180
61 99 180
62 99 179
63 100 180
62 99 179
62 99 181
61 98 180
63 100 180
63 99 179
61 99 179
62 99 181
62 99 179
62 99 180
62 99 180
62 99 179
62 99 180
62 99 180
62 99 179
63 100 179
62 99 181
61 98 179
62 99 179
62 99 179
62 99 179
62 99 178
62 99 180
62 99 181
62 99 179
62 99 179
62 99 181
62 99 181
62 99 180
62 99 180
62 99 180
62 99 181
62 99 181
62 99 180
61 99 180
62 99 178
62 99 181
62 99 180
62 99 181
62 99 180
62 99 180
62 99 180
61 98 178
61 99 180
62 99 180
62 99 181
61 98 177
63 100 180
62 99 180
61 99 181
62 99 180
62 99 180
62 99 179
62 99 179
62 99 180
63 100 181
62 99 180
62 99 176
62 99 179
62 99 175
62 99 180
62 99 177
62 99 179
61 99 179
62 99 180
62 99 180
62 99 180
63 100 181
62 99 181
61 98 178
62 99 179
62 99 177
62 99 178
62 99 180
61 98 173
62 99 179
62 99 179
61 98 174
62 99 178
62 99 178
61 98 176
62 99 177
61 98 176
62 98 177
62 98 174
61 98 176
62 99 178
62 98 170
63 99 176
62 99 177
61 98 177
62 98 174
62 99 177
62 98 174
62 98 170
61 97 166
62 98 170
62 98 170
62 97 166
60 96 167
60 95 167
62 98 170
61 96 170
60 95 164
61 96 166
60 95 166
64 95 157
104 112 117
113 114 82
113 111 70
125 121 76
112 111 73
114 113 76
116 115 77
117 117 79
100 102 70
103 104 73
97 100 71
99 100 69
109 109 72
116 116 81
106 106 74
104 107 75
98 101 71
103 105 75
109 112 80
112 113 78
115 117 83
114 116 80
108 109 77
114 115 81
120 121 85
126 127 90
126 126 88
120 121 83
122 124 88
135 134 92
138 138 95
134 133 90
137 136 94
130 131 89
148 146 96
143 142 96
138 137 92
151 149 100
134 133 89
142 141 96
143 142 95
145 143 96
151 149 99
149 147 98
149 146 99
158 155 101
148 146 95
160 158 102
158 155 99
158 156 101
154 152 100
160 157 100
161 158 100
158 155 101
164 160 102
165 161 104
164 161 103
162 159 100
160 157 100
163 160 100
164 160 103
162 159 102
171 167 109
168 164 105
167 163 101
167 163 99
174 169 108
171 166 105
168 163 101
167 164 106
171 166 104
170 165 102
172 167 102
168 163 102
176 170 108
174 167 101
172 168 102
173 168 103
176 169 107
173 168 105
175 169 104
174 169 100
176 170 107
176 171 108
172 168 103
177 172 109
175 169 103
172 167 102
175 169 105
174 169 103
174 169 106
175 169 103
172 167 103
174 168 103
174 169 102
170 165 101
169 164 99
171 165 100
176 170 104
168 163 100
170 165 99
165 160 95
172 167 99
173 167 99
171 165 102
174 166 104
174 168 100
167 162 98
166 160 97
167 160 97
169 163 96
164 159 95
167 161 97
169 162 97
165 160 94
162 157 94
160 155 89
168 161 95
167 161 95
165 160 96
154 150 87
159 153 87
163 157 91
163 157 87
160 153 90
160 155 84
168 161 95
153 148 83
156 149 88
155 149 86
152 147 79
160 154 86
153 147 81
154 149 78
155 149 79
152 146 80
155 150 80
151 144 80
152 146 79
145 138 74
149 143 76
143 137 72
144 139 71
146 141 75
149 151 65
149 155 48
150 155 57
152 163 36
152 164 36
159 176 32
164 183 25
168 186 19
169 189 22
173 196 11
172 195 0
174 197 0
171 195 0
171 195 0
170 194 0
175 197 0
173 197 0
172 196 0
172 195 0
173 197 0
173 196 0
173 196 0
173 197 0
172 196 0
172 195 0
174 197 0
176 198 0
174 197 0
173 196 0
172 195 0
173 196 0
173 196 0
172 196 0
174 197 0
171 195 0
172 195 0
170 194 0
173 196 0
172 196 0
171 194 0
173 197 0
173 196 0
173 197 0
172 195 0
175 198 0
173 196 0
174 198 0
173 196 0
175 197 0
174 197 0
170 194 0
173 197 0
174 197 0
170 194 0
174 197 0
169 192 0
172 196 0
172 196 0
173 196 0
170 193 0
171 194 0
170 195 0
172 195 0
173 197 0
170 193 0
174 197 0
172 196 0
172 195 0
171 195 0
171 194 0
172 195 0
170 194 0
171 194 0
172 195 0
172 195 0
173 197 0
173 197 0
172 196 0
173 196 0
174 197 0
169 192 0
172 194 0
172 195 0
173 196 0
170 194 0
173 196 0
171 195 0
170 193 0
171 194 0
173 196 0
168 191 0
173 197 0
170 193 0
169 193 0
171 194 0
171 194 0
172 195 0
171 195 0
170 194 0
172 196 0
174 195 0
172 195 0
175 197 0
174 196 0
175 198 0
172 194 0
172 195 0
166 189 0
171 194 0
170 193 0
170 193 25
127 152 118
63 99 169
61 98 167
63 99 171
62 99 173
62 99 171
62 99 175
61 98 174
62 99 174
62 98 173
62 99 171
62 99 174
62 99 174
62 99 178
62 99 174
62 99 176
62 99 176
62 99 175
62 99 179
61 98 176
62 99 175
62 99 179
62 99 177
62 99 177
62 99 176
63 100 177
62 99 181
63 99 179
62 99 178
62 99 181
62 99 177
62 99 180
62 99 177
61 98 178
62 99 179
62 99 181
62 99 178
62 99 179
62 99 176
62 99 178
62 99 180
61 98 179
62 99 180
62 99 177
62 99 180
62 99 178
62 99 180
62 99 180
62 99 179
63 100 180
62 99 180
62 99 180
62 99 178
62 99 181
61 99 180
61 98 179
61 99 181
61 98 180
62 99 181
62 99 181
62 99 179
62 99 181
62 99 180
62 99 179
61 99 181
62 99 179
61 99 180
63 100 181
62 99 180
62 99 180
62 99 181
61 99 181
62 99 179
62 99 178
62 99 179
62 99 178
62 99 179
62 99 181
62 99 180
61 99 178
62 99 180
61 98 179
62 99 179
61 99 180
61 99 179
62 99 179
62 99 176
62 99 181
62 99 181
62 99 180
62 99 179
61 98 178
61 99 178
62 99 181
62 99 179
61 98 177
62 99 176
62 99 180
62 99 179
61 99 179
62 99 178
62 99 181
62 99 180
62 99 177
62 99 180
62 99 179
62 99 179
61 99 178
62 99 178
62 99 177
61 98 176
62 99 176
62 99 175
62 99 179
62 99 178
62 99 179
62 99 178
63 100 179
61 98 176
62 99 176
61 98 176
61 98 172
63 100 178
61 98 172
62 99 175
62 98 174
62 99 171
61 98 174
62 98 170
62 99 175
62 99 176
61 98 172
62 98 174
62 98 175
61 97 168
61 97 171
61 97 169
61 97 172
60 96 168
61 97 167
62 98 172
60 96 163
61 97 168
61 97 168
60 94 164
70 94 139
92 99 96
108 108 67
115 114 72
110 109 70
113 113 72
100 100 66
102 103 72
102 104 72
107 106 68
96 97 64
109 109 76
111 111 75
96 99 69
111 113 79
105 107 74
108 110 77
103 106 77
107 109 77
122 121 84
113 114 79
127 127 88
112 114 81
126 127 89
123 122 84
119 120 85
111 113 81
126 126 85
129 129 89
119 120 85
126 126 86
139 138 94
132 132 90
139 138 93
130 131 88
137 136 95
143 142 94
152 149 99
131 132 91
135 135 92
143 142 93
144 143 95
134 135 90
146 144 96
147 145 95
149 148 96
160 157 102
153 151 98
157 154 100
154 152 98
158 155 98
163 158 98
154 152 99
158 155 100
162 159 100
159 157 102
161 158 102
164 161 102
163 160 101
161 158 103
164 161 99
168 164 107
171 166 105
166 162 104
167 163 102
168 164 105
169 164 100
173 167 102
166 162 101
171 165 103
168 163 101
172 167 105
173 168 105
172 167 104
174 169 103
172 167 100
172 167 101
175 170 107
171 166 101
175 170 108
172 167 100
174 169 106
176 170 106
173 168 103
173 168 105
173 168 105
173 167 98
176 171 106
173 167 102
177 170 108
173 167 102
172 167 99
171 166 101
174 168 104
171 166 100
172 166 98
175 169 101
170 166 99
170 164 97
173 166 101
169 164 97
175 168 101
175 168 102
170 163 95
171 164 97
171 165 99
170 165 99
168 162 95
174 168 104
168 162 97
169 163 95
165 159 99
163 158 94
171 164 98
167 161 96
173 166 96
160 155 88
169 163 90
166 159 93
157 152 87
162 155 89
168 161 90
155 150 82
166 159 94
165 159 93
159 153 84
152 147 80
163 157 88
159 153 88
160 153 87
151 145 80
155 149 85
152 146 80
152 146 77
156 148 78
151 145 80
149 143 75
155 148 79
153 147 78
140 134 67
152 145 76
131 125 63
143 138 70
144 139 68
145 145 65
145 145 60
158 164 54
150 159 48
156 167 41
159 176 32
160 176 32
164 182 25
170 191 22
170 192 0
171 195 0
176 198 0
173 196 0
173 196 0
174 197 0
172 195 0
172 196 0
173 197 0
174 197 0
173 197 0
175 198 0
173 196 0
175 198 0
173 196 0
174 197 0
172 196 0
172 196 0
175 198 0
173 196 0
173 196 0
173 196 0
173 196 0
172 195 0
173 196 0
173 196 0
172 196 0
174 196 0
173 197 0
172 196 0
171 194 0
173 197 0
172 195 0
174 198 0
173 197 0
171 195 0
171 195 0
174 198 0
173 197 0
172 195 0
173 195 0
171 195 0
172 196 0
170 194 0
175 197 0
173 196 0
170 194 0
173 196 0
174 197 0
172 196 0
171 195 0
174 197 0
172 196 0
175 197 0
171 194 0
174 198 0
174 197 0
171 195 0
172 195 0
175 198 0
172 195 0
176 198 0
171 196 0
172 195 0
173 197 0
171 195 0
171 195 0
173 196 0
170 193 0
169 192 0
171 194 0
171 195 0
171 194 0
172 195 0
170 193 0
172 195 0
172 195 0
172 196 0
166 190 0
168 192 0
170 194 0
171 195 0
169 193 0
170 193 0
169 192 0
169 192 0
170 193 0
173 196 0
168 191 0
170 194 0
173 196 0
170 194 0
172 195 0
170 193 0
171 194 0
171 194 0
172 195 0
170 194 0
172 194 0
171 193 0
172 195 0
146 171 94
65 101 173
62 98 167
62 99 173
62 99 175
62 99 176
62 99 172
62 99 173
62 99 175
62 99 176
62 98 172
63 100 178
62 98 172
62 99 178
62 99 172
62 99 176
62 99 175
62 99 177
62 99 177
61 99 179
63 100 180
62 99 174
62 99 174
62 99 175
63 100 179
62 99 176
62 99 178
63 100 179
62 99 177
62 99 176
62 99 179
62 99 178
62 99 178
62 99 176
62 99 180
62 99 179
62 99 178
62 99 177
62 99 179
62 99 179
62 99 180
62 99 179
62 99 178
62 99 180
62 99 181
62 99 180
62 99 179
62 99 179
62 99 179
62 99 179
62 99 180
62 99 180
62 99 180
63 100 181
62 99 178
62 99 179
62 99 180
62 99 181
61 99 179
61 98 181
61 99 180
62 99 180
61 99 180
62 99 181
62 99 178
62 99 180
63 100 181
61 99 178
62 99 179
62 99 179
62 99 180
62 99 181
62 99 181
61 98 177
62 99 179
62 99 180
62 99 180
62 99 179
62 99 180
63 100 180
62 99 178
62 99 179
62 99 178
61 98 179
62 99 180
62 99 181
61 99 181
62 99 178
62 99 176
62 99 176
62 99 179
62 99 179
62 99 179
61 98 178
62 99 179
62 99 180
62 99 177
62 99 181
61 99 179
61 98 176
62 99 176
62 99 179
63 100 179
62 99 178
62 99 181
62 99 179
62 99 177
62 99 177
62 99 178
62 99 177
62 99 177
62 99 179
62 99 181
62 99 177
61 99 178
61 98 175
61 97 174
62 99 176
62 99 177
62 99 180
61 98 173
61 98 173
62 98 174
62 99 177
62 98 176
62 99 176
62 99 175
62 99 174
62 98 173
62 98 175
62 98 171
62 98 170
62 99 171
61 97 170
61 98 169
62 99 175
62 98 173
61 97 169
61 98 173
62 98 170
61 96 170
61 97 171
61 96 166
61 97 167
61 97 168
60 96 165
59 92 155
77 97 131
105 104 69
108 108 71
105 104 69
101 102 66
84 86 62
105 105 69
98 99 67
97 98 65
107 107 72
107 108 73
96 99 71
102 104 74
103 105 73
108 109 78
109 110 77
102 106 78
100 103 74
109 111 79
116 117 83
103 106 77
127 127 89
113 114 79
115 117 82
129 130 90
131 131 87
132 132 91
126 127 89
122 123 84
123 125 87
132 131 88
133 133 89
129 129 89
142 140 91
136 135 89
143 142 96
142 142 95
139 138 93
135 135 91
141 140 91
141 140 94
144 142 93
150 148 98
152 150 97
150 148 98
147 145 96
149 147 95
157 154 99
153 150 98
156 153 95
153 150 95
163 160 101
161 157 100
161 157 100
158 156 97
168 164 104
166 161 100
166 162 102
168 163 103
167 162 99
160 158 97
168 164 101
171 166 104
173 167 105
168 164 100
173 168 109
168 164 105
173 169 108
172 167 104
172 167 107
171 167 102
173 169 108
172 167 98
173 168 104
171 167 103
170 165 99
170 166 99
172 167 103
173 168 105
173 168 102
173 167 98
174 168 104
175 170 107
172 167 96
171 166 99
174 168 101
171 166 104
171 166 96
174 168 100
169 164 97
173 168 103
171 165 99
173 167 103
171 166 100
172 167 103
173 167 99
170 163 99
171 165 99
171 164 96
174 168 99
172 166 98
169 162 101
169 162 101
174 169 101
167 162 99
170 164 97
165 160 94
168 163 97
167 162 95
169 164 94
170 163 97
166 161 93
173 167 102
159 155 87
160 154 85
165 159 89
167 161 94
162 156 94
166 159 93
159 154 91
165 159 93
164 157 90
163 156 87
165 158 90
166 158 90
160 155 87
165 158 90
161 156 84
156 149 83
155 149 84
152 147 71
160 153 87
154 148 77
155 148 77
151 145 75
152 146 79
143 137 74
147 141 72
144 139 72
145 139 69
145 140 71
141 135 70
139 138 64
140 142 58
144 146 57
145 150 52
159 168 51
157 167 48
159 175 34
163 180 30
158 177 19
167 189 0
170 192 0
174 197 0
170 194 0
173 196 0
174 198 0
173 196 0
173 196 0
171 194 0
174 197 0
174 197 0
173 196 0
173 196 0
174 197 0
172 195 0
172 195 0
172 196 0
171 193 0
170 194 0
172 195 0
172 196 0
173 196 0
172 197 0
172 195 0
175 198 0
172 197 0
170 193 0
171 195 0
173 197 0
171 194 0
171 194 0
171 194 0
170 194 0
174 197 0
174 197 0
172 195 0
171 194 0
174 197 0
175 197 0
173 197 0
174 197 0
172 196 0
173 196 0
171 194 0
173 197 0
173 197 0
173 196 0
170 193 0
171 195 0
168 192 0
175 198 0
170 193 0
173 197 0
173 197 0
172 195 0
171 195 0
169 193 0
171 194 0
172 195 0
171 194 0
172 195 0
172 195 0
172 195 0
172 195 0
174 197 0
173 196 0
172 196 0
171 194 0
173 196 0
171 195 0
174 197 0
170 194 0
170 194 0
174 197 0
173 197 0
171 194 0
174 197 0
172 195 0
171 195 0
173 196 0
171 194 0
170 193 0
171 194 0
171 194 0
171 194 0
172 195 0
169 192 0
173 195 0
170 194 0
172 195 0
170 193 0
170 193 0
170 193 0
170 194 0
172 194 0
170 194 0
169 193 0
171 194 0
172 196 0
171 194 0
173 195 0
163 187 60
87 118 160
62 98 164
63 99 169
62 98 169
61 98 165
62 99 175
62 98 172
62 99 175
62 99 173
62 99 171
62 99 172
62 98 175
61 98 171
63 100 177
63 100 178
62 99 176
62 99 177
62 98 175
62 99 176
62 99 176
61 98 175
63 100 180
62 99 176
62 99 178
62 99 179
62 99 176
62 99 176
62 99 179
62 99 178
63 99 177
62 99 181
61 98 178
62 99 178
61 98 178
62 99 180
62 99 175
62 99 176
62 99 179
62 99 179
63 100 180
62 99 176
62 99 179
62 99 179
62 99 180
62 99 180
62 99 180
62 99 179
63 99 180
62 99 181
61 98 178
61 98 174
62 99 181
62 99 177
62 99 179
62 99 179
62 99 180
62 99 181
62 99 178
62 99 180
62 99 179
62 99 181
62 99 181
62 99 180
62 99 181
61 99 179
61 99 181
63 100 181
61 99 179
62 99 180
62 99 180
62 99 180
62 99 179
62 99 181
61 98 176
62 99 179
62 99 180
61 99 179
62 99 181
62 99 180
62 99 179
62 99 179
61 98 178
62 99 181
62 99 180
62 99 181
62 99 180
62 99 180
61 99 181
62 99 180
63 100 181
62 99 179
62 99 178
61 99 180
62 99 181
62 99 178
62 99 179
62 99 179
62 99 177
62 99 178
62 99 179
62 99 176
62 98 174
62 99 177
63 100 180
61 98 176
61 98 178
61 99 180
62 99 181
62 99 178
62 99 176
62 99 178
62 99 175
61 99 178
62 99 178
62 99 177
61 98 176
62 99 177
61 98 174
62 99 175
62 98 174
62 98 171
62 99 179
61 98 176
62 99 176
61 98 174
62 99 177
62 99 176
63 99 179
62 98 171
62 99 178
61 98 166
62 99 176
63 99 176
61 97 172
61 98 175
62 98 170
62 99 175
61 98 167
61 97 169
61 97 169
62 97 170
62 98 172
60 95 165
61 96 162
61 96 167
61 97 166
60 95 166
67 96 154
83 95 108
96 96 64
90 92 63
89 90 61
101 102 69
89 91 64
92 93 63
96 98 69
101 104 72
95 96 65
103 104 73
107 108 78
106 106 73
95 97 71
107 107 74
105 107 77
108 110 80
100 103 74
112 114 80
117 117 83
121 122 86
112 114 81
115 117 82
100 104 75
117 118 81
121 123 83
120 122 87
124 125 86
120 121 85
132 132 87
136 135 89
135 134 89
126 127 89
126 127 88
135 134 91
134 135 92
132 132 90
139 138 91
142 142 94
140 140 92
146 145 94
151 148 96
155 152 102
154 152 98
154 150 96
154 151 99
151 149 100
155 154 99
151 149 94
162 157 96
156 154 96
162 157 101
160 156 97
161 158 103
156 154 97
162 158 97
158 156 97
161 157 95
164 161 100
165 161 95
167 163 102
174 169 108
163 159 102
166 163 104
169 166 102
168 163 103
169 164 101
166 162 102
171 165 99
172 167 103
168 164 101
172 167 102
173 167 102
173 168 103
173 168 105
171 166 103
174 168 104
176 170 106
174 168 104
173 167 104
174 169 105
175 169 103
170 166 98
172 167 102
175 169 104
176 170 104
172 167 103
175 168 101
177 170 104
176 170 104
175 169 100
173 167 100
173 167 103
173 167 100
168 164 97
173 167 102
171 165 97
174 168 102
166 161 95
169 164 97
171 166 93
170 164 94
171 166 97
172 166 97
165 160 97
170 164 97
174 167 100
174 167 99
169 163 97
165 159 93
169 163 97
165 159 92
166 160 95
170 163 96
167 161 93
171 163 93
171 164 90
160 155 87
161 154 89
158 152 84
158 153 88
164 158 95
160 154 87
161 154 91
158 151 87
158 153 80
156 150 84
158 152 87
156 149 79
155 150 81
149 143 79
156 151 79
152 147 79
153 147 80
155 149 80
139 133 68
151 144 80
146 141 75
141 136 61
138 133 69
135 129 66
139 135 69
151 148 67
143 147 54
144 151 49
155 162 48
158 170 42
160 176 36
165 180 34
164 184 22
172 193 11
173 195 0
174 197 0
173 197 0
172 196 0
173 197 0
175 198 0
172 196 0
173 195 0
173 197 0
175 197 0
172 195 0
172 196 0
173 196 0
173 197 0
172 196 0
170 194 0
171 194 0
171 196 0
172 195 0
174 197 0
173 196 0
173 196 0
174 198 0
173 196 0
170 194 0
173 197 0
173 196 0
174 197 0
174 198 0
173 195 0
173 196 0
173 197 0
172 195 0
172 195 0
172 196 0
171 194 0
173 196 0
173 195 0
171 194 0
173 197 0
171 195 0
171 195 0
173 196 0
174 197 0
169 193 0
172 194 0
172 196 0
171 195 0
171 195 0
171 194 0
173 196 0
170 193 0
171 195 0
174 197 0
174 198 0
173 196 0
172 196 0
173 195 0
173 197 0
173 197 0
170 193 0
171 194 0
170 192 0
170 193 0
171 195 0
174 197 0
173 196 0
173 196 0
172 196 0
168 191 0
168 192 0
171 194 0
169 193 0
171 193 0
173 196 0
172 195 0
171 195 0
172 196 0
170 193 0
172 195 0
169 192 0
171 194 0
172 195 0
170 194 0
169 193 0
172 195 0
173 197 0
172 195 0
172 195 0
170 192 0
174 198 0
171 195 0
174 197 0
169 193 0
172 195 0
170 193 0
174 197 0
171 194 0
169 193 0
167 190 25
114 141 130
63 99 171
63 99 168
63 100 176
61 98 165
62 99 172
63 99 172
63 99 172
62 99 174
62 99 176
62 99 167
62 98 168
62 98 172
62 99 173
61 98 177
62 99 174
62 99 172
62 99 179
62 98 176
63 99 177
63 100 179
62 99 178
62 99 175
62 99 178
62 99 177
62 99 177
62 99 178
63 100 180
62 99 181
62 99 177
63 99 176
62 99 177
62 99 177
62 99 174
62 99 177
62 99 175
63 100 179
62 99 176
62 99 179
62 99 179
62 99 180
62 99 180
63 100 180
62 99 177
61 99 180
62 99 177
62 99 180
62 99 179
61 99 181
61 98 180
62 99 180
62 99 180
61 98 178
62 99 180
62 99 179
61 98 175
62 100 181
62 99 180
61 98 179
62 99 180
62 99 180
62 99 179
62 99 181
62 99 179
62 99 179
63 100 180
62 99 179
61 98 179
62 99 180
62 99 180
62 99 180
62 99 180
61 99 179
63 100 181
62 99 181
62 99 179
62 99 180
62 99 179
62 99 176
62 99 179
62 99 179
62 99 180
62 99 179
62 99 178
62 99 179
62 99 181
62 98 174
62 99 178
62 99 180
62 99 179
62 99 177
62 99 179
63 99 178
62 99 178
62 99 179
62 99 177
61 99 180
61 98 178
62 99 179
62 99 178
62 99 179
62 99 178
62 99 177
62 99 179
62 99 176
62 99 180
62 99 180
61 99 178
62 99 177
61 98 175
61 99 178
62 99 178
62 99 181
61 98 177
63 100 179
62 99 174
62 99 179
62 99 177
63 100 175
61 97 170
61 98 177
61 98 174
63 100 178
61 98 175
62 99 179
62 99 177
62 98 173
61 98 171
62 98 170
61 98 176
62 98 167
62 98 174
61 98 170
61 97 170
62 98 177
62 98 174
61 98 169
62 98 170
62 97 170
62 98 172
61 97 169
63 98 173
61 97 169
60 96 167
62 98 170
59 94 163
61 96 166
61 96 166
58 91 154
69 95 147
89 95 94
101 101 68
85 87 58
95 96 61
100 102 69
93 94 65
96 97 65
90 92 64
108 108 73
86 88 62
92 94 66
102 104 74
104 107 75
101 103 72
102 103 73
105 106 75
103 106 77
115 117 82
113 115 80
114 116 82
109 112 82
118 119 83
110 112 80
120 121 83
121 122 84
125 125 85
127 128 88
126 126 83
136 134 90
130 130 88
140 138 88
132 131 87
130 130 87
142 141 91
143 141 95
134 134 92
142 141 96
143 142 92
144 143 93
148 146 96
155 152 96
149 147 95
150 147 93
150 148 95
152 150 95
152 149 94
154 151 99
158 155 100
161 158 103
155 152 95
157 154 100
156 153 97
160 156 101
161 158 102
165 160 98
164 160 100
165 161 103
165 161 102
168 164 102
169 164 98
170 165 103
166 162 102
170 165 103
171 165 104
173 167 103
168 163 98
168 164 100
172 166 103
170 165 101
171 166 103
172 167 104
173 167 101
168 164 97
168 164 100
176 170 104
176 170 105
173 167 104
174 169 103
176 169 103
174 168 102
174 168 103
173 168 102
175 169 102
175 169 103
173 168 100
175 169 101
173 168 103
174 168 101
173 167 101
174 168 99
171 165 100
174 168 101
170 164 98
176 170 103
172 166 100
175 168 99
174 169 103
169 163 95
170 164 93
164 158 92
167 162 97
175 167 100
176 169 101
169 164 99
175 168 101
167 161 91
168 162 97
171 164 95
165 159 89
167 161 96
162 156 89
171 164 93
161 155 87
168 162 95
168 161 96
168 163 90
168 161 94
158 152 86
167 161 95
162 156 91
162 156 84
163 156 90
161 155 87
161 155 89
163 156 87
151 146 78
162 155 88
153 146 79
159 153 84
157 151 80
158 151 78
152 146 76
153 147 78
151 145 80
144 139 65
156 149 80
152 146 70
150 144 75
131 126 62
147 141 72
149 147 67
147 145 68
147 147 63
150 158 47
151 160 45
154 166 41
157 170 37
167 187 19
164 185 16
168 188 0
171 193 0
173 197 0
173 196 0
173 196 0
173 196 0
175 197 0
174 197 0
174 197 0
174 197 0
172 196 0
173 196 0
175 198 0
172 196 0
174 197 0
174 197 0
174 197 0
174 198 0
171 194 0
171 195 0
173 197 0
174 197 0
171 194 0
174 198 0
171 195 0
173 197 0
172 196 0
173 197 0
174 197 0
173 195 0
172 196 0
173 197 0
173 196 0
173 197 0
171 195 0
173 196 0
171 195 0
172 195 0
173 196 0
171 194 0
173 196 0
173 196 0
170 193 0
172 195 0
172 196 0
173 196 0
169 192 0
171 195 0
171 195 0
172 195 0
172 197 0
172 194 0
172 195 0
172 195 0
174 197 0
170 193 0
176 198 0
173 196 0
170 193 0
172 194 0
173 196 0
171 194 0
170 194 0
173 196 0
169 193 0
172 195 0
172 195 0
167 191 0
172 196 0
173 196 0
172 195 0
167 190 0
171 195 0
170 194 0
174 196 0
170 195 0
173 196 0
174 197 0
171 194 0
171 194 0
173 196 0
170 193 0
172 195 0
173 196 0
170 193 0
170 194 0
170 194 0
171 195 0
169 192 0
171 194 0
169 192 0
172 196 0
170 193 0
173 196 0
168 192 0
168 190 0
169 192 0
173 196 0
172 195 0
171 194 0
156 179 80
64 100 168
61 98 165
63 99 168
61 98 171
62 99 175
62 98 170
62 99 167
62 99 173
62 98 173
61 98 170
61 98 172
61 98 173
63 100 177
62 99 174
62 98 172
62 99 174
62 99 175
62 99 177
62 99 178
62 99 176
62 99 176
62 99 176
62 99 178
62 99 176
62 99 178
62 99 177
62 99 177
61 99 177
62 99 179
62 99 180
62 99 177
61 98 177
62 99 178
62 99 181
62 99 181
62 99 180
62 99 179
62 99 180
62 99 178
62 99 179
62 99 176
62 99 179
62 99 180
62 99 177
62 99 180
62 99 179
62 99 179
62 99 177
63 100 181
62 99 180
62 99 180
62 99 181
63 100 180
62 99 181
62 99 179
63 100 179
62 99 178
61 98 178
62 99 177
62 99 180
62 99 180
62 99 180
62 99 180
62 100 181
62 99 181
62 99 180
62 99 177
62 99 178
62 99 179
62 99 179
62 99 180
62 99 180
62 99 177
62 99 179
62 99 180
62 99 179
62 99 179
62 99 179
62 99 178
62 99 178
62 99 179
62 99 180
62 99 181
62 99 180
62 99 181
62 99 176
62 99 181
61 98 178
62 99 180
62 99 179
62 99 180
62 99 180
61 98 177
63 99 179
62 99 179
62 99 180
62 99 179
62 99 180
62 99 178
62 99 176
62 99 178
62 99 177
62 99 180
62 99 178
61 98 175
62 99 175
61 98 172
62 99 178
62 99 179
62 99 180
63 99 178
62 99 177
62 99 174
62 99 178
62 99 178
62 99 174
63 99 178
62 99 178
62 99 175
63 99 178
62 98 176
62 99 175
62 99 178
62 98 174
62 98 175
62 99 177
62 99 178
62 99 178
62 99 178
62 98 173
63 99 176
62 99 175
61 97 170
62 98 175
61 98 172
62 98 172
62 98 169
62 98 172
61 98 173
62 98 171
61 97 171
61 95 168
62 97 170
62 98 167
61 96 164
60 94 155
61 96 164
61 95 164
60 94 160
59 92 154
72 94 138
82 88 75
100 98 65
95 97 65
100 100 66
90 92 63
87 91 63
104 105 73
88 90 64
101 103 73
105 107 77
116 116 80
96 99 68
99 101 71
94 97 69
103 106 76
109 110 77
102 104 71
106 109 78
119 120 83
102 105 74
98 102 74
115 117 83
108 111 79
118 119 80
135 134 91
111 115 81
122 124 85
129 129 85
126 126 84
126 127 88
128 128 87
138 137 95
145 143 95
139 138 92
134 134 90
143 142 92
146 143 91
142 140 95
144 142 90
158 155 99
147 144 93
145 144 92
154 151 98
151 148 95
157 154 100
155 152 98
153 150 99
157 153 98
155 152 94
155 152 100
163 159 100
165 161 102
163 158 97
154 151 96
162 158 96
167 162 99
167 162 98
168 163 102
165 161 98
158 154 95
166 162 104
164 160 98
165 161 97
170 165 99
174 168 107
168 164 99
172 168 103
171 166 103
175 169 102
174 169 103
166 162 94
174 168 102
177 170 104
172 166 100
170 165 103
173 168 104
177 171 107
174 168 104
172 166 96
171 165 101
175 168 105
174 169 104
174 168 99
176 169 99
176 169 103
173 166 103
175 168 100
170 164 96
173 168 99
172 166 92
174 168 99
174 168 101
166 161 95
170 164 96
175 169 101
169 162 99
174 168 97
170 164 98
173 166 96
172 166 99
169 163 97
172 165 95
174 167 99
168 162 95
165 160 87
168 162 96
175 168 99
167 161 97
169 163 90
168 162 95
165 159 90
169 163 97
165 159 93
169 162 94
170 163 92
166 158 90
162 156 85
164 158 84
158 152 87
162 155 90
161 155 87
159 153 87
168 161 88
155 149 80
155 149 87
163 157 84
154 148 81
139 134 67
145 140 70
151 146 75
161 154 85
148 142 72
154 149 76
149 143 74
140 135 72
156 150 74
149 143 73
136 131 59
140 134 63
152 149 69
144 144 56
152 158 54
151 157 54
155 164 48
153 167 37
155 169 36
162 176 36
165 183 36
170 192 16
171 194 0
173 197 0
173 197 0
172 196 0
172 196 0
174 197 0
173 196 0
173 197 0
172 196 0
171 195 0
172 195 0
173 196 0
170 194 0
174 197 0
173 197 0
171 194 0
173 196 0
172 196 0
173 196 0
172 196 0
174 197 0
174 197 0
173 195 0
171 194 0
173 197 0
175 198 0
174 198 0
172 196 0
170 194 0
175 198 0
174 197 0
175 197 0
169 194 0
173 196 0
170 195 0
174 197 0
171 195 0
172 195 0
172 196 0
176 199 0
172 196 0
174 197 0
170 193 0
175 198 0
170 194 0
171 194 0
172 196 0
170 194 0
172 195 0
169 193 0
171 195 0
173 197 0
171 195 0
171 195 0
171 194 0
170 194 0
172 196 0
170 194 0
171 195 0
172 196 0
172 195 0
172 195 0
173 195 0
173 197 0
173 197 0
172 195 0
171 194 0
174 197 0
172 195 0
172 196 0
174 197 0
173 196 0
171 194 0
173 196 0
168 192 0
170 193 0
168 192 0
170 193 0
172 195 0
173 196 0
168 190 0
172 195 0
173 197 0
174 197 0
170 193 0
171 193 0
172 196 0
169 192 0
173 196 0
174 197 0
171 193 0
174 197 0
170 193 0
172 194 0
171 194 0
170 193 0
171 195 0
170 194 0
166 189 44
74 107 162
62 99 169
62 98 166
62 98 170
62 99 171
63 99 173
62 99 171
61 98 173
62 98 171
63 99 176
61 97 162
62 99 174
63 99 178
62 99 177
62 99 169
62 99 178
62 99 172
62 99 177
62 99 173
63 99 179
62 99 172
62 99 180
62 99 175
61 99 179
63 100 179
62 99 175
62 99 177
62 99 178
62 99 180
62 99 179
62 99 175
62 99 180
62 99 177
62 99 178
62 99 180
63 100 179
61 98 176
62 99 178
62 99 177
62 99 179
62 99 180
62 100 181
62 99 178
63 99 177
62 99 179
62 99 179
62 99 177
61 99 181
62 99 177
62 99 179
62 99 178
62 99 179
62 99 177
61 98 178
62 99 180
62 99 177
62 99 178
62 99 178
62 99 181
62 99 181
63 100 180
63 100 181
61 98 178
62 99 181
62 99 178
62 99 178
62 99 181
62 99 180
62 99 179
62 99 176
62 99 181
62 99 177
62 99 180
62 99 181
62 99 180
62 99 176
62 99 178
61 99 180
62 99 179
62 99 180
61 99 179
62 99 177
62 99 178
62 99 178
62 99 178
62 99 179
61 98 176
62 99 178
62 99 178
62 99 176
61 99 178
62 99 179
62 99 179
62 99 180
62 99 177
62 99 180
62 99 179
63 99 179
61 98 178
62 99 178
63 100 180
62 99 180
62 99 179
62 99 177
61 98 175
62 99 177
62 99 179
62 99 179
62 99 176
61 98 176
62 99 179
63 99 179
62 99 177
62 99 176
62 99 178
62 99 175
62 99 176
62 99 179
61 98 172
62 99 176
62 99 175
61 98 174
62 99 178
61 98 175
63 99 176
61 98 173
62 99 173
63 100 179
62 99 174
62 99 176
62 99 174
62 99 176
62 98 173
62 98 174
62 99 174
62 98 174
62 99 176
62 98 170
62 98 174
62 98 174
61 98 171
61 97 170
61 96 169
62 97 171
60 95 166
61 96 167
62 98 170
60 96 166
59 94 158
61 96 162
59 93 156
60 93 155
75 89 110
104 104 74
83 87 59
83 85 61
98 101 71
89 92 65
95 97 67
70 77 59
99 100 70
98 101 72
94 97 71
103 105 75
88 91 66
95 99 72
110 111 77
92 95 68
95 98 70
104 106 75
108 110 77
112 113 80
112 114 82
104 107 78
122 123 86
122 122 84
113 114 80
116 117 82
133 133 88
132 132 89
116 117 79
118 121 85
131 130 86
138 137 90
126 126 87
135 135 90
132 132 86
142 141 93
136 135 90
145 144 95
139 139 93
141 140 90
147 146 95
150 147 94
152 148 92
156 154 101
150 148 94
157 153 96
152 149 93
157 154 97
155 153 96
153 150 93
160 156 100
164 160 99
165 161 102
160 157 98
157 153 97
164 160 100
168 163 99
161 158 94
167 163 102
167 162 98
162 158 97
168 163 101
163 159 102
172 166 101
166 161 98
171 166 97
175 168 104
173 167 100
168 163 96
170 165 101
172 166 99
173 168 103
171 166 98
175 169 100
170 164 100
174 168 100
173 168 100
175 168 102
171 166 104
174 169 101
175 169 105
169 164 96
173 167 100
174 168 101
175 169 98
174 167 101
174 168 100
173 167 95
172 166 98
177 171 106
171 166 99
172 166 99
169 164 95
174 168 98
175 170 103
172 166 99
170 164 97
171 165 97
175 168 97
167 163 97
172 165 97
170 164 90
163 159 91
172 165 99
169 163 92
169 163 97
170 164 96
167 162 87
168 161 90
165 158 90
167 160 94
161 156 88
168 162 93
171 164 97
159 153 89
163 156 87
164 158 91
164 157 90
159 153 79
158 152 88
158 151 81
156 149 84
164 157 84
155 149 84
159 153 84
158 151 82
157 151 82
158 152 80
154 146 79
149 143 80
153 146 79
153 147 74
147 141 75
150 145 74
148 141 71
149 143 74
146 141 70
132 126 60
136 130 65
139 134 68
143 142 59
150 156 52
147 154 48
150 159 44
159 171 45
159 174 32
154 172 19
166 185 16
168 188 19
169 191 16
173 197 0
169 192 0
173 197 0
174 197 0
175 198 0
171 195 0
172 196 0
172 195 0
174 197 0
173 196 0
173 196 0
176 198 0
173 196 0
175 198 0
174 197 0
169 192 0
173 196 0
172 195 0
173 196 0
172 195 0
174 197 0
170 194 0
171 194 0
173 197 0
172 195 0
173 197 0
172 195 0
166 189 0
173 195 0
173 196 0
172 196 0
174 197 0
171 195 0
172 196 0
171 194 0
170 193 0
171 195 0
174 197 0
170 193 0
170 194 0
171 194 0
173 196 0
173 196 0
172 196 0
170 194 0
172 196 0
173 197 0
174 197 0
170 194 0
170 194 0
174 197 0
174 196 0
173 197 0
173 197 0
174 197 0
173 197 0
174 197 0
173 197 0
171 194 0
171 194 0
173 196 0
169 193 0
170 193 0
172 195 0
171 195 0
172 194 0
170 193 0
167 191 0
173 196 0
172 196 0
171 195 0
170 193 0
169 193 0
172 196 0
169 192 0
171 194 0
172 195 0
171 195 0
168 191 0
171 195 0
170 193 0
172 195 0
172 194 0
171 194 0
174 197 0
170 194 0
172 195 0
171 193 0
172 196 0
172 195 0
168 192 0
168 190 0
173 196 0
172 195 0
169 192 0
172 195 0
170 193 31
111 137 121
63 99 168
61 98 165
62 99 168
62 98 168
62 99 168
62 99 172
63 100 173
62 98 171
62 98 171
62 99 171
62 99 177
62 99 175
62 99 172
62 98 169
62 99 172
62 99 178
62 99 174
62 99 175
62 99 175
62 99 173
63 100 179
62 99 177
62 99 178
62 99 173
62 99 176
62 99 179
62 99 180
63 99 179
62 99 179
62 99 177
63 100 181
62 99 177
61 99 179
63 100 180
62 99 179
62 99 179
62 99 178
62 99 180
62 99 176
63 100 179
62 99 178
62 99 180
62 99 181
61 99 180
62 99 179
62 99 180
62 99 180
62 99 180
62 99 177
62 99 178
62 99 179
62 99 180
62 99 179
62 99 177
62 99 180
62 99 180
62 99 176
62 99 179
62 99 178
62 99 179
62 99 174
62 99 179
62 99 179
62 99 180
62 99 180
62 99 180
62 99 178
62 99 177
61 98 180
62 99 179
62 99 180
62 99 176
62 99 177
62 99 177
62 99 180
62 99 177
62 99 181
62 99 178
62 99 181
62 99 180
61 98 178
62 99 178
62 99 179
62 99 179
62 99 180
62 99 177
61 98 179
62 99 179
63 99 178
62 99 176
62 99 178
62 99 179
62 99 179
62 99 177
62 99 178
62 99 180
61 98 177
62 99 178
62 99 177
62 99 175
62 99 178
62 99 176
62 99 178
62 98 176
62 99 176
61 98 174
62 99 175
62 99 177
62 99 175
62 99 175
63 99 178
62 99 177
62 99 177
62 99 179
62 99 175
62 98 173
62 98 171
62 100 181
62 99 173
62 99 177
62 99 175
63 99 177
62 99 178
62 99 178
62 99 176
62 99 175
62 99 174
62 99 174
61 98 170
62 98 173
62 99 174
62 99 173
62 98 170
63 99 174
62 98 168
62 98 174
62 99 175
62 98 169
62 99 175
62 98 169
61 97 171
62 98 174
62 97 169
60 95 162
61 98 170
61 97 167
61 97 166
61 96 160
61 95 165
61 97 167
60 95 162
59 92 152
69 96 147
78 88 101
86 87 61
81 83 55
86 87 59
91 93 64
78 82 62
87 89 62
85 89 66
90 94 69
92 95 67
92 96 70
74 81 63
98 102 75
90 93 66
98 101 73
95 98 71
103 105 73
104 107 75
119 119 80
106 107 72
106 109 79
119 120 81
126 127 88
107 109 75
124 124 85
130 130 87
113 114 78
131 130 85
125 126 83
126 126 84
136 135 89
132 131 90
134 133 91
141 140 93
140 140 92
135 135 89
145 142 94
147 146 94
144 143 91
142 141 95
148 145 93
139 138 88
152 149 98
147 146 92
157 154 92
153 149 93
158 155 97
158 154 96
158 155 95
160 156 98
160 157 98
162 158 101
159 155 98
166 161 100
164 160 103
168 163 101
164 160 98
165 162 97
171 165 101
166 162 96
168 164 99
173 167 104
170 166 106
168 163 96
167 163 101
166 162 99
170 165 101
173 167 101
173 168 99
169 164 98
172 166 103
170 165 102
170 165 99
176 170 106
169 164 93
173 167 105
174 168 102
172 167 99
177 169 103
172 167 100
174 168 101
173 167 99
177 170 103
172 166 100
173 167 103
173 166 100
172 167 100
171 165 96
177 170 101
176 169 100
176 169 100
170 164 96
171 164 93
174 168 101
171 165 95
172 166 98
165 160 93
169 163 95
173 167 99
167 161 94
170 165 95
166 160 95
173 166 93
171 164 99
167 161 90
169 163 95
174 167 99
167 161 95
162 156 90
166 160 89
165 159 93
165 159 94
160 156 88
158 153 80
163 157 84
161 155 84
162 155 88
162 156 87
162 156 85
165 159 87
163 157 89
162 156 89
160 154 81
154 148 78
159 153 82
153 147 82
150 144 80
150 144 78
149 142 75
151 145 76
151 145 75
153 147 75
152 146 75
148 142 69
147 140 74
144 139 71
146 139 70
141 136 64
149 147 63
148 145 64
143 147 48
141 148 47
151 158 45
147 158 41
157 174 32
159 175 30
164 183 22
168 190 0
168 190 11
174 197 0
175 198 0
173 196 0
172 195 0
174 198 0
170 193 0
173 196 0
173 196 0
171 195 0
171 194 0
173 197 0
172 195 0
173 196 0
172 195 0
172 196 0
172 195 0
171 195 0
172 195 0
173 197 0
173 196 0
172 196 0
171 194 0
174 197 0
169 193 0
166 190 0
170 194 0
170 193 0
172 196 0
173 196 0
172 194 0
173 196 0
171 194 0
173 196 0
170 194 0
174 197 0
173 196 0
173 196 0
172 196 0
172 196 0
172 196 0
173 196 0
171 194 0
173 196 0
171 194 0
172 196 0
172 196 0
173 197 0
174 197 0
171 194 0
171 195 0
172 196 0
172 195 0
171 195 0
174 197 0
170 194 0
174 197 0
170 193 0
171 194 0
172 195 0
172 195 0
174 197 0
173 196 0
170 193 0
168 192 0
173 197 0
170 192 0
172 194 0
171 195 0
170 193 0
171 194 0
175 198 0
170 193 0
172 195 0
168 190 0
173 196 0
172 195 0
172 195 0
173 196 0
175 198 0
173 196 0
173 196 0
171 195 0
173 196 0
170 193 0
171 196 0
173 197 0
171 195 0
172 195 0
173 196 0
170 193 0
172 195 0
174 197 0
167 190 0
171 195 0
172 194 0
172 196 0
157 181 76
63 100 169
62 99 169
62 99 168
62 98 169
62 99 170
61 98 166
62 98 170
62 99 175
62 99 173
62 98 171
62 99 169
62 99 170
62 99 175
62 99 173
62 98 170
62 99 178
62 99 179
63 100 178
62 99 175
62 99 177
63 99 176
62 99 175
62 99 178
63 99 177
61 98 176
62 99 177
62 99 177
62 99 177
62 99 177
62 99 176
62 99 180
62 99 176
62 99 178
62 99 178
62 99 179
62 99 179
62 99 181
62 99 176
62 99 179
61 98 178
62 99 181
62 99 180
62 99 177
62 99 177
62 99 177
62 99 179
62 99 181
62 99 179
62 99 178
62 99 178
62 99 180
62 99 179
62 99 175
62 99 178
62 99 180
62 99 177
62 99 178
62 99 179
63 99 178
62 99 179
62 99 180
62 99 180
62 99 180
62 99 179
62 99 180
62 99 181
62 99 179
62 99 180
62 99 178
62 99 181
62 99 180
62 99 178
62 99 180
62 99 176
62 99 177
62 99 179
63 100 180
62 99 177
63 100 180
62 99 176
63 100 180
62 99 179
62 99 177
62 99 180
62 99 180
62 99 176
62 99 180
63 99 178
62 99 177
62 99 178
62 99 176
62 99 180
61 99 181
61 98 177
62 99 177
62 99 180
63 100 177
62 99 179
62 99 178
62 99 176
62 99 176
62 99 179
62 99 181
62 99 180
62 99 178
62 99 176
62 99 177
62 99 174
62 99 180
62 99 181
62 99 178
63 100 177
62 99 178
62 99 178
62 99 179
62 99 175
62 99 172
62 99 177
63 100 178
63 99 178
61 98 176
62 99 178
62 99 174
62 99 176
62 99 175
62 98 172
62 99 179
62 98 174
62 98 174
62 99 175
62 98 171
62 98 172
62 98 176
62 98 168
62 98 171
61 98 172
61 97 170
62 98 173
62 98 173
61 98 171
62 99 174
63 100 176
61 97 166
62 98 172
62 98 172
61 97 171
61 96 166
61 96 166
61 97 167
62 97 168
61 96 170
59 94 164
59 94 162
59 92 154
64 85 120
74 82 84
79 82 59
89 91 62
75 79 56
80 84 60
84 87 60
85 87 65
85 88 63
80 85 64
98 101 71
78 83 62
94 97 70
92 96 71
99 102 70
96 101 70
109 111 77
95 99 70
108 111 79
103 105 74
100 103 72
105 108 78
116 117 79
122 123 83
120 120 81
109 110 75
121 121 82
132 131 84
131 131 85
120 121 82
137 135 88
130 129 86
144 142 95
142 140 92
145 143 93
133 133 88
145 143 92
146 144 93
145 143 92
142 140 91
135 136 84
154 152 97
144 143 88
152 150 96
150 148 95
157 154 96
159 155 98
157 154 97
154 150 95
158 154 96
161 157 96
163 159 100
161 157 97
159 156 95
164 160 96
165 161 98
159 156 97
166 162 98
164 160 97
172 166 101
160 156 95
164 159 95
163 159 94
169 164 98
167 162 98
165 161 103
168 163 98
174 167 101
172 166 99
170 164 97
169 165 103
173 168 102
174 168 101
173 167 99
172 167 96
170 165 100
173 167 98
174 167 97
173 167 96
174 168 100
174 168 102
175 169 102
178 171 103
168 162 93
172 166 101
176 170 102
173 167 97
173 168 98
174 168 101
173 167 95
171 165 97
175 168 100
170 165 98
170 164 92
169 163 95
172 165 96
171 165 95
173 166 97
168 163 91
172 165 101
172 166 98
167 161 93
166 160 94
168 162 88
168 162 89
163 158 92
164 159 89
162 156 88
166 159 90
160 156 90
161 156 86
161 155 89
167 160 94
169 163 94
158 153 84
163 157 87
162 156 87
161 154 87
156 150 81
156 150 80
165 159 90
160 153 85
158 152 81
160 153 82
164 157 84
153 147 79
139 133 75
148 142 73
150 144 75
144 138 76
159 152 82
147 141 71
142 136 71
146 140 68
150 143 75
142 135 70
150 144 69
125 121 61
141 138 57
146 149 57
146 150 51
154 157 60
151 161 44
156 169 32
162 175 28
159 177 28
169 187 28
167 187 16
172 194 11
171 195 0
173 197 0
171 195 0
171 195 0
173 196 0
174 197 0
172 195 0
172 195 0
171 195 0
173 196 0
174 197 0
172 196 0
176 198 0
173 196 0
175 198 0
170 193 0
172 195 0
173 196 0
170 194 0
173 197 0
173 196 0
170 194 0
172 194 0
173 196 0
173 196 0
171 195 0
173 197 0
172 196 0
174 197 0
173 197 0
173 197 0
168 191 0
172 196 0
174 197 0
170 194 0
172 195 0
172 196 0
171 194 0
176 198 0
173 196 0
174 198 0
173 197 0
172 196 0
173 196 0
173 196 0
171 195 0
171 195 0
171 194 0
175 197 0
172 195 0
172 195 0
170 193 0
174 196 0
169 193 0
174 196 0
175 198 0
172 194 0
169 193 0
172 196 0
169 193 0
174 197 0
174 197 0
170 193 0
171 195 0
174 197 0
172 195 0
171 195 0
173 196 0
171 195 0
171 195 0
171 194 0
172 195 0
175 197 0
173 197 0
171 194 0
171 193 0
173 196 0
173 197 0
174 197 0
169 192 0
170 193 0
173 197 0
172 195 0
173 196 0
173 197 0
169 191 0
172 196 0
169 192 0
173 195 0
172 194 0
174 196 0
171 193 0
172 195 0
171 194 0
170 194 0
170 193 36
104 132 148
62 99 172
62 99 172
62 98 167
62 98 170
61 97 161
62 99 170
63 99 174
62 99 172
61 98 170
63 99 173
63 100 173
62 99 174
62 99 176
62 98 174
62 99 172
62 99 173
62 99 178
62 99 176
62 98 169
62 99 172
63 99 176
62 99 178
62 99 177
62 99 174
62 99 179
62 99 175
62 99 172
63 100 180
62 99 177
62 99 176
62 99 174
62 99 177
62 99 178
62 99 177
63 99 177
62 99 180
62 99 179
62 99 180
62 99 177
62 99 178
62 99 180
62 99 178
62 99 178
62 99 181
63 100 180
62 99 179
62 99 178
62 99 179
62 99 177
62 99 180
61 98 179
62 98 177
62 99 179
62 99 178
63 100 180
62 99 179
62 99 178
62 99 178
62 99 176
61 98 178
62 99 176
62 99 178
62 99 180
62 99 177
61 99 178
62 99 181
62 99 178
62 99 179
63 100 181
62 99 177
62 99 178
63 100 178
62 99 180
61 99 179
62 99 180
62 99 176
62 99 178
62 99 178
62 99 179
62 99 179
62 99 177
62 99 179
62 99 176
61 98 179
62 99 177
61 98 177
62 99 180
61 98 180
62 99 180
62 99 179
61 99 178
62 99 179
62 99 180
62 99 176
62 99 175
62 99 176
62 99 175
62 99 178
62 99 177
62 99 178
62 99 176
61 99 176
62 99 176
62 99 175
62 99 178
62 99 178
62 99 176
61 98 173
63 100 180
62 99 174
62 99 175
62 99 176
62 99 175
62 99 177
63 99 178
62 99 179
62 99 176
62 99 175
61 98 175
61 98 173
62 99 178
62 99 179
62 99 174
62 99 177
63 99 177
61 98 175
62 98 173
62 99 175
61 98 172
62 98 169
63 99 172
62 98 169
62 98 169
62 99 179
62 98 171
62 99 175
62 98 169
62 99 174
62 99 173
61 97 164
61 98 172
61 97 170
62 99 171
62 98 172
61 97 163
61 97 166
62 98 170
61 97 169
62 98 171
61 95 160
60 95 165
61 96 169
61 96 160
61 96 167
64 94 150
76 90 113
80 83 67
65 70 50
87 89 62
97 98 69
82 86 62
86 89 65
91 94 67
83 87 64
88 91 67
92 95 66
95 98 71
99 102 72
86 90 66
96 99 73
91 93 67
90 94 68
108 111 78
103 106 74
99 102 72
112 114 79
116 118 82
105 107 73
104 107 77
122 122 82
123 123 82
121 121 82
127 127 81
121 122 81
126 125 82
132 131 86
122 122 84
134 133 87
145 143 95
138 136 83
133 133 87
147 145 94
140 139 89
144 142 93
140 140 89
148 146 93
153 150 94
152 149 90
148 146 93
150 148 90
155 152 95
157 154 96
159 156 99
159 155 94
155 152 92
163 158 94
163 159 102
165 160 98
159 156 95
163 159 96
162 158 98
164 160 99
169 164 101
165 160 100
167 162 94
164 160 99
165 160 96
170 166 100
166 162 96
177 171 105
172 166 97
169 163 98
174 168 99
169 164 100
170 166 97
173 167 100
175 169 99
175 169 100
172 167 100
177 170 100
175 169 103
174 168 100
173 167 97
171 166 96
176 170 103
173 166 99
172 166 97
168 163 94
171 166 100
169 163 95
176 168 102
172 165 94
176 169 99
172 165 95
172 165 99
171 164 93
171 165 95
175 168 99
175 169 100
171 164 97
169 163 95
167 161 97
170 163 92
167 161 93
166 160 93
172 166 96
162 157 90
169 163 95
171 163 95
166 159 89
168 162 92
166 161 92
168 161 88
165 159 88
167 161 90
167 160 92
161 154 87
160 154 85
158 152 85
163 157 87
161 154 84
163 157 90
157 151 77
155 148 80
160 152 87
159 152 84
157 151 81
155 150 83
159 154 86
157 150 80
155 148 84
159 153 81
148 142 78
150 145 76
152 146 73
156 149 80
147 142 71
149 144 77
142 137 67
141 137 62
133 128 64
132 127 53
141 137 58
140 138 61
140 142 52
147 155 45
155 164 41
158 170 37
159 174 36
165 182 30
172 191 22
169 189 19
171 192 0
173 196 0
172 196 0
172 195 0
168 192 0
169 192 0
174 198 0
174 198 0
174 196 0
172 196 0
176 198 0
175 198 0
172 196 0
172 195 0
172 196 0
171 194 0
175 198 0
174 197 0
172 195 0
172 196 0
171 194 0
175 198 0
173 196 0
173 196 0
173 196 0
171 194 0
171 194 0
172 194 0
172 196 0
173 197 0
172 196 0
170 193 0
175 198 0
169 192 0
172 195 0
172 195 0
173 197 0
174 197 0
170 192 0
171 194 0
173 195 0
173 196 0
173 196 0
168 191 0
171 195 0
173 196 0
172 195 0
173 196 0
174 198 0
172 195 0
173 197 0
173 196 0
169 193 0
172 195 0
173 196 0
170 194 0
174 197 0
174 197 0
171 194 0
172 196 0
169 193 0
170 194 0
172 195 0
172 196 0
172 196 0
168 192 0
171 194 0
170 193 0
172 195 0
174 197 0
169 192 0
174 197 0
172 196 0
173 197 0
171 194 0
171 195 0
168 192 0
171 195 0
172 195 0
173 196 0
171 193 0
170 194 0
173 196 0
172 195 0
170 193 0
169 193 0
171 194 0
172 195 0
171 194 0
172 194 0
170 194 0
174 196 0
173 197 0
169 192 0
170 194 0
171 195 0
146 170 82
62 99 171
62 98 165
62 99 167
62 99 167
62 98 163
62 99 165
62 98 165
62 99 170
62 99 173
62 99 172
63 99 175
63 99 177
62 99 171
62 99 174
62 99 173
62 99 171
62 99 176
61 98 174
63 99 178
62 99 175
62 99 176
62 99 178
63 99 178
62 99 179
62 99 175
62 99 175
62 99 178
62 99 177
62 99 175
62 99 174
62 99 178
62 99 179
62 99 178
62 99 178
62 99 180
63 100 179
62 99 178
62 99 180
62 99 178
62 99 179
62 99 177
62 99 179
62 99 180
62 99 174
61 98 175
62 99 180
62 99 178
62 99 177
62 99 180
61 98 177
62 99 179
62 99 180
62 99 180
61 98 176
62 99 179
62 99 180
61 98 176
62 99 181
62 99 179
62 99 180
62 99 179
62 99 178
62 99 177
62 99 178
62 99 178
62 99 174
62 99 179
62 99 180
62 99 178
63 100 181
63 100 181
62 99 180
62 99 179
62 99 180
61 99 180
62 99 179
62 99 180
62 99 178
62 99 178
62 99 180
62 99 178
62 99 179
62 99 181
62 99 175
62 99 178
62 99 177
61 98 176
63 99 178
62 99 179
62 99 179
63 99 179
62 99 180
62 99 179
62 99 176
63 99 177
62 99 181
62 99 176
62 99 180
62 99 180
62 99 180
62 99 177
62 99 176
63 100 178
62 99 179
62 99 175
61 98 175
62 98 174
62 98 174
62 99 178
62 98 176
62 99 179
63 99 175
63 99 179
62 99 176
63 99 175
62 99 174
62 99 177
62 98 172
62 99 176
62 99 176
62 99 174
62 99 177
62 99 178
62 99 174
62 99 178
62 99 175
62 99 174
62 98 174
63 99 176
63 100 177
62 99 177
61 97 172
61 98 171
62 98 171
62 99 175
62 98 173
61 98 174
62 99 176
62 99 172
62 99 175
61 97 170
62 98 173
61 96 164
62 98 170
61 96 165
61 97 169
61 97 167
62 97 167
62 98 166
61 96 166
60 95 161
61 97 170
60 95 162
60 95 159
61 95 159
61 95 158
73 93 127
75 81 75
84 85 59
76 80 57
68 72 55
86 88 61
69 74 53
80 82 57
77 81 59
81 85 63
88 92 69
99 100 68
100 102 72
80 85 65
89 93 65
97 101 73
98 101 73
98 101 73
104 106 71
101 104 74
106 109 77
108 110 77
129 128 82
115 116 80
118 120 83
118 120 80
113 115 79
117 118 76
122 122 81
133 132 86
133 133 87
134 133 86
127 127 85
137 136 85
137 136 88
145 143 93
142 141 90
142 140 90
149 146 93
141 139 88
142 141 89
146 143 89
147 145 89
150 148 93
142 140 86
144 142 85
159 155 96
153 150 93
161 157 98
155 152 97
160 157 97
158 154 91
156 153 90
163 158 93
164 159 99
159 156 94
166 162 99
166 162 97
160 156 94
160 156 97
170 164 100
165 160 93
171 165 96
163 159 95
167 162 99
168 163 98
171 166 98
169 164 97
170 165 99
176 169 102
171 165 96
167 161 90
171 165 93
174 167 99
168 164 96
174 168 101
171 165 96
170 165 93
176 170 102
168 163 93
170 165 96
176 170 102
175 169 101
171 165 99
173 166 96
173 167 99
174 168 98
173 166 97
175 169 100
174 167 99
174 167 100
175 168 101
170 164 94
169 164 91
170 163 95
176 169 102
173 166 95
171 165 95
164 158 88
172 165 99
173 166 95
168 162 87
169 163 90
170 164 90
161 155 88
166 161 95
170 163 95
170 164 96
165 160 89
168 162 89
164 158 87
158 152 81
163 157 89
159 152 82
165 159 89
158 153 84
159 153 81
160 155 88
162 155 88
158 152 80
161 155 84
155 149 83
159 152 84
159 153 87
156 149 84
160 152 82
153 146 78
154 147 84
147 142 73
153 147 71
146 139 69
145 140 71
148 142 75
149 142 73
151 143 75
141 135 61
134 130 59
141 140 60
146 145 62
150 159 48
149 156 51
160 174 42
156 169 37
161 178 25
166 183 30
166 186 16
170 189 16
171 193 0
171 195 0
173 195 0
173 196 0
171 195 0
172 196 0
171 195 0
174 196 0
176 198 0
174 198 0
173 196 0
171 194 0
172 195 0
173 195 0
170 195 0
173 197 0
173 197 0
171 194 0
175 198 0
172 195 0
171 195 0
173 196 0
173 196 0
173 196 0
174 198 0
173 197 0
173 195 0
171 195 0
174 197 0
172 195 0
171 194 0
173 196 0
173 196 0
173 197 0
173 196 0
172 195 0
171 195 0
171 195 0
172 195 0
172 195 0
172 196 0
172 196 0
173 196 0
172 194 0
172 196 0
173 196 0
169 192 0
169 193 0
172 195 0
173 196 0
173 197 0
172 195 0
173 196 0
170 193 0
172 196 0
173 196 0
171 194 0
170 194 0
172 196 0
172 194 0
171 195 0
172 195 0
168 191 0
169 192 0
173 196 0
171 194 0
170 194 0
173 196 0
172 194 0
172 195 0
173 196 0
172 196 0
173 196 0
174 197 0
173 196 0
171 195 0
173 196 0
171 195 0
173 196 0
172 195 0
172 195 0
169 192 0
170 194 0
170 193 0
171 193 0
172 195 0
172 195 0
170 194 0
170 193 0
171 194 0
170 193 0
171 194 0
173 196 0
166 189 0
174 197 0
168 192 31
92 121 143
62 98 167
62 99 172
62 98 166
61 98 169
62 99 170
62 99 170
63 99 175
61 98 172
62 99 169
61 98 173
62 99 170
61 98 173
62 99 170
63 99 172
63 99 176
62 99 172
62 99 172
62 99 177
61 98 173
62 99 177
63 99 177
63 99 176
62 99 174
62 99 175
62 99 177
62 99 177
62 99 178
62 99 176
62 99 176
62 98 175
62 98 174
62 99 175
62 99 173
62 99 179
62 99 178
62 99 179
63 99 179
62 99 180
62 99 180
62 99 177
63 99 178
62 98 178
62 99 178
62 99 178
62 99 179
62 99 176
63 99 179
62 99 179
62 99 178
62 99 177
62 99 178
62 99 180
62 99 177
62 99 179
62 99 178
62 99 180
62 99 180
62 99 179
62 99 178
62 99 180
62 99 178
62 99 178
61 99 177
61 99 178
62 99 180
62 99 180
62 99 179
62 99 178
61 99 178
62 99 177
62 99 180
62 99 178
62 99 180
62 99 180
62 99 179
61 98 180
62 99 179
62 99 176
62 99 181
62 99 181
62 99 177
62 99 177
62 99 176
62 99 177
62 99 180
62 99 178
61 98 175
62 99 178
62 99 177
62 99 178
62 99 176
62 99 175
62 99 179
63 99 175
62 99 173
62 99 179
62 99 178
62 99 176
62 99 175
62 99 177
62 98 173
62 99 176
62 99 178
62 99 180
62 99 179
63 99 178
63 99 176
62 99 179
62 99 176
62 99 176
62 99 172
62 99 180
63 99 176
62 99 181
62 99 177
62 99 178
62 99 178
62 99 175
63 99 177
62 99 175
62 99 178
61 98 175
62 98 171
62 99 175
63 99 173
62 99 176
62 99 176
62 99 174
62 98 170
62 98 171
62 99 177
62 99 173
62 98 174
61 97 168
62 98 171
61 98 169
62 99 174
62 98 171
62 98 167
61 98 168
62 98 172
61 98 173
62 98 167
62 98 170
61 97 170
61 97 165
61 98 170
62 98 170
61 98 171
61 97 168
61 96 160
61 97 167
62 97 170
61 96 161
60 94 155
60 95 163
63 93 153
84 97 113
85 90 69
89 90 62
72 76 53
71 76 58
74 79 59
79 84 63
74 79 57
92 95 69
84 88 63
87 91 69
86 91 66
99 101 69
100 103 72
89 92 61
93 96 67
93 97 71
105 108 75
96 99 67
105 109 77
111 113 79
105 108 75
111 113 74
117 118 79
112 115 79
124 124 81
114 116 75
117 118 79
124 123 81
126 126 80
133 133 92
133 133 87
130 130 87
139 138 88
146 144 91
144 141 88
146 142 89
135 135 86
139 136 84
150 148 92
141 140 88
145 143 89
145 143 91
149 145 93
155 152 95
152 149 92
154 151 92
155 152 95
159 155 98
155 153 95
150 147 88
162 157 95
158 154 92
163 159 96
163 159 99
161 157 96
165 160 96
157 154 94
164 160 93
162 157 91
168 163 99
168 163 98
170 164 102
169 164 94
171 165 100
172 166 101
173 166 97
176 169 101
170 165 97
173 168 101
172 166 100
169 164 94
176 169 103
172 167 97
171 165 97
172 167 102
169 164 90
175 169 99
169 164 91
176 169 99
169 163 90
174 167 99
174 168 101
175 168 99
176 169 104
175 168 99
173 167 97
167 162 94
176 170 101
170 164 94
172 167 97
174 168 95
169 163 92
171 164 94
170 165 92
170 163 93
172 164 97
171 165 97
168 161 87
170 164 91
172 165 94
171 163 95
170 164 91
166 161 87
168 162 92
170 164 96
159 155 83
175 168 98
164 158 88
164 159 90
169 162 97
163 156 87
163 156 87
163 156 88
168 161 87
161 154 83
159 153 77
162 156 87
162 155 89
157 151 77
161 156 86
147 141 80
153 146 79
158 151 77
160 154 81
151 145 73
136 131 60
147 141 67
148 142 69
153 146 73
143 136 72
145 140 68
147 141 74
150 144 70
136 131 62
144 140 63
141 139 60
136 139 42
152 155 53
148 160 41
147 159 39
160 175 34
155 169 30
165 183 22
168 189 0
171 192 16
171 193 0
174 197 0
174 197 0
172 195 0
169 192 0
174 198 0
173 196 0
173 197 0
172 195 0
173 196 0
172 195 0
174 197 0
175 197 0
173 196 0
176 199 0
172 195 0
172 195 0
171 194 0
172 194 0
172 196 0
171 194 0
173 196 0
172 196 0
172 196 0
174 197 0
169 193 0
173 197 0
173 197 0
171 195 0
173 196 0
172 196 0
174 197 0
167 191 0
172 196 0
172 194 0
170 193 0
171 194 0
172 195 0
172 196 0
171 195 0
171 194 0
172 195 0
172 196 0
173 196 0
174 197 0
173 196 0
175 197 0
175 198 0
171 194 0
171 194 0
171 195 0
171 195 0
171 194 0
173 197 0
175 198 0
174 198 0
173 196 0
172 195 0
171 195 0
172 196 0
172 194 0
172 195 0
170 194 0
173 196 0
172 195 0
171 195 0
171 194 0
170 193 0
169 192 0
170 193 0
173 196 0
173 195 0
169 192 0
169 192 0
171 194 0
168 192 0
170 193 0
168 190 0
172 195 0
172 195 0
172 194 0
172 196 0
172 195 0
169 193 0
173 196 0
170 193 0
173 196 0
172 194 0
172 196 0
163 186 0
171 195 0
171 194 0
172 195 0
171 194 0
170 192 0
143 168 84
64 100 165
62 99 171
62 99 171
62 99 174
62 99 173
61 98 166
62 98 168
62 98 169
62 99 167
62 99 171
63 99 178
62 99 175
62 99 175
62 99 173
62 99 175
63 99 171
62 99 174
61 97 168
62 98 172
62 98 172
62 99 177
62 99 178
62 99 176
63 100 179
63 99 178
61 98 174
63 99 178
62 99 173
62 99 179
62 99 177
63 99 176
62 99 177
61 98 176
62 99 175
62 99 177
62 99 176
63 99 178
63 99 177
62 99 179
63 99 177
62 99 177
62 99 179
62 99 180
62 99 179
62 99 178
62 99 176
62 99 180
62 99 178
62 99 175
62 99 179
63 100 179
62 99 177
62 99 176
61 98 174
62 99 179
62 99 178
62 99 179
61 99 177
62 99 180
62 99 180
62 99 179
62 99 178
62 99 175
62 99 178
62 99 177
62 99 177
62 99 178
62 99 179
62 99 177
61 98 174
62 99 178
62 99 178
62 99 180
62 99 179
62 99 177
63 100 181
62 99 179
62 99 178
62 99 177
63 100 179
62 99 178
62 99 180
62 99 180
62 99 179
62 99 176
62 99 178
62 99 179
62 99 176
62 99 179
61 98 177
62 99 177
62 99 179
62 99 176
62 99 176
62 99 177
63 99 178
62 99 175
61 98 175
62 99 177
62 99 178
62 99 176
61 98 173
62 99 177
63 99 176
62 99 177
62 99 178
62 99 175
62 99 173
61 98 168
63 100 177
62 99 178
62 99 179
62 99 178
62 98 173
62 98 173
62 99 173
62 99 174
62 99 175
62 99 175
62 98 172
62 98 172
62 99 175
62 98 169
62 98 173
62 99 176
62 99 177
62 99 177
62 99 176
61 98 175
62 98 172
62 99 178
62 99 177
62 99 174
61 98 166
62 99 175
62 98 170
62 99 175
63 99 176
62 98 175
62 98 167
62 99 177
62 98 170
61 98 172
62 98 168
62 98 166
62 98 168
62 98 169
62 98 173
62 98 172
60 96 164
60 96 168
60 96 165
61 97 166
62 98 172
61 97 168
61 96 166
61 96 161
60 94 158
62 88 132
81 88 84
87 90 62
75 78 56
92 93 63
66 70 50
81 84 62
75 80 60
81 86 65
72 77 59
99 100 67
92 95 69
86 90 65
78 82 58
97 100 69
94 98 71
105 107 74
102 103 72
107 109 77
100 103 75
107 109 76
103 104 71
109 112 77
111 114 77
117 118 79
119 119 80
128 127 82
108 110 73
124 124 84
138 137 89
126 127 83
130 129 86
138 137 89
143 141 88
138 136 89
135 135 84
140 139 92
145 144 93
142 140 87
142 140 90
151 148 94
152 149 94
139 138 89
149 146 89
153 150 96
147 145 93
152 149 88
156 152 88
157 154 95
159 155 99
165 160 94
157 154 91
163 159 96
159 155 92
161 157 94
165 160 98
160 156 96
162 158 97
163 158 95
169 164 98
164 159 92
167 162 102
167 163 95
167 162 96
171 165 96
171 165 96
169 163 94
173 166 97
172 167 98
168 162 93
166 162 96
172 166 98
168 163 94
173 167 99
174 168 97
176 168 101
173 167 98
170 164 97
169 164 96
170 164 93
173 166 91
172 166 94
168 163 93
172 166 97
171 166 94
173 167 93
168 163 91
169 164 93
173 166 95
171 165 91
171 165 94
173 165 96
169 163 90
172 166 96
171 165 93
164 158 88
174 167 96
171 164 91
169 163 93
168 161 90
169 162 93
172 165 93
168 162 92
172 166 91
163 157 89
163 158 87
166 160 90
160 154 87
167 161 91
163 157 90
165 159 91
168 161 90
165 157 88
163 156 87
156 150 81
161 154 85
163 156 84
163 158 84
160 155 79
152 146 77
151 145 76
162 155 87
160 153 83
158 150 84
146 140 70
152 145 78
140 135 67
152 145 76
158 152 77
142 136 71
142 136 66
139 134 63
149 144 74
147 141 71
134 129 57
136 132 56
150 152 60
152 151 63
147 151 51
143 153 28
157 171 32
156 170 34
162 179 25
161 180 16
167 187 19
171 193 11
173 195 0
173 196 0
171 194 0
171 195 0
174 196 0
174 198 0
172 196 0
174 198 0
170 194 0
172 196 0
172 195 0
174 197 0
168 192 0
173 197 0
175 197 0
171 194 0
173 196 0
171 194 0
173 196 0
173 196 0
174 197 0
172 195 0
172 195 0
170 194 0
174 197 0
173 196 0
169 193 0
172 195 0
174 198 0
170 194 0
175 197 0
173 196 0
172 194 0
170 193 0
169 193 0
173 197 0
170 194 0
172 195 0
173 197 0
176 198 0
172 195 0
173 196 0
171 194 0
170 193 0
169 193 0
171 194 0
172 196 0
171 194 0
171 195 0
170 193 0
174 197 0
172 196 0
171 194 0
172 196 0
171 195 0
171 195 0
172 195 0
172 195 0
170 194 0
174 197 0
173 196 0
173 196 0
168 191 0
168 192 0
170 194 0
169 193 0
171 193 0
173 196 0
172 195 0
171 194 0
170 193 0
171 195 0
169 193 0
169 192 0
169 192 0
172 196 0
171 193 0
169 194 0
171 195 0
169 191 0
171 194 0
169 193 0
170 193 0
171 195 0
168 192 0
172 194 0
172 195 0
173 196 0
169 191 0
173 197 0
171 193 0
170 194 0
167 191 0
170 194 0
167 190 31
90 119 145
62 98 165
62 99 168
61 98 165
62 99 169
62 99 168
62 99 171
62 98 170
62 98 172
63 99 175
63 100 174
61 98 172
62 98 166
62 99 178
62 99 178
62 99 172
61 98 173
62 99 174
62 99 177
62 99 179
62 99 176
62 99 175
62 99 175
63 100 177
62 99 179
62 99 177
62 99 176
62 99 173
63 100 178
62 99 176
62 99 178
63 99 177
62 98 172
61 98 174
62 99 178
62 99 178
63 99 176
62 99 177
62 99 178
62 99 178
62 99 179
62 99 178
62 99 177
62 99 176
62 99 179
62 99 178
62 99 176
62 99 179
62 99 175
62 99 178
62 99 176
62 98 175
62 99 175
63 100 180
62 99 179
61 98 177
62 99 180
62 99 175
61 98 178
63 100 178
63 100 181
62 99 179
62 99 176
62 99 179
62 99 179
62 99 176
61 98 175
62 99 179
62 99 181
62 99 180
62 99 180
62 99 175
62 99 178
62 99 179
62 99 174
62 99 177
62 99 177
61 98 176
62 99 177
62 99 179
62 99 177
62 99 178
63 100 178
62 99 177
63 100 180
62 99 175
62 99 177
62 99 178
61 98 175
62 99 179
61 98 175
62 99 179
61 98 171
62 99 178
62 99 179
62 99 175
62 99 178
62 99 174
63 100 177
62 99 174
61 99 180
62 99 177
62 99 177
62 99 177
63 100 179
62 99 177
62 99 178
62 99 176
62 99 174
62 99 176
62 99 179
62 99 174
62 99 175
63 99 176
62 99 176
62 99 176
63 100 177
63 99 177
61 98 176
61 98 170
63 99 178
62 99 179
62 99 173
62 99 172
62 98 167
62 99 171
62 99 175
63 99 174
62 99 175
61 98 173
61 98 170
62 99 177
62 99 176
63 99 174
62 98 171
63 99 173
62 98 174
63 99 172
62 98 172
62 98 174
62 99 175
62 99 173
62 98 171
62 98 168
62 98 168
62 98 168
61 97 166
62 98 171
62 98 167
62 98 170
61 97 163
60 95 158
62 98 170
60 95 160
59 93 154
60 94 160
61 95 164
59 93 153
59 91 154
57 89 147
74 88 109
73 77 59
74 78 54
58 63 46
70 74 53
74 76 54
78 80 55
91 93 62
78 82 59
75 80 58
78 82 58
83 86 60
84 87 60
81 86 64
93 98 69
93 97 69
101 104 72
89 93 64
103 105 71
119 119 81
101 104 74
114 116 77
123 122 79
118 120 78
118 118 73
122 123 80
124 125 83
111 113 75
131 130 86
133 133 82
129 128 83
137 136 88
132 131 81
143 140 87
134 132 83
130 129 82
134 133 86
149 146 91
142 141 89
146 143 87
150 147 86
155 152 90
161 156 98
154 150 94
161 157 96
151 148 90
152 149 94
155 151 93
159 155 93
152 149 90
155 151 93
164 159 95
160 156 93
160 156 90
162 158 95
159 154 91
171 166 103
163 158 98
164 159 91
172 165 101
168 163 98
168 163 96
169 163 96
172 165 100
168 163 98
169 164 94
173 167 99
172 166 96
168 162 95
170 164 96
174 168 100
167 161 95
173 166 96
171 165 96
167 162 90
174 168 102
171 165 97
169 164 89
173 166 95
170 165 97
170 165 97
174 167 96
169 163 94
175 168 98
170 163 93
168 161 94
175 167 96
169 164 97
171 165 95
166 161 87
170 164 93
169 162 91
165 160 90
168 162 95
171 165 93
170 163 93
167 160 90
168 161 92
165 159 92
172 164 94
165 159 83
167 161 89
166 160 88
162 156 85
163 157 93
164 158 85
168 161 87
165 158 88
165 159 85
160 154 84
166 159 92
153 147 78
158 152 83
169 163 93
158 153 80
162 156 86
163 157 84
161 155 81
164 157 84
146 140 68
161 155 84
157 151 80
149 143 72
153 147 75
155 149 77
144 137 71
149 142 74
140 136 63
140 135 66
146 141 70
143 137 69
145 140 63
138 133 68
142 136 64
143 138 65
141 141 45
149 150 58
143 148 47
155 162 52
148 160 42
163 176 32
162 179 32
164 184 22
169 189 16
171 192 11
174 196 0
173 197 0
174 197 0
171 195 0
174 197 0
173 196 0
173 196 0
171 194 0
173 197 0
172 196 0
172 195 0
173 196 0
172 196 0
172 196 0
171 194 0
170 193 0
171 194 0
172 196 0
175 198 0
171 194 0
172 196 0
173 196 0
172 195 0
169 192 0
172 196 0
172 196 0
171 195 0
174 197 0
174 197 0
171 195 0
173 196 0
171 194 0
171 194 0
172 195 0
172 195 0
174 197 0
172 196 0
173 196 0
173 197 0
170 193 0
173 196 0
174 198 0
171 194 0
174 197 0
174 197 0
173 197 0
172 196 0
174 196 0
171 195 0
173 197 0
172 195 0
174 197 0
173 196 0
173 196 0
172 195 0
173 195 0
168 192 0
169 193 0
172 196 0
174 197 0
171 195 0
171 194 0
172 195 0
171 195 0
170 193 0
173 195 0
170 193 0
171 195 0
172 196 0
172 195 0
172 196 0
173 196 0
170 194 0
168 193 0
173 196 0
168 191 0
169 192 0
167 192 0
170 193 0
174 197 0
170 193 0
172 194 0
170 193 0
168 192 0
174 198 0
168 191 0
168 191 0
170 194 0
170 193 0
169 192 0
170 193 0
168 192 0
172 196 0
171 194 0
132 158 110
62 98 165
61 97 158
62 99 173
62 98 168
62 98 170
63 99 172
62 99 173
61 98 170
63 99 171
62 99 170
62 99 170
62 99 170
62 99 173
62 98 173
62 98 172
62 99 176
62 99 174
62 99 174
62 99 174
62 99 177
62 98 173
62 99 175
62 99 173
62 99 175
62 98 174
62 99 174
62 99 176
62 99 176
62 99 175
62 99 175
61 98 176
62 99 177
63 100 178
62 99 174
63 100 180
62 99 175
62 99 177
62 99 179
62 99 176
62 99 176
62 99 178
62 99 179
62 99 177
62 99 178
62 99 178
62 99 177
62 99 179
62 99 178
62 99 179
62 99 178
61 99 179
62 99 180
61 98 177
62 99 181
62 99 178
62 99 179
62 99 180
62 99 178
62 99 179
62 99 177
62 99 177
61 98 178
62 99 176
62 99 177
62 99 178
62 99 179
62 99 179
61 98 177
63 100 181
62 99 179
62 99 177
62 99 179
62 99 181
62 99 175
62 99 179
62 99 178
62 99 179
62 99 177
62 99 178
62 99 177
63 100 179
63 100 180
62 99 176
61 98 174
63 99 179
61 98 176
63 100 178
62 99 178
62 99 180
62 99 179
62 99 179
63 99 178
61 98 176
63 100 179
62 99 177
62 99 178
63 99 180
61 99 178
62 99 175
63 100 178
62 99 175
62 99 176
62 99 173
62 99 177
62 99 177
61 98 175
62 99 177
61 98 176
61 98 173
62 99 178
63 99 180
62 99 173
62 99 175
62 99 174
62 99 174
62 99 177
62 99 176
62 99 170
63 99 173
62 98 176
62 99 178
62 99 171
62 99 178
62 99 175
62 99 174
62 99 176
62 99 173
62 99 174
62 99 174
62 99 173
62 98 173
62 99 173
62 98 172
62 99 179
62 99 174
61 97 166
63 99 175
62 99 175
62 99 169
63 99 171
63 99 174
62 99 173
62 98 169
61 98 170
62 98 167
61 97 167
62 99 171
62 98 167
61 97 168
61 96 169
60 96 161
62 97 161
61 97 168
61 97 161
60 95 161
60 93 157
61 97 160
60 95 161
59 94 153
60 94 157
69 91 136
61 72 75
57 63 51
69 74 54
74 76 54
69 74 52
73 77 54
81 83 57
66 74 59
80 84 61
68 75 56
95 97 66
83 87 61
85 89 65
95 98 69
91 95 69
83 88 64
96 98 65
100 103 71
108 111 77
110 111 75
99 105 75
105 109 77
124 123 80
124 123 79
125 125 79
127 127 85
131 130 85
132 131 83
110 112 75
131 130 80
120 122 80
121 123 79
135 133 83
130 129 82
137 136 85
142 140 90
139 138 87
146 144 92
149 147 91
150 148 95
147 144 87
145 143 87
151 148 95
156 153 89
152 148 87
147 145 90
153 150 89
159 155 91
154 150 93
157 154 94
160 156 91
163 158 95
165 159 92
167 162 100
169 163 101
163 158 93
160 155 89
166 161 100
168 163 92
161 157 92
169 164 92
166 160 95
171 165 95
171 167 98
166 162 91
168 162 95
168 163 96
172 166 99
173 167 100
173 168 98
169 164 91
169 163 91
171 165 95
169 163 91
172 165 93
170 165 94
170 164 93
170 164 88
172 166 97
172 166 93
170 164 93
174 168 99
168 163 90
171 165 93
171 164 91
170 163 92
177 170 102
168 162 92
168 163 94
172 166 90
171 164 89
171 164 93
170 164 95
170 164 90
167 161 92
165 159 86
172 164 93
167 160 88
168 161 90
167 161 89
163 158 84
163 156 87
173 166 91
171 164 96
166 158 90
154 149 75
161 154 84
167 161 86
167 160 91
163 156 87
163 157 87
155 149 83
168 161 86
161 154 78
161 155 83
158 151 79
160 154 81
155 149 82
157 150 80
156 150 81
162 155 80
152 147 79
150 145 77
157 150 79
150 143 79
154 148 77
151 144 75
139 134 68
148 142 66
138 133 62
140 134 61
142 137 62
141 135 59
149 145 65
138 137 49
150 153 53
151 156 52
154 164 44
159 168 49
158 173 37
158 176 25
159 177 25
165 184 11
173 193 11
171 193 0
174 197 0
174 197 0
169 193 0
173 197 0
169 191 0
174 197 0
173 196 0
174 197 0
171 195 0
172 196 0
173 197 0
171 194 0
173 197 0
170 194 0
172 195 0
170 194 0
175 198 0
172 196 0
173 196 0
175 198 0
174 196 0
174 197 0
173 196 0
172 196 0
174 196 0
172 196 0
171 194 0
171 196 0
174 197 0
173 196 0
173 197 0
173 196 0
171 195 0
172 195 0
170 193 0
172 196 0
169 193 0
173 196 0
173 196 0
171 195 0
172 195 0
170 193 0
170 193 0
174 197 0
173 196 0
173 196 0
174 197 0
172 196 0
172 195 0
174 197 0
173 196 0
170 193 0
171 194 0
170 193 0
172 194 0
171 195 0
172 196 0
171 195 0
172 196 0
174 197 0
171 194 0
170 194 0
174 197 0
168 192 0
174 197 0
169 192 0
172 195 0
171 195 0
171 194 0
170 193 0
171 193 0
170 193 0
174 198 0
172 195 0
171 195 0
173 196 0
169 192 0
168 191 0
170 194 0
171 195 0
170 194 0
168 191 0
171 194 0
169 192 0
168 191 0
172 195 0
171 194 0
172 195 0
172 196 0
170 193 0
171 193 0
166 189 0
163 188 47
89 119 150
63 99 166
62 98 165
62 98 168
62 98 168
63 99 170
62 98 174
62 98 170
62 98 163
62 99 175
63 99 174
63 100 174
62 99 170
62 98 163
62 98 169
62 99 170
62 99 172
62 99 176
62 99 176
62 98 172
62 99 175
61 98 172
63 99 176
62 98 169
62 99 174
62 99 176
62 99 175
62 99 172
62 99 173
63 99 178
62 99 177
62 99 172
62 99 175
62 99 175
62 99 180
62 99 178
63 100 180
61 98 177
62 99 179
62 99 178
62 99 180
62 99 179
63 100 180
62 98 174
62 99 179
63 99 177
62 99 180
62 99 178
62 99 178
62 99 178
62 99 177
62 99 177
62 98 174
62 98 175
62 99 177
62 99 179
62 99 177
62 99 174
62 99 177
62 99 177
62 99 178
62 99 177
62 99 178
62 99 178
62 99 179
62 99 179
62 99 180
62 99 178
62 99 180
62 99 174
62 99 174
61 99 178
61 98 177
62 99 177
61 98 175
62 99 179
62 99 177
62 99 175
62 99 175
62 99 178
63 99 179
62 99 173
62 99 174
62 99 179
61 98 174
62 99 177
62 99 176
61 98 172
62 99 177
62 99 176
62 99 180
62 99 176
62 99 178
62 99 177
61 98 173
62 99 176
62 99 178
62 99 176
63 99 177
63 100 178
62 99 175
62 99 175
63 100 177
62 99 175
62 99 174
62 99 175
62 99 175
62 99 176
62 99 175
62 99 174
62 99 173
63 99 178
62 99 174
62 98 173
62 99 178
62 99 179
61 98 173
62 99 179
62 99 177
62 99 178
61 98 173
62 99 175
62 99 172
63 99 175
62 99 175
62 99 174
62 99 171
62 99 177
63 100 177
62 98 172
62 99 175
62 98 173
61 98 174
62 99 173
62 98 171
62 98 167
62 99 173
62 99 175
62 98 172
62 98 166
62 99 174
62 98 170
62 98 170
63 99 174
62 98 169
61 98 171
62 98 165
62 98 171
62 98 164
63 99 172
61 97 166
60 95 165
61 97 165
61 97 166
61 96 162
62 98 164
61 96 162
61 96 159
61 95 161
59 93 157
60 94 160
58 91 151
60 79 107
59 64 52
60 65 44
64 69 49
65 73 57
83 86 60
77 82 60
84 87 59
75 79 58
82 86 59
80 84 60
82 87 64
91 94 67
77 83 59
95 98 69
90 95 68
99 101 68
101 105 70
107 110 73
102 105 70
108 110 73
128 128 88
112 114 74
123 122 79
121 122 74
118 118 75
130 129 77
120 122 81
128 128 81
130 130 81
119 119 75
133 133 86
137 136 83
134 134 84
144 142 91
142 140 88
142 139 88
143 140 85
143 141 87
146 143 85
146 143 88
151 148 90
149 146 88
156 151 96
154 150 90
157 153 95
148 146 87
155 152 89
151 148 92
155 152 86
159 155 96
158 154 93
164 158 97
161 157 95
162 157 95
160 157 93
168 163 96
167 162 95
165 161 95
165 161 94
158 154 90
165 160 94
167 161 96
171 165 98
168 162 93
169 163 94
166 160 88
171 165 98
167 162 96
170 164 97
173 167 99
171 165 95
170 165 93
170 164 95
171 165 95
167 162 94
172 166 96
171 164 94
172 166 95
171 165 91
170 164 95
168 162 91
173 166 98
169 163 90
169 163 93
172 165 95
171 164 95
173 166 94
167 161 86
169 163 92
171 165 90
170 164 91
162 157 91
168 162 93
170 164 92
172 165 95
171 164 93
166 160 89
171 164 93
166 160 85
164 158 85
164 158 86
168 162 87
165 159 87
166 160 87
165 159 82
160 154 82
157 152 86
162 157 82
165 158 80
161 155 84
155 149 79
155 148 78
166 159 87
157 151 84
159 152 83
161 155 81
156 150 80
160 153 74
146 140 70
160 153 82
147 141 75
148 142 68
152 146 74
149 142 69
150 144 76
154 147 77
145 140 68
138 133 62
136 132 59
150 144 73
153 146 75
140 135 63
149 146 67
145 144 53
144 148 47
146 150 47
156 164 47
151 164 32
162 175 41
165 180 34
164 180 30
166 188 11
168 189 11
172 195 0
172 195 0
174 197 0
173 197 0
171 195 0
172 195 0
173 196 0
174 198 0
173 196 0
170 194 0
171 195 0
171 195 0
173 196 0
173 197 0
174 197 0
172 195 0
173 197 0
174 197 0
172 195 0
172 196 0
172 195 0
174 197 0
172 195 0
171 194 0
171 195 0
171 194 0
170 194 0
173 197 0
171 195 0
168 193 0
174 197 0
174 197 0
171 195 0
171 194 0
171 195 0
172 196 0
170 193 0
172 196 0
172 196 0
172 196 0
171 195 0
168 191 0
172 196 0
170 194 0
172 195 0
173 196 0
171 195 0
174 197 0
172 195 0
170 192 0
169 192 0
171 193 0
171 194 0
170 194 0
170 193 0
174 197 0
170 193 0
170 194 0
172 195 0
170 193 0
173 197 0
171 194 0
171 195 0
172 196 0
169 192 0
174 197 0
171 194 0
172 196 0
168 191 0
172 195 0
172 196 0
169 192 0
170 192 0
170 193 0
172 195 0
172 196 0
172 195 0
170 193 0
170 194 0
167 191 0
170 194 0
171 195 0
169 193 0
171 194 0
172 195 0
171 195 0
172 195 0
171 194 0
168 191 0
169 193 0
169 192 0
171 194 0
170 194 0
138 162 102
62 98 161
62 99 165
61 97 166
62 98 164
61 98 162
61 98 169
62 98 166
63 99 173
62 99 172
63 99 175
63 99 170
61 98 172
63 99 169
62 98 166
62 99 176
62 98 174
62 99 173
62 99 172
63 99 175
61 98 170
62 99 176
62 99 173
63 99 177
62 99 174
62 99 174
62 99 176
62 99 176
62 99 178
63 99 174
62 99 175
62 98 172
61 98 171
62 99 179
61 98 174
62 99 173
62 99 174
62 99 175
62 99 178
62 99 174
63 100 178
61 98 176
62 99 174
62 98 172
62 99 180
62 99 177
62 99 174
62 99 179
62 99 180
62 99 179
62 99 179
62 99 175
62 99 179
63 99 177
63 100 180
62 99 177
62 99 177
63 100 179
62 99 174
62 99 179
62 99 177
62 99 177
62 99 178
63 99 174
62 99 175
62 99 178
61 98 176
62 99 179
62 99 178
62 99 180
63 100 178
62 99 175
62 99 178
62 99 178
63 100 180
63 100 178
62 99 176
62 99 178
62 99 175
61 99 180
62 99 180
62 99 176
63 99 174
62 99 180
62 99 180
62 99 177
62 99 175
62 99 178
62 98 173
61 98 175
62 99 176
62 99 178
61 98 177
62 99 177
61 98 174
63 99 177
62 99 172
62 99 177
61 98 173
61 98 176
61 98 172
61 99 178
62 99 178
62 99 176
62 99 178
62 98 173
63 99 178
62 99 176
62 99 175
62 99 175
62 99 177
62 99 176
62 99 178
62 99 178
62 99 173
62 99 174
62 99 176
63 100 178
62 98 171
62 99 177
62 99 176
62 99 175
62 99 175
62 99 176
63 100 176
61 98 173
62 99 175
62 99 174
62 99 173
61 98 177
62 98 171
61 98 169
61 98 174
62 99 177
62 99 178
62 98 175
61 97 167
62 98 173
62 99 174
62 98 173
62 98 169
61 98 167
62 98 172
62 98 166
62 98 170
62 98 171
62 98 168
62 99 173
61 98 172
61 97 162
62 98 165
61 97 168
61 97 172
62 98 168
61 96 162
62 98 168
61 96 164
61 97 166
61 96 162
59 93 155
61 96 161
60 94 156
60 93 149
62 87 131
59 72 89
81 83 56
45 53 41
69 74 53
60 66 52
82 84 60
73 77 53
76 82 57
60 65 49
88 93 65
83 87 62
87 90 61
96 99 68
78 84 63
85 90 61
103 105 74
85 91 67
106 108 73
95 99 71
112 114 75
112 113 76
109 111 71
104 107 73
120 121 76
122 122 77
125 125 80
123 124 82
129 127 81
123 123 78
128 128 78
135 133 88
138 136 86
132 129 81
137 136 81
144 142 88
144 141 85
130 131 83
144 142 90
145 142 81
142 141 86
151 148 87
150 148 89
156 152 92
154 150 91
154 151 92
152 150 88
158 153 91
156 152 89
147 145 87
155 151 86
162 157 94
160 156 93
162 157 94
159 155 89
159 156 90
168 164 99
163 159 93
166 161 97
170 164 96
161 156 89
174 167 95
170 165 101
170 163 91
170 163 94
165 161 91
169 163 94
173 166 93
164 159 92
171 165 98
169 163 94
173 166 100
170 164 91
175 169 97
166 161 93
175 168 100
172 166 95
177 169 99
168 162 91
169 164 94
171 165 91
172 166 93
169 163 92
167 162 91
174 167 95
171 165 90
166 161 89
175 168 96
172 164 91
173 166 94
169 163 93
166 161 90
170 164 90
167 162 89
166 160 86
166 160 89
169 162 90
168 162 87
168 162 92
168 161 92
164 157 88
164 158 81
161 155 86
169 163 92
155 149 71
159 153 81
160 155 83
158 151 82
163 156 79
163 156 82
163 157 84
162 154 83
162 155 84
162 155 85
162 156 81
153 148 74
156 150 75
160 153 82
157 151 80
156 149 75
151 144 70
157 150 80
150 144 74
155 149 73
154 148 75
154 148 70
147 141 65
146 140 72
137 132 63
141 136 68
148 141 71
144 138 62
146 141 61
141 138 61
150 149 57
139 145 39
141 147 47
146 158 19
159 171 34
156 168 37
160 179 22
168 188 11
167 189 11
172 193 11
172 194 0
172 195 0
173 196 0
172 195 0
173 196 0
173 197 0
172 196 0
173 197 0
174 197 0
173 197 0
172 196 0
170 194 0
172 195 0
173 197 0
175 197 0
173 196 0
173 197 0
170 193 0
172 195 0
170 193 0
170 194 0
174 198 0
174 197 0
172 196 0
172 195 0
173 196 0
170 194 0
172 196 0
172 196 0
174 197 0
175 198 0
169 193 0
171 194 0
173 197 0
175 198 0
172 195 0
170 194 0
172 196 0
172 195 0
171 194 0
171 195 0
175 198 0
170 194 0
173 197 0
171 194 0
173 196 0
172 195 0
173 197 0
171 195 0
171 194 0
170 194 0
170 194 0
173 196 0
166 190 0
170 194 0
173 196 0
169 193 0
174 197 0
173 197 0
172 196 0
173 196 0
171 194 0
173 196 0
171 194 0
170 194 0
169 192 0
171 194 0
170 195 0
171 194 0
169 193 0
170 193 0
171 195 0
171 194 0
172 196 0
171 195 0
169 193 0
172 194 0
171 194 0
170 193 0
171 195 0
171 194 0
172 195 0
171 194 0
172 195 0
174 195 0
170 193 0
172 196 0
174 197 0
170 193 0
167 190 0
172 196 0
173 196 0
171 194 25
92 121 147
62 98 166
62 98 165
61 98 168
61 97 165
62 99 170
63 99 168
61 98 162
62 99 170
61 98 165
62 99 171
63 99 173
63 99 175
63 99 171
62 99 171
62 99 173
62 99 174
62 99 175
62 99 172
61 98 172
61 98 173
62 99 173
61 97 169
62 99 175
62 99 173
62 99 175
62 99 174
62 98 171
62 98 173
62 98 174
62 99 175
62 98 175
62 99 175
62 99 173
62 99 177
62 99 179
62 99 178
61 98 174
62 99 176
62 99 176
62 99 178
61 98 174
62 99 176
62 99 178
62 99 175
62 99 177
61 98 174
62 99 177
62 99 173
63 100 178
62 99 177
62 99 178
62 99 177
62 99 177
62 99 175
62 99 178
62 99 178
62 99 175
62 99 176
62 99 175
62 99 180
61 98 173
61 98 173
62 99 178
61 98 176
62 99 178
63 99 177
63 100 179
63 100 178
62 99 177
63 100 180
61 99 177
62 99 179
62 99 178
62 99 177
62 99 177
62 99 175
61 99 178
61 98 177
62 99 179
62 99 179
63 100 180
62 98 173
62 99 178
62 99 174
62 99 176
62 99 176
61 98 177
63 99 179
63 100 177
62 99 178
62 99 176
62 99 176
61 98 173
62 98 175
63 100 178
62 99 176
62 99 178
62 99 177
62 98 173
62 99 176
62 99 176
61 99 177
62 99 176
61 98 172
62 99 177
62 99 176
61 98 174
62 99 177
63 99 177
62 99 175
63 99 176
63 100 177
62 99 175
62 99 178
61 98 170
62 99 178
62 98 174
62 99 166
63 99 174
63 100 178
62 99 173
63 100 179
61 98 173
62 99 173
61 98 172
62 98 169
61 98 171
62 99 171
62 99 177
62 99 174
62 99 175
62 99 174
63 100 178
62 98 173
62 98 171
62 98 172
62 99 171
62 99 175
63 99 177
62 99 171
62 98 170
61 98 170
63 99 173
62 98 169
61 97 164
61 97 167
61 98 174
61 97 164
61 98 170
61 98 172
61 97 165
61 96 163
61 98 166
62 98 171
61 96 159
61 96 164
61 96 164
60 96 164
61 96 168
58 91 154
60 94 156
59 93 153
62 92 145
53 73 107
57 62 52
61 66 49
72 76 53
66 72 52
60 66 49
67 73 55
66 73 56
77 81 58
86 87 61
82 86 60
85 89 64
85 88 58
81 86 63
80 83 56
98 101 68
104 106 69
96 99 66
110 111 69
114 116 77
109 111 72
119 120 75
106 107 71
126 125 79
120 122 82
116 116 74
121 121 76
115 116 73
123 124 81
130 129 79
131 129 84
136 136 84
122 123 79
132 131 82
139 138 88
141 139 86
137 136 83
141 138 76
153 149 85
146 143 89
143 141 86
145 143 86
155 152 86
152 148 84
154 150 88
150 147 91
157 153 86
149 147 85
158 153 89
160 156 96
156 152 84
164 159 90
158 154 92
158 154 92
166 161 93
160 156 94
159 155 91
167 162 90
168 162 93
165 159 91
171 165 95
165 159 91
169 163 97
170 165 93
172 165 93
168 163 91
172 166 98
171 165 90
170 164 95
168 163 87
169 163 91
168 163 93
172 165 95
169 163 93
169 163 93
170 165 93
167 161 86
173 166 95
168 161 90
173 166 95
174 167 93
171 165 90
168 163 92
170 164 92
167 161 90
169 162 92
171 164 94
170 164 93
171 164 93
167 161 91
172 165 92
171 164 93
169 163 87
171 164 93
169 163 88
164 159 86
169 162 92
169 162 90
163 157 84
167 161 90
164 158 84
161 155 75
169 163 92
167 159 88
160 153 80
159 154 76
166 159 85
164 159 85
163 158 82
165 158 82
153 149 75
167 160 84
165 158 86
159 153 80
161 154 81
163 157 80
160 153 80
151 146 75
145 140 67
158 152 74
151 145 74
148 143 72
147 142 72
148 142 66
143 137 65
144 139 66
147 141 67
142 138 56
147 140 73
143 137 67
140 135 62
134 130 53
141 140 58
138 139 57
151 156 53
149 153 49
148 156 42
153 164 36
156 170 34
163 181 25
166 184 22
172 191 19
171 194 11
174 197 0
171 194 0
170 194 0
174 196 0
175 197 0
175 198 0
172 196 0
172 195 0
172 195 0
170 193 0
170 193 0
172 195 0
174 197 0
172 195 0
172 196 0
169 192 0
171 195 0
171 195 0
172 195 0
170 194 0
174 197 0
171 195 0
171 194 0
172 195 0
173 196 0
170 194 0
175 198 0
171 195 0
174 197 0
172 195 0
174 198 0
174 197 0
172 195 0
174 197 0
174 197 0
173 196 0
173 195 0
174 196 0
171 195 0
170 194 0
172 196 0
171 194 0
170 193 0
173 197 0
173 196 0
171 195 0
172 195 0
169 192 0
174 197 0
172 195 0
170 193 0
172 196 0
171 195 0
172 195 0
173 196 0
169 192 0
172 195 0
169 193 0
174 197 0
170 194 0
168 192 0
174 196 0
170 194 0
172 194 0
171 194 0
168 192 0
172 195 0
172 195 0
172 195 0
173 197 0
174 197 0
170 193 0
165 187 0
172 195 0
171 194 0
169 192 0
168 191 0
172 195 0
168 191 0
171 194 0
166 190 0
165 189 0
172 195 0
170 193 0
172 195 0
172 195 0
171 194 0
169 193 0
168 191 0
168 191 0
169 192 0
168 192 0
146 170 86
63 99 170
61 97 162
63 99 172
62 98 162
63 99 167
62 98 169
63 99 170
63 99 168
62 99 170
62 98 165
62 99 172
62 99 172
61 98 171
62 98 171
62 98 167
62 99 173
62 99 176
62 99 175
61 98 172
63 99 175
62 99 174
62 99 177
62 98 169
62 99 173
63 99 177
62 99 177
62 98 172
63 99 177
62 98 175
63 100 177
62 99 177
62 99 175
63 99 176
61 98 175
62 99 172
61 98 172
61 98 176
62 99 176
62 99 176
61 98 175
62 98 174
63 99 175
62 99 173
62 99 175
62 99 175
63 100 180
62 99 177
62 99 178
62 99 177
62 99 175
63 100 178
61 99 180
62 99 179
62 99 177
62 99 178
62 98 172
63 100 179
63 99 179
61 98 176
63 100 178
62 99 176
62 99 177
62 99 176
63 100 180
62 99 176
62 99 179
62 99 180
62 99 179
62 99 175
62 99 178
62 99 177
62 99 180
62 99 178
62 99 176
62 99 176
62 99 179
62 99 176
61 99 179
62 98 174
62 99 177
63 99 177
62 99 175
62 99 176
62 99 179
61 98 173
63 99 175
63 100 177
62 99 173
62 99 175
62 99 176
61 98 175
61 98 178
62 99 179
62 98 172
62 99 175
62 99 179
62 99 181
61 98 176
62 99 176
62 99 178
62 99 178
61 98 176
62 99 176
62 99 178
62 99 177
62 99 175
62 99 172
62 99 174
62 99 177
62 99 174
62 99 175
62 99 174
62 99 171
62 98 169
61 98 175
62 99 174
62 99 176
63 99 176
61 98 171
63 100 177
62 99 172
61 98 169
62 99 173
62 99 173
62 99 175
62 99 173
62 99 177
61 98 170
61 98 169
61 98 173
62 99 171
62 99 172
62 98 170
63 99 172
62 98 177
62 99 174
63 99 174
62 99 172
62 98 171
62 98 167
63 99 171
62 99 173
62 99 168
62 98 171
62 99 173
61 98 172
61 96 167
62 99 175
62 99 171
62 98 170
62 98 170
62 99 171
62 98 169
62 98 170
62 97 166
61 98 166
62 98 165
61 97 159
60 95 160
61 97 166
60 96 160
60 94 157
61 95 161
60 95 157
66 90 134
67 76 75
64 68 49
71 75 54
58 64 45
66 71 51
70 75 52
74 78 59
71 76 56
73 78 54
73 78 57
80 82 56
95 98 65
80 84 63
95 97 67
88 91 61
94 97 62
101 105 69
92 95 66
96 100 70
102 104 66
108 110 74
107 109 69
124 124 80
126 126 76
118 118 76
126 126 77
121 121 71
118 119 74
134 132 82
120 120 79
125 126 80
132 130 82
131 131 84
125 126 75
138 137 86
132 130 81
143 141 86
147 144 83
146 144 89
149 145 88
148 144 82
147 144 90
155 152 88
145 143 83
152 148 89
158 154 84
156 153 91
160 156 94
161 157 94
153 150 88
160 156 92
156 152 89
166 160 94
157 152 87
162 157 95
166 161 92
167 161 89
162 157 90
164 158 87
165 160 90
169 164 94
171 165 94
170 163 91
168 163 93
166 161 91
173 166 98
171 165 93
169 163 92
165 160 88
164 158 90
173 167 94
167 162 89
165 160 87
169 163 94
172 165 96
169 164 89
170 164 88
169 163 90
172 165 90
169 162 90
172 165 91
166 159 87
170 164 91
173 167 97
169 163 86
175 167 98
166 160 89
170 164 91
164 158 82
172 165 96
167 161 84
166 160 84
167 161 85
166 159 90
169 163 83
166 160 83
169 162 88
159 154 80
167 160 87
167 160 84
159 154 80
162 155 87
161 155 81
163 156 87
157 151 83
166 160 88
165 158 87
152 146 72
159 152 78
158 152 80
155 148 74
152 147 74
160 154 79
155 149 78
159 152 74
152 147 71
153 147 79
156 149 77
153 148 75
156 150 71
150 144 70
152 146 73
149 142 65
147 142 67
149 142 68
144 139 67
143 138 64
141 135 62
139 132 62
126 122 53
140 137 53
138 136 52
142 144 49
151 155 53
151 160 42
146 157 34
152 165 32
157 171 32
166 186 16
171 191 25
169 188 11
172 195 0
173 195 0
172 196 0
174 197 0
170 194 0
172 195 0
174 197 0
167 191 0
175 198 0
174 197 0
173 196 0
174 197 0
173 197 0
172 195 0
172 196 0
171 195 0
172 195 0
173 196 0
174 197 0
173 196 0
173 197 0
172 195 0
173 196 0
173 197 0
171 193 0
174 197 0
171 195 0
171 194 0
174 197 0
172 195 0
170 193 0
172 196 0
171 194 0
169 193 0
170 194 0
173 196 0
174 197 0
172 196 0
174 197 0
172 194 0
171 195 0
173 197 0
171 193 0
173 197 0
173 196 0
172 196 0
170 194 0
171 194 0
169 193 0
168 190 0
172 195 0
171 194 0
172 195 0
172 196 0
170 193 0
170 194 0
171 195 0
171 195 0
171 194 0
173 196 0
171 194 0
169 193 0
172 195 0
170 194 0
169 191 0
171 194 0
170 194 0
168 191 0
172 195 0
170 193 0
169 192 0
172 195 0
169 193 0
170 194 0
171 193 0
169 193 0
171 195 0
169 192 0
170 193 0
172 196 0
169 192 0
170 193 0
171 194 0
170 193 0
171 194 0
170 193 0
167 190 0
170 194 0
168 191 0
167 191 0
172 196 0
168 190 0
171 194 25
106 133 136
62 99 164
62 98 164
61 98 166
62 99 171
63 99 171
62 99 172
62 99 171
62 99 172
61 98 169
61 98 164
61 98 165
62 98 171
61 98 168
63 99 170
62 99 168
62 98 168
63 99 175
63 99 176
63 100 176
62 99 173
62 99 174
61 98 169
62 98 171
62 98 168
62 98 168
61 98 171
62 99 169
62 99 178
62 99 175
62 99 178
62 99 177
62 99 175
63 99 176
62 99 176
62 99 177
62 99 175
62 99 178
62 99 176
63 99 174
62 99 173
62 99 176
62 99 177
63 99 175
61 98 171
62 99 174
62 99 177
62 99 175
62 99 178
62 99 177
61 99 178
62 99 176
62 99 177
62 99 178
62 99 176
62 99 178
62 99 178
62 99 178
62 99 177
62 99 177
63 99 179
63 100 179
62 99 177
62 99 176
62 99 178
62 99 177
62 99 176
62 99 178
62 99 176
62 99 180
62 99 177
63 99 178
62 99 177
62 98 171
62 99 174
62 99 175
62 99 177
62 99 176
62 99 176
62 99 177
62 99 178
62 99 177
62 99 176
62 99 180
63 99 175
63 100 176
63 99 176
62 99 177
62 99 177
62 99 174
62 99 176
63 100 179
62 99 175
62 99 175
62 99 176
61 98 174
63 100 179
62 99 175
62 99 176
62 99 181
63 99 178
62 99 176
61 98 174
61 98 172
62 99 178
63 99 177
62 99 171
62 99 174
62 99 173
62 98 174
62 99 176
61 98 170
62 99 175
63 99 174
62 99 172
62 99 177
62 99 172
62 98 170
63 99 178
62 99 176
62 98 170
62 99 176
63 99 175
62 99 175
61 98 169
62 98 173
62 98 171
62 99 172
63 99 172
63 100 176
62 99 171
62 98 169
62 99 173
62 99 175
62 98 171
62 99 173
62 99 173
62 99 176
62 99 172
62 98 170
62 98 169
62 99 172
62 98 164
62 99 173
62 98 170
62 98 171
62 98 169
62 99 173
62 99 173
62 98 166
62 98 170
62 98 167
61 97 163
62 97 166
61 97 164
62 98 170
62 98 167
61 96 162
61 96 168
61 95 158
61 96 163
59 93 150
60 94 159
61 95 158
59 91 148
59 87 129
53 69 94
64 67 48
69 71 46
55 60 44
68 74 55
65 71 50
75 78 50
72 77 57
62 70 51
71 77 54
87 92 63
90 93 63
101 103 66
84 87 54
97 99 66
105 107 73
91 93 63
95 97 60
104 107 69
112 113 72
105 106 65
112 113 68
125 124 78
125 124 81
128 127 78
126 126 79
124 123 75
121 121 78
121 121 76
136 134 83
131 130 84
135 134 82
133 131 82
139 137 84
133 132 78
141 139 79
146 144 88
141 140 87
140 137 84
155 151 91
153 150 95
153 149 87
153 150 85
152 148 86
152 149 88
150 147 86
156 153 94
152 149 88
157 153 89
161 155 86
156 151 90
157 153 85
158 154 88
163 158 87
164 159 90
163 159 94
156 152 89
162 157 89
163 158 87
158 155 86
166 160 89
164 159 82
168 162 92
170 165 94
170 164 90
169 163 96
168 162 93
171 164 93
169 163 91
167 162 84
165 159 91
170 163 89
170 163 91
169 163 86
171 164 92
168 162 88
172 165 90
169 163 90
171 165 94
172 166 92
169 162 90
171 165 94
176 168 97
168 162 89
167 161 88
171 164 90
176 168 96
173 166 96
170 164 90
172 166 91
164 158 87
162 157 87
168 162 84
172 165 90
169 163 87
171 162 90
168 162 84
166 159 89
165 158 80
168 162 84
165 158 84
165 158 82
164 157 85
163 156 82
165 158 86
156 150 78
162 156 77
163 156 83
158 152 81
167 160 84
155 148 74
164 158 88
156 150 76
147 141 68
153 147 78
154 149 74
159 152 82
150 144 73
157 151 71
149 143 71
150 144 76
147 140 74
150 144 70
145 138 66
147 142 69
147 141 68
145 139 63
151 145 67
136 130 62
147 141 70
130 125 56
138 139 53
146 147 54
139 145 41
153 164 28
154 164 44
158 170 36
157 172 28
163 178 32
166 186 0
169 189 0
170 192 0
171 193 0
174 198 0
171 195 0
173 196 0
173 196 0
174 197 0
174 197 0
171 194 0
171 195 0
173 197 0
171 194 0
172 195 0
174 197 0
171 194 0
171 195 0
170 194 0
170 193 0
172 196 0
171 194 0
173 196 0
169 193 0
171 195 0
174 197 0
171 194 0
172 196 0
173 196 0
169 193 0
170 194 0
171 193 0
173 196 0
171 194 0
173 197 0
168 191 0
169 193 0
169 193 0
173 196 0
171 195 0
169 193 0
171 194 0
173 196 0
173 196 0
172 195 0
173 196 0
172 196 0
169 193 0
168 191 0
170 193 0
172 194 0
171 194 0
173 196 0
172 195 0
171 194 0
171 195 0
174 196 0
173 196 0
173 195 0
171 194 0
170 193 0
171 195 0
171 195 0
169 193 0
171 195 0
173 197 0
171 194 0
169 192 0
172 195 0
171 194 0
171 194 0
174 197 0
168 192 0
170 193 0
171 195 0
171 194 0
171 195 0
170 193 0
173 196 0
171 194 0
168 190 0
170 192 0
171 194 0
170 193 0
169 192 0
169 193 0
172 196 0
171 195 0
171 195 0
171 194 0
169 192 0
172 195 0
170 192 0
165 188 0
158 183 60
64 100 162
62 98 158
61 97 161
61 98 161
61 97 157
62 99 166
62 98 166
62 98 167
62 98 168
62 98 164
62 98 165
62 99 175
63 99 171
62 99 169
63 99 172
62 99 176
61 98 172
63 99 175
62 99 167
61 98 169
62 99 170
62 99 173
63 99 176
62 99 168
62 98 170
62 99 173
61 98 171
61 98 169
62 99 174
62 99 176
62 99 177
62 99 176
62 99 179
61 98 176
62 99 176
62 98 171
62 99 170
61 98 174
62 98 174
62 99 177
62 99 175
62 99 177
61 98 174
62 99 176
61 98 176
62 99 178
63 99 178
62 99 179
62 99 178
62 99 176
62 99 178
62 99 177
63 99 178
62 99 175
62 99 179
62 99 176
62 99 177
63 100 179
62 99 177
63 100 178
62 98 174
62 99 178
62 99 179
63 99 178
61 98 173
61 98 177
62 99 176
62 99 178
61 98 174
62 99 176
62 99 177
62 99 180
62 99 175
63 99 179
62 99 172
62 99 178
63 100 180
62 99 177
62 99 177
62 99 174
62 98 175
62 99 171
62 99 178
63 100 180
62 99 179
61 98 177
62 99 181
62 99 176
62 98 171
62 99 177
62 99 177
62 99 173
62 99 175
62 99 174
62 99 179
62 99 176
62 99 173
62 99 176
62 99 176
62 99 175
62 99 174
62 99 175
63 99 177
62 99 174
62 99 174
62 99 178
62 99 178
63 99 173
61 98 172
62 99 174
63 100 180
62 99 175
63 99 178
62 99 174
61 98 173
62 99 173
62 99 177
62 99 175
62 99 178
62 99 171
63 99 168
61 98 167
62 98 172
62 98 169
63 99 177
62 99 173
62 98 172
62 99 171
63 99 172
62 99 172
62 99 174
62 99 177
62 99 171
62 99 171
62 99 174
63 99 174
62 99 170
63 100 173
62 99 172
62 99 172
62 98 170
63 99 178
61 98 172
61 97 167
63 99 171
61 98 168
62 98 170
62 99 173
61 97 165
62 98 166
61 97 163
62 98 168
62 98 164
61 97 164
61 97 163
61 97 163
62 98 165
61 97 167
62 97 168
61 96 161
60 94 158
61 96 160
60 94 158
60 94 156
61 95 160
60 93 155
54 80 125
63 71 70
53 59 42
58 65 53
57 64 48
63 69 49
60 66 47
65 70 48
75 80 56
68 75 57
73 79 58
78 82 54
85 89 63
85 89 64
89 93 63
89 94 67
97 99 67
92 95 63
100 103 68
97 100 65
111 111 70
109 111 72
114 115 78
112 114 72
109 111 68
124 124 73
124 123 76
129 127 80
122 123 77
113 115 72
126 126 75
136 134 80
140 138 82
134 132 82
132 131 77
133 132 74
139 137 86
130 129 75
142 140 84
151 148 89
142 140 87
152 148 84
152 148 86
137 137 81
155 151 90
157 152 88
155 152 89
154 150 83
157 152 90
162 157 95
155 151 86
156 152 90
160 155 86
163 158 90
160 156 86
158 153 89
159 154 81
163 159 89
161 156 91
163 158 89
172 166 101
166 160 87
163 158 86
170 164 94
172 165 96
163 158 86
168 161 87
172 166 98
171 165 90
172 166 95
170 164 89
165 159 83
167 161 88
169 163 91
170 163 91
165 160 82
172 165 86
167 161 92
171 164 90
173 166 95
170 162 87
168 162 88
167 161 88
168 162 84
173 165 93
171 164 92
171 164 85
165 160 81
167 160 81
163 156 76
165 160 84
167 160 84
163 158 81
161 155 79
166 160 83
166 159 82
166 160 87
160 154 78
163 157 87
165 158 87
166 159 82
162 155 84
157 151 77
164 157 84
160 154 84
160 154 77
155 148 75
165 158 88
167 160 87
159 153 76
140 136 65
154 147 76
162 155 75
162 156 75
157 151 78
148 143 64
157 151 75
150 145 72
159 151 77
150 144 70
153 147 70
160 153 81
149 142 71
141 135 61
140 135 63
151 145 69
144 138 63
141 135 62
150 143 69
148 145 63
136 135 44
146 143 62
143 147 51
147 150 53
142 152 30
150 166 25
159 176 22
164 180 25
166 184 25
165 186 11
169 192 0
171 193 0
170 192 0
172 195 0
171 195 0
170 194 0
175 198 0
169 192 0
174 196 0
173 197 0
172 196 0
173 196 0
174 197 0
172 196 0
172 196 0
173 197 0
174 197 0
171 194 0
172 196 0
172 196 0
169 193 0
172 196 0
173 196 0
170 194 0
169 193 0
172 195 0
171 195 0
173 196 0
170 193 0
173 196 0
172 195 0
173 195 0
170 194 0
174 197 0
174 197 0
171 195 0
172 195 0
172 194 0
171 194 0
170 194 0
174 198 0
174 197 0
170 192 0
170 195 0
172 195 0
170 193 0
167 191 0
172 196 0
170 194 0
170 194 0
170 194 0
172 194 0
174 196 0
172 195 0
170 193 0
169 192 0
171 195 0
172 195 0
170 193 0
172 195 0
169 192 0
173 196 0
170 193 0
170 193 0
170 193 0
170 194 0
173 196 0
169 192 0
169 192 0
171 195 0
172 196 0
168 191 0
171 194 0
173 195 0
173 196 0
166 189 0
170 192 0
170 193 0
169 193 0
173 196 0
171 193 0
172 194 0
169 193 0
168 191 0
169 193 0
169 193 0
168 190 0
170 193 0
170 193 0
168 191 0
170 193 0
166 190 0
168 191 18
122 148 120
62 99 168
62 98 164
62 98 168
62 98 164
63 99 167
61 98 167
62 98 164
61 98 163
63 99 169
61 98 171
62 99 173
62 98 165
62 99 172
62 99 173
62 99 173
62 99 172
61 98 169
62 98 173
62 99 170
62 99 174
62 99 175
61 98 169
63 99 175
62 99 174
62 99 173
61 98 172
61 98 169
62 99 176
62 99 174
62 99 171
62 99 173
62 99 173
62 99 177
63 100 178
62 99 177
62 99 178
61 98 168
63 99 173
62 99 177
61 98 169
63 100 176
62 99 176
62 99 178
62 99 178
62 99 169
62 99 177
62 99 175
62 98 175
62 99 174
63 100 179
62 99 179
63 100 176
62 99 175
62 99 176
62 99 177
62 99 176
62 99 176
62 99 177
61 98 176
63 99 177
62 98 173
62 99 177
63 99 179
62 99 175
62 99 176
62 99 178
62 99 179
62 99 175
62 99 175
62 99 176
62 99 177
61 98 178
62 99 177
61 98 174
62 99 176
63 100 178
63 99 179
62 99 174
61 99 180
62 99 178
62 98 172
62 99 173
62 99 173
62 99 177
62 99 179
62 99 177
62 99 176
61 98 175
63 99 176
62 98 171
62 99 179
62 99 177
62 99 170
62 99 179
62 99 178
62 99 173
62 99 175
62 99 175
62 99 175
63 99 178
62 99 175
62 99 176
62 99 178
62 99 175
63 100 180
61 98 175
62 99 175
62 99 176
62 99 175
62 99 176
62 99 173
62 99 174
62 99 178
61 98 169
62 99 175
62 99 173
62 99 172
62 99 176
62 98 170
61 98 172
62 99 174
62 99 175
62 98 173
62 99 173
62 99 174
62 99 175
62 99 172
62 98 173
63 100 176
63 99 174
63 99 178
62 99 173
61 98 170
62 99 173
62 99 172
63 99 173
61 98 168
62 98 173
63 99 172
62 99 177
62 98 170
61 98 169
61 98 172
62 99 168
62 98 170
61 97 162
61 98 165
62 98 171
62 98 170
62 98 171
62 98 170
62 98 168
62 98 171
63 99 171
62 98 166
61 97 165
61 97 161
62 98 166
61 97 166
60 95 163
60 95 157
59 94 158
60 94 153
61 96 161
61 96 163
59 92 151
56 87 134
47 65 83
54 60 42
59 63 45
59 64 46
64 69 47
63 69 45
60 68 49
78 82 56
72 77 53
77 81 56
70 74 51
77 82 55
92 97 62
80 86 56
90 93 65
106 107 70
100 103 67
101 103 69
96 98 61
114 115 70
110 111 68
98 101 61
121 120 73
108 109 71
126 125 81
119 120 75
121 120 73
120 120 72
126 125 74
131 129 75
136 134 81
123 122 73
148 144 80
139 138 82
137 134 79
141 140 83
141 139 84
126 126 71
150 147 83
143 141 81
150 145 84
155 150 85
147 143 81
155 151 86
154 149 86
151 147 84
156 151 83
155 150 84
156 151 83
155 152 88
167 161 93
163 158 93
155 151 92
153 150 86
162 157 88
165 159 89
156 153 82
166 160 90
171 164 95
169 164 92
168 162 90
164 158 85
172 165 95
167 160 92
164 158 88
167 160 88
164 159 85
166 160 89
168 163 92
167 163 88
173 168 96
165 160 83
169 163 90
166 160 86
172 165 97
168 162 89
171 165 87
174 167 97
164 158 85
166 161 85
168 162 86
170 163 90
169 163 87
166 161 87
168 162 90
168 162 88
165 159 88
167 162 86
168 161 84
171 163 90
163 155 78
171 164 93
168 161 87
169 162 90
169 162 87
165 159 81
164 157 81
164 157 84
165 158 84
165 158 78
163 156 76
159 153 83
162 155 77
158 152 83
163 156 85
162 155 84
161 154 82
155 149 71
159 153 71
155 149 74
157 153 78
158 151 69
154 148 67
151 146 72
151 146 73
155 149 78
158 152 74
149 143 67
153 147 74
142 136 67
139 134 57
146 140 65
145 139 63
152 145 71
134 130 58
140 134 58
138 133 66
143 138 63
139 134 63
148 145 64
143 144 56
150 155 49
151 158 45
145 153 36
149 160 28
158 174 22
163 177 30
162 180 25
166 185 11
171 191 11
173 193 0
170 193 0
173 196 0
171 194 0
172 196 0
174 197 0
172 196 0
174 198 0
173 197 0
173 196 0
173 197 0
172 196 0
174 197 0
172 196 0
171 194 0
170 193 0
173 197 0
171 195 0
174 198 0
173 196 0
172 195 0
172 196 0
170 193 0
171 194 0
172 196 0
169 193 0
170 194 0
171 195 0
171 195 0
173 196 0
172 196 0
172 195 0
170 194 0
170 193 0
172 195 0
170 193 0
173 196 0
173 196 0
169 192 0
173 195 0
172 196 0
175 197 0
170 193 0
170 192 0
172 196 0
172 195 0
172 195 0
174 197 0
171 194 0
170 193 0
168 191 0
171 195 0
168 191 0
170 194 0
171 194 0
170 193 0
174 197 0
169 193 0
170 194 0
172 195 0
168 192 0
172 196 0
172 196 0
171 194 0
174 196 0
166 188 0
171 195 0
172 195 0
170 193 0
168 190 0
170 193 0
169 193 0
172 195 0
170 193 0
170 193 0
170 194 0
168 192 0
172 196 0
169 193 0
172 196 0
169 192 0
167 192 0
172 195 0
170 194 0
169 192 0
172 196 0
168 191 0
170 193 0
170 194 0
168 191 0
169 191 0
167 191 40
88 118 145
62 98 163
62 98 165
62 98 157
63 99 165
62 98 168
62 99 173
62 98 161
62 99 166
62 99 173
61 98 163
61 98 167
62 98 166
62 99 171
62 99 172
63 99 168
62 99 174
62 98 168
62 99 169
62 99 169
61 98 170
62 99 172
62 99 173
62 99 171
62 99 175
62 99 177
62 99 176
62 99 172
63 99 175
62 99 175
63 99 179
61 98 171
62 99 175
62 99 174
62 99 176
62 99 173
62 99 177
62 99 177
62 99 173
62 99 177
62 99 174
62 99 177
62 99 178
62 99 176
62 98 173
62 99 177
62 99 176
62 99 176
62 99 177
63 99 176
62 99 175
62 99 173
62 99 175
62 99 178
61 98 175
62 99 175
62 99 177
62 99 177
61 98 175
63 99 179
61 98 173
62 99 179
62 99 177
63 100 180
62 99 176
62 99 177
63 99 177
62 99 175
62 99 175
62 99 178
62 99 179
62 99 177
62 99 175
62 99 178
62 99 176
62 99 178
63 100 177
62 99 176
62 99 177
63 100 177
62 99 177
63 99 178
62 99 176
62 99 178
62 98 173
62 99 176
62 99 176
62 99 174
62 99 175
63 99 177
61 98 170
62 99 175
62 99 177
62 99 174
62 99 178
62 99 175
62 99 177
62 99 176
61 98 175
62 98 174
62 98 172
62 99 177
62 99 177
62 99 176
62 99 174
62 98 174
62 98 172
61 98 176
62 99 177
62 99 173
63 99 173
62 99 174
62 99 176
62 99 177
62 99 170
62 99 175
62 99 173
62 99 175
62 99 176
62 99 175
62 99 174
62 98 174
62 99 172
61 97 169
62 99 173
62 99 176
61 98 168
62 99 174
62 99 177
63 99 174
63 100 174
62 98 168
62 99 171
62 99 175
61 98 168
62 98 170
63 99 174
62 98 169
62 99 172
62 98 167
61 97 166
62 99 172
63 99 173
62 98 170
63 99 173
61 98 165
63 99 168
61 98 169
62 98 164
62 98 168
61 97 168
61 97 164
61 96 164
62 98 171
62 97 162
61 97 170
61 96 161
62 98 166
61 96 162
61 97 164
60 96 161
61 95 159
62 97 161
61 96 162
59 94 153
60 94 152
60 94 153
59 93 153
62 80 106
70 75 65
60 65 48
56 63 48
57 64 47
62 66 42
57 64 45
67 71 46
66 71 45
82 86 60
80 84 54
76 82 54
70 75 50
87 92 57
82 87 60
109 110 69
100 102 64
94 97 60
109 109 67
108 110 65
110 111 70
113 113 70
113 115 72
116 116 67
108 109 63
118 118 73
119 119 70
128 127 71
119 120 74
130 128 76
132 130 76
133 132 81
136 134 81
140 138 85
137 135 83
138 137 83
139 137 82
138 136 82
149 146 83
148 145 81
137 136 80
148 146 83
146 143 89
151 148 88
148 145 81
152 148 82
154 150 84
148 145 82
159 154 90
154 150 79
149 145 77
153 149 79
164 159 93
161 155 87
163 158 88
163 157 84
162 157 89
157 154 84
164 158 85
165 160 90
158 153 84
166 159 88
164 160 89
167 161 85
165 160 89
169 163 90
168 162 90
166 160 90
169 162 87
166 161 82
163 157 85
176 168 96
169 164 89
173 166 94
171 164 91
171 164 91
169 163 91
172 165 93
168 162 83
167 160 87
165 158 86
171 164 91
170 163 88
169 163 88
166 159 86
166 161 85
174 166 89
169 162 93
161 155 78
166 160 79
166 159 83
162 157 79
164 157 83
165 160 84
169 162 88
164 157 82
165 160 80
164 156 80
164 158 84
166 158 84
161 155 80
165 159 88
166 159 81
165 158 84
164 156 86
162 155 79
161 155 82
156 150 74
153 147 73
153 148 69
161 155 76
151 146 68
153 147 76
157 150 78
150 144 73
152 146 74
145 139 64
156 150 77
152 146 70
151 146 64
142 135 60
155 148 75
143 137 64
142 137 63
146 141 67
144 138 62
146 139 65
130 125 60
149 144 61
146 144 58
143 147 54
147 150 52
150 156 45
151 162 34
156 169 36
158 173 22
166 182 25
164 182 25
168 188 16
167 189 0
171 194 0
173 196 0
173 196 0
173 196 0
169 193 0
168 192 0
173 196 0
171 194 0
173 196 0
171 195 0
171 194 0
173 196 0
173 196 0
171 195 0
173 197 0
174 197 0
168 192 0
171 195 0
171 195 0
172 196 0
170 194 0
171 194 0
172 195 0
170 192 0
172 196 0
172 195 0
171 195 0
171 194 0
170 193 0
172 196 0
171 195 0
173 196 0
170 194 0
172 196 0
170 193 0
169 192 0
169 192 0
172 195 0
173 195 0
175 198 0
171 194 0
173 195 0
172 195 0
171 194 0
174 197 0
168 191 0
171 195 0
171 195 0
173 196 0
170 194 0
171 195 0
174 196 0
172 195 0
170 193 0
172 196 0
170 194 0
173 197 0
173 197 0
171 195 0
172 196 0
172 196 0
172 195 0
174 197 0
169 193 0
171 194 0
172 195 0
172 196 0
171 193 0
168 191 0
169 192 0
167 191 0
170 194 0
169 193 0
171 194 0
168 191 0
171 194 0
171 195 0
167 191 0
171 195 0
173 196 0
171 195 0
173 196 0
169 194 0
172 195 0
170 193 0
170 193 0
170 193 0
169 191 0
170 193 0
169 193 0
168 192 0
146 170 82
63 99 164
62 99 165
62 98 164
63 99 169
62 98 161
61 97 158
62 98 161
62 98 169
62 98 164
62 98 167
61 98 163
62 99 169
63 99 172
62 98 164
61 97 162
63 99 171
62 99 171
61 98 171
62 99 175
62 99 169
63 99 179
62 99 178
63 99 176
63 99 176
62 99 172
62 98 173
62 99 173
62 98 171
62 99 175
62 99 174
62 99 173
63 99 176
63 99 174
62 98 171
62 98 174
62 98 172
62 99 177
62 99 175
62 99 173
61 98 170
61 98 170
62 99 174
63 99 176
63 100 180
62 99 175
62 99 174
62 99 177
62 99 175
62 99 174
62 99 174
62 99 180
62 99 176
63 99 178
62 99 175
62 99 176
62 99 176
62 99 178
62 99 181
61 98 174
62 99 177
61 98 177
62 99 174
63 100 180
62 99 173
62 99 176
62 99 177
61 98 172
62 99 176
63 99 177
62 99 180
63 99 178
62 99 178
62 99 176
62 98 176
63 100 176
62 98 171
62 99 176
61 98 174
62 99 176
62 99 175
61 98 168
62 99 176
62 99 172
63 99 175
62 99 175
61 98 174
62 99 178
62 99 176
61 98 174
62 99 177
62 98 175
62 98 171
61 98 172
62 99 175
62 99 177
62 98 169
62 99 173
62 99 174
62 99 178
61 98 173
62 99 174
62 99 181
62 99 177
62 99 174
62 99 174
62 99 174
62 99 176
63 100 178
62 99 174
62 99 178
62 98 172
62 99 172
62 99 177
62 99 177
63 100 176
61 98 173
62 99 175
62 99 171
62 99 171
62 98 169
62 99 175
62 99 172
63 99 173
62 99 176
62 98 172
62 99 171
62 99 177
62 99 174
63 99 173
63 99 177
62 99 173
62 99 171
62 98 166
62 98 170
62 98 168
62 98 171
63 99 170
63 99 172
61 98 172
61 97 167
62 99 173
61 97 160
62 98 167
61 98 169
62 98 165
62 99 169
63 99 174
62 98 167
62 98 165
62 98 167
62 98 170
62 98 170
62 98 162
62 97 167
61 97 165
63 98 164
62 97 162
62 98 161
62 98 167
60 96 159
61 96 161
61 96 167
60 95 163
62 97 163
60 94 147
60 94 157
60 93 153
59 92 147
62 88 132
51 62 61
52 56 35
45 52 37
61 67 46
51 58 40
64 68 44
70 75 49
56 63 43
72 76 46
79 82 52
86 89 55
84 88 57
90 94 62
94 97 60
91 95 62
94 97 58
100 102 65
86 91 61
110 111 65
104 106 66
103 104 64
104 106 67
107 109 72
114 115 68
128 127 78
111 111 64
123 123 70
122 122 69
138 136 81
131 129 79
130 129 80
135 133 78
140 137 79
140 138 81
137 135 78
139 137 82
142 140 77
134 133 78
144 142 82
151 147 79
150 146 82
152 148 85
152 149 81
144 141 85
157 152 90
152 148 84
154 150 83
156 152 88
155 151 80
161 156 87
151 147 81
160 155 89
160 156 88
166 160 89
160 155 88
165 159 93
158 154 87
163 158 89
158 153 85
165 159 86
163 158 84
164 159 87
163 158 84
165 160 87
170 164 94
169 162 87
169 163 95
165 159 83
170 164 89
163 158 83
164 159 81
166 159 84
165 158 87
174 168 95
172 166 91
167 161 89
169 162 90
174 167 95
173 165 87
169 162 92
172 165 90
172 164 90
168 161 89
172 165 91
175 168 95
167 161 87
168 161 85
165 160 89
172 164 87
167 161 87
169 162 84
166 159 83
166 159 81
166 159 77
167 160 84
167 160 90
157 150 74
164 158 80
165 158 83
162 155 87
158 151 75
162 155 82
168 160 84
154 149 69
161 155 80
158 151 75
163 156 82
160 152 81
159 153 79
158 152 70
155 149 71
149 143 63
154 148 74
157 150 80
155 148 72
160 154 75
149 143 65
152 145 72
142 138 59
143 138 64
141 135 63
148 142 69
141 136 64
141 136 63
146 141 65
142 136 61
132 128 56
136 134 57
141 139 53
144 145 47
147 148 56
150 156 49
156 171 30
158 168 42
158 174 22
160 177 22
167 186 22
170 193 11
169 189 0
170 193 0
170 189 0
174 197 0
170 193 0
173 196 0
172 195 0
171 195 0
171 194 0
170 194 0
174 197 0
172 196 0
170 194 0
173 196 0
172 194 0
172 196 0
169 193 0
172 195 0
171 195 0
174 196 0
173 195 0
173 196 0
170 193 0
170 194 0
172 195 0
174 197 0
172 195 0
172 195 0
169 193 0
172 195 0
171 194 0
174 196 0
167 191 0
172 195 0
171 194 0
171 195 0
172 195 0
169 193 0
169 193 0
174 197 0
174 198 0
171 194 0
174 196 0
173 196 0
173 196 0
170 193 0
170 194 0
170 194 0
170 193 0
169 193 0
171 195 0
173 195 0
170 193 0
172 196 0
170 193 0
170 193 0
172 196 0
173 197 0
173 197 0
172 196 0
169 192 0
171 194 0
173 196 0
171 195 0
173 196 0
172 195 0
172 195 0
169 192 0
169 192 0
169 192 0
172 195 0
172 195 0
172 194 0
170 193 0
170 193 0
169 192 0
171 194 0
170 194 0
172 196 0
167 191 0
171 194 0
168 191 0
170 193 0
169 193 0
168 192 0
166 189 0
172 196 0
169 193 0
172 195 0
169 191 0
170 192 0
169 192 18
107 134 133
62 97 154
61 97 162
61 98 162
63 99 167
62 98 165
61 97 162
63 99 168
61 98 167
63 99 167
62 98 168
63 99 173
62 99 171
62 98 169
61 98 164
63 100 176
62 98 168
62 99 176
63 99 177
62 98 168
62 99 175
62 99 177
62 98 173
62 98 172
61 98 171
62 99 171
62 98 173
62 99 174
62 99 179
61 98 174
62 99 174
61 98 173
62 98 167
61 98 172
62 99 170
61 98 172
62 99 173
62 99 173
61 98 169
62 99 175
62 99 175
62 99 177
62 99 179
63 99 176
63 99 172
62 99 176
62 99 175
63 99 173
62 99 174
63 100 174
62 99 176
62 99 176
62 99 180
62 99 174
62 99 176
61 98 172
63 100 180
62 98 174
63 99 178
62 99 177
62 99 175
62 99 179
61 98 171
63 99 176
62 99 175
63 99 176
62 99 175
61 98 175
62 99 175
62 99 176
62 99 177
62 99 177
62 99 175
61 98 173
63 100 178
62 99 175
62 99 175
61 97 171
62 99 175
62 99 173
61 98 175
63 99 176
63 100 179
63 99 174
62 99 176
63 100 180
62 99 175
62 99 175
61 98 175
62 99 178
62 99 173
62 99 175
62 99 176
62 99 174
62 98 172
62 99 169
62 99 174
63 99 178
62 99 175
62 99 177
62 99 174
62 99 176
62 99 176
62 99 178
63 99 171
63 100 175
62 99 174
62 99 172
63 100 180
63 99 174
63 100 178
61 98 171
62 99 175
63 99 176
62 98 173
62 99 175
61 98 171
62 98 171
61 98 175
62 98 167
62 98 169
62 98 169
63 99 171
62 99 173
61 98 168
62 99 174
62 99 169
62 99 177
62 99 175
62 99 174
63 99 173
63 99 169
62 98 170
62 98 169
63 100 177
61 97 168
62 99 172
61 98 168
62 99 174
62 98 169
62 98 172
63 99 170
63 100 177
62 99 171
63 99 177
63 99 170
62 98 170
63 99 171
61 97 157
61 98 167
62 99 172
62 98 171
62 98 165
62 98 167
62 98 170
62 99 171
62 97 167
62 98 172
62 98 169
61 97 160
62 98 162
61 96 160
62 97 162
61 97 165
61 95 160
59 93 147
61 96 160
58 93 154
60 94 151
63 92 142
61 76 96
55 62 44
47 53 37
43 51 37
63 69 42
59 65 43
64 69 44
69 73 49
75 78 52
69 75 52
79 84 54
83 88 57
89 91 54
79 83 52
91 95 62
88 91 56
95 98 63
99 101 58
108 109 67
108 109 66
111 112 70
116 115 72
122 121 71
114 114 73
111 111 68
126 125 74
118 119 78
115 117 72
129 128 79
126 126 73
129 128 72
126 127 75
135 133 81
129 129 80
143 140 80
134 133 76
136 135 81
146 143 79
141 139 80
139 138 79
141 139 83
150 147 85
151 147 78
150 147 84
151 147 84
152 148 84
155 150 81
151 148 84
155 151 86
156 152 83
160 154 85
157 152 86
155 151 82
158 154 86
160 155 82
160 155 86
167 162 92
164 158 87
168 161 89
162 156 82
164 158 90
160 155 86
165 159 91
159 155 83
170 164 90
172 165 90
169 162 86
169 163 89
171 164 87
167 162 89
169 162 94
170 163 89
166 159 87
170 163 89
169 162 90
169 162 85
169 163 88
171 164 87
170 163 90
174 167 87
167 160 85
170 163 86
166 160 82
172 165 85
165 158 87
166 161 83
165 158 83
166 160 84
165 159 84
170 163 84
160 155 76
166 160 85
163 157 79
171 164 87
171 164 87
160 154 80
161 155 80
161 155 72
164 157 80
159 151 73
161 154 78
159 154 80
158 151 74
158 153 78
155 149 71
159 152 78
158 152 73
158 152 80
151 146 73
153 146 72
157 151 76
152 146 75
148 142 62
152 146 70
154 147 77
157 151 72
152 146 71
154 148 68
156 148 77
141 137 60
143 137 62
137 132 60
147 141 68
130 125 53
141 135 60
141 136 54
139 134 59
149 148 58
144 144 56
153 157 54
145 150 42
150 158 41
152 164 30
167 179 39
157 172 28
157 173 28
166 185 11
170 190 0
169 191 11
172 194 0
169 191 0
173 197 0
170 194 0
174 197 0
172 196 0
170 194 0
172 196 0
172 196 0
172 196 0
174 197 0
173 196 0
173 197 0
174 197 0
173 197 0
169 194 0
171 194 0
171 194 0
171 194 0
172 195 0
173 197 0
174 197 0
172 196 0
173 196 0
172 195 0
173 196 0
172 196 0
170 194 0
173 196 0
172 195 0
172 195 0
169 192 0
172 196 0
173 196 0
171 195 0
170 193 0
171 194 0
173 196 0
170 194 0
170 194 0
171 194 0
173 196 0
172 195 0
173 196 0
171 194 0
173 195 0
169 193 0
168 192 0
171 195 0
174 196 0
172 195 0
173 195 0
172 195 0
171 193 0
171 194 0
169 192 0
168 191 0
169 193 0
173 196 0
173 196 0
168 191 0
173 196 0
169 192 0
173 196 0
173 196 0
171 194 0
171 195 0
172 194 0
167 190 0
170 193 0
171 193 0
172 195 0
166 189 0
169 193 0
172 196 0
170 194 0
169 193 0
167 191 0
168 191 0
171 194 0
170 192 0
171 194 0
172 195 0
169 193 0
167 189 0
170 194 0
171 194 0
171 194 0
170 193 0
168 193 0
160 184 47
78 110 149
62 98 157
61 97 157
62 99 167
62 98 163
61 97 161
61 98 164
62 99 168
62 98 164
60 97 158
62 98 166
63 99 171
62 99 171
61 97 161
62 98 166
63 99 172
62 98 167
62 99 175
62 99 175
62 98 169
62 98 169
63 99 172
62 98 171
62 99 173
62 98 172
62 99 172
62 99 176
61 98 168
62 99 175
62 99 174
62 99 172
63 100 176
62 99 173
62 99 171
62 99 173
62 99 172
62 99 173
63 99 176
62 99 176
61 98 174
63 100 179
62 99 175
62 99 176
62 99 173
62 99 178
62 98 171
62 99 172
63 99 176
63 100 179
61 98 175
62 99 175
63 100 177
62 99 177
62 98 171
62 99 176
62 99 176
62 99 176
62 99 177
62 99 173
62 99 176
62 99 173
62 98 172
62 98 170
62 99 174
63 100 178
62 99 172
62 99 178
62 99 177
62 99 177
62 98 174
62 99 174
62 99 179
62 99 176
62 99 175
62 99 174
62 99 174
62 99 176
63 100 180
62 99 176
62 99 178
62 99 174
62 99 172
62 99 176
62 99 175
62 99 172
62 99 173
61 98 169
62 99 173
62 99 176
63 99 178
62 99 176
62 99 175
63 99 172
62 99 176
63 100 179
62 99 172
63 99 175
62 99 177
62 99 173
62 99 177
62 99 175
63 99 171
63 99 177
63 100 178
62 98 170
62 99 176
63 100 177
62 99 172
62 99 173
62 99 175
62 98 171
61 98 168
62 99 168
61 98 169
62 99 174
62 99 172
62 99 174
61 98 171
62 99 170
61 98 172
62 99 174
62 99 176
62 98 170
62 99 170
62 99 176
61 98 172
62 99 171
62 98 171
62 98 170
62 99 171
62 99 168
63 99 173
61 98 172
62 99 173
62 98 166
63 99 171
62 99 170
62 99 171
63 99 168
62 98 170
62 98 167
61 97 166
61 97 165
62 99 168
62 98 173
61 98 168
62 99 174
62 99 171
62 99 169
61 97 165
62 98 170
62 98 170
62 99 169
61 98 168
63 99 171
61 97 159
62 97 164
61 97 166
62 98 166
61 96 162
60 95 156
62 97 162
61 96 164
61 96 158
60 95 155
61 96 158
61 95 159
61 94 151
60 94 153
60 93 152
54 76 105
49 59 49
53 59 38
65 70 46
60 65 44
68 73 42
71 76 49
56 62 45
51 58 37
76 81 48
70 76 50
73 78 50
79 83 52
82 85 50
72 76 47
96 98 60
106 107 65
93 95 59
97 100 56
93 96 58
104 105 66
93 94 59
104 105 65
123 122 68
114 115 65
123 122 78
121 121 77
132 130 76
132 129 71
126 125 72
126 125 74
125 124 71
137 135 75
140 137 82
135 134 79
139 137 84
138 137 83
143 141 80
146 142 84
143 141 74
140 137 80
141 138 75
154 150 80
157 152 88
146 143 79
147 144 75
159 154 85
162 156 88
155 151 78
157 152 85
156 152 81
156 151 76
158 153 81
162 157 90
162 157 85
160 155 85
164 158 80
167 160 90
165 160 87
167 162 93
167 162 88
162 157 85
162 156 84
166 160 86
159 155 79
167 162 86
162 157 82
164 158 88
167 160 88
168 162 87
167 161 87
167 162 83
166 160 86
165 159 84
168 162 87
168 161 85
164 158 83
172 165 85
171 164 88
171 163 86
166 160 84
167 160 87
168 162 84
167 161 87
162 156 76
165 159 82
165 159 80
171 163 87
163 157 84
170 163 86
161 154 80
164 158 82
164 158 81
161 155 80
167 161 85
165 159 81
159 152 80
168 161 83
165 158 84
156 151 68
154 149 74
164 157 81
164 156 80
167 160 80
154 149 69
153 147 73
152 147 70
158 152 75
157 149 75
156 150 75
154 148 77
154 148 71
156 149 74
156 149 71
147 142 69
153 147 66
151 145 72
147 140 66
150 145 67
147 141 62
149 144 63
142 137 67
140 134 59
140 134 63
136 130 58
138 133 51
144 141 54
147 148 58
146 146 52
142 146 45
155 162 47
151 160 37
155 169 32
165 179 37
163 180 19
160 176 19
169 190 16
171 192 11
172 194 0
170 191 0
172 192 0
172 196 0
172 194 0
172 196 0
172 196 0
172 196 0
172 196 0
172 195 0
172 196 0
174 197 0
171 195 0
171 194 0
172 195 0
173 197 0
170 195 0
173 197 0
173 196 0
171 195 0
172 195 0
172 196 0
171 195 0
171 195 0
173 196 0
170 194 0
171 195 0
172 196 0
174 197 0
170 194 0
171 194 0
171 195 0
173 196 0
171 195 0
170 193 0
174 197 0
167 190 0
171 195 0
171 195 0
173 196 0
171 194 0
170 194 0
171 195 0
169 192 0
170 194 0
168 191 0
170 194 0
174 197 0
171 193 0
171 194 0
171 195 0
171 194 0
169 192 0
170 194 0
173 196 0
170 194 0
169 193 0
169 192 0
170 195 0
171 194 0
165 188 0
171 195 0
167 191 0
169 192 0
171 195 0
171 194 0
170 194 0
169 192 0
167 191 0
172 195 0
170 193 0
171 194 0
171 195 0
170 194 0
170 193 0
168 191 0
171 194 0
170 194 0
170 192 0
170 193 0
168 192 0
169 192 0
172 195 0
170 193 0
169 192 0
167 190 0
168 192 0
168 191 0
170 193 0
171 194 0
169 191 0
144 168 95
62 98 163
62 98 162
62 98 162
62 99 168
62 99 167
61 97 162
62 98 165
62 98 166
62 99 174
62 99 168
62 98 164
62 98 165
62 99 172
62 98 167
61 98 167
62 99 169
62 98 173
62 99 167
62 99 171
62 99 172
62 98 171
62 98 164
62 98 173
63 99 176
62 99 171
62 99 175
62 99 172
62 99 172
61 98 169
63 99 175
63 99 176
63 100 179
62 99 175
62 99 177
63 100 178
62 99 175
63 99 176
62 99 175
63 99 176
63 99 177
62 99 176
62 99 173
62 98 172
63 99 176
61 98 176
62 99 177
62 98 173
61 98 174
63 99 176
62 99 177
62 99 175
62 99 174
61 98 173
62 99 176
61 98 176
62 99 176
62 99 177
61 98 173
62 99 175
62 99 177
62 98 173
62 99 178
62 98 171
62 99 173
62 99 176
62 99 172
62 99 175
63 99 176
62 99 174
62 99 176
62 99 180
62 99 177
62 99 177
62 99 175
62 99 175
62 99 176
62 99 176
62 99 175
62 98 168
62 99 174
62 99 175
62 99 176
62 99 176
62 99 175
62 99 179
62 99 175
62 99 176
62 99 175
61 98 171
62 99 177
62 99 173
62 99 176
62 98 172
62 99 175
62 99 174
62 99 177
62 99 176
62 99 174
62 99 176
62 99 174
62 99 172
63 99 173
62 98 169
62 99 173
62 99 173
63 100 177
61 98 169
63 99 173
61 98 171
63 100 179
62 99 174
62 99 176
62 98 173
62 98 171
61 98 170
61 98 171
61 98 168
62 99 173
62 99 173
62 99 174
62 99 171
62 99 173
63 99 173
62 99 174
62 99 171
61 98 172
62 99 172
62 99 172
62 99 172
63 100 177
61 98 163
62 99 171
62 99 172
61 98 169
61 98 168
62 99 169
63 99 174
62 98 172
63 99 172
63 99 170
62 98 168
61 98 163
62 98 170
63 99 174
62 98 167
63 99 171
60 96 159
60 96 164
61 98 167
62 98 167
62 99 171
63 99 171
62 98 165
63 99 167
62 99 170
61 97 167
62 97 163
62 98 172
62 97 162
62 98 168
60 95 157
60 95 159
62 97 159
62 98 167
61 96 160
59 93 151
61 96 163
60 93 149
58 92 152
59 93 145
55 82 121
44 56 64
53 57 42
57 61 42
61 66 46
64 69 47
75 78 53
50 57 38
77 81 49
61 66 44
84 88 55
68 73 50
85 88 56
86 89 53
99 100 59
85 90 58
91 94 60
101 102 63
108 109 65
105 107 62
104 105 67
102 105 63
117 117 70
118 117 69
111 111 68
126 125 73
123 123 72
114 114 71
127 124 69
122 122 66
128 127 72
125 124 69
139 136 75
132 132 76
146 142 82
137 135 81
148 145 82
146 142 84
138 136 79
140 138 75
145 142 77
145 141 78
151 148 82
149 147 85
159 154 87
155 150 86
155 150 81
154 149 83
152 148 78
157 152 86
158 154 87
161 156 91
166 159 88
158 154 79
155 150 81
162 157 85
164 159 86
160 155 86
165 158 86
162 157 83
170 164 93
162 156 83
162 157 86
164 158 84
162 155 84
166 160 84
170 163 92
166 160 81
165 160 83
162 157 86
165 159 84
165 158 84
165 159 75
162 156 80
166 160 80
169 162 80
168 162 85
166 160 88
164 158 75
164 157 82
171 165 86
167 161 83
170 163 85
169 161 83
173 166 87
168 161 80
167 161 86
163 157 80
172 165 95
168 160 86
164 157 82
164 158 80
167 160 80
164 157 84
157 151 76
164 158 82
160 155 76
158 151 80
158 152 77
165 157 83
159 153 73
156 150 74
159 153 76
164 157 83
161 154 76
160 153 81
153 147 69
157 151 67
155 149 68
161 154 80
157 150 80
155 149 73
146 141 68
147 141 66
151 145 60
149 144 68
143 137 62
143 137 61
149 142 71
147 141 67
148 141 67
143 138 65
147 142 67
142 135 58
140 134 57
132 129 52
141 136 64
147 146 49
135 137 39
151 154 51
147 152 44
147 157 37
149 159 34
165 183 19
166 184 22
167 188 11
170 189 11
170 191 0
172 194 0
170 192 0
171 193 0
170 192 0
171 195 0
171 195 0
175 198 0
172 196 0
173 196 0
172 195 0
172 195 0
171 194 0
171 194 0
172 196 0
174 197 0
172 196 0
170 192 0
169 193 0
174 197 0
171 193 0
170 194 0
173 196 0
173 196 0
171 195 0
172 195 0
171 194 0
172 195 0
173 197 0
170 192 0
172 195 0
173 196 0
171 194 0
166 190 0
170 194 0
172 195 0
171 195 0
169 193 0
173 196 0
171 195 0
171 194 0
172 195 0
170 194 0
170 193 0
170 193 0
170 193 0
171 195 0
173 196 0
170 193 0
171 195 0
171 195 0
172 196 0
167 190 0
172 196 0
172 195 0
172 196 0
171 195 0
171 194 0
170 193 0
173 196 0
169 193 0
170 194 0
173 196 0
170 193 0
172 195 0
169 192 0
172 195 0
169 192 0
172 196 0
169 192 0
169 192 0
166 189 0
171 194 0
170 194 0
171 194 0
167 190 0
168 192 0
170 193 0
170 192 0
172 195 0
170 193 0
172 195 0
168 191 0
167 190 0
168 191 0
169 193 0
170 194 0
171 194 0
171 194 0
170 193 0
168 191 0
166 190 18
108 135 130
61 97 156
62 98 163
62 98 166
61 98 162
61 97 159
62 99 167
62 98 163
62 98 166
62 98 166
62 99 170
62 99 168
61 97 168
63 99 169
63 99 168
63 99 173
62 99 168
62 98 168
62 98 170
62 99 170
63 99 174
62 98 166
62 98 167
62 98 169
62 99 173
62 99 170
62 99 167
63 99 172
62 99 174
62 99 174
62 99 171
62 99 171
62 98 173
63 99 178
62 98 171
61 98 170
62 99 178
63 99 178
62 99 173
62 99 175
62 99 175
61 98 177
62 99 177
62 99 177
63 99 175
62 99 174
62 99 174
62 99 176
62 99 177
62 99 176
62 99 175
61 98 175
62 99 177
63 100 178
62 99 171
62 99 177
62 99 180
62 99 177
62 99 173
62 99 174
63 99 177
62 99 174
62 99 176
62 99 175
62 99 177
62 98 171
62 99 175
62 99 170
62 99 177
61 98 174
63 100 179
61 98 173
62 99 177
63 99 177
62 98 172
62 99 178
62 99 177
62 99 177
62 99 176
62 99 174
63 99 175
62 99 175
62 99 172
62 98 170
62 99 172
62 99 178
62 99 172
62 99 175
62 99 172
62 99 176
62 99 175
62 98 174
62 99 173
62 99 169
61 98 168
61 98 173
62 99 173
62 99 176
62 98 174
62 99 175
63 99 173
62 98 169
62 99 176
62 99 174
62 99 175
63 100 173
62 99 174
62 99 172
62 99 175
61 98 170
62 99 174
62 99 175
61 98 170
62 99 175
62 98 167
63 99 177
61 98 175
63 99 169
62 99 174
62 99 174
62 99 178
62 99 171
62 98 170
62 99 171
62 99 176
63 99 171
62 99 171
63 99 174
62 99 173
62 99 171
62 99 175
63 99 170
63 99 170
62 98 169
61 98 165
63 99 173
62 98 166
62 98 170
61 97 165
62 99 173
62 98 168
62 99 173
61 98 167
62 98 168
62 98 171
61 97 159
62 99 173
62 99 169
62 98 164
62 99 169
63 99 170
62 99 174
61 97 164
63 99 174
62 97 160
62 98 166
62 98 167
61 97 160
62 98 169
62 98 169
61 97 164
61 97 166
61 97 161
61 96 162
61 96 164
62 99 171
61 96 162
60 95 153
60 94 150
61 95 148
59 92 149
58 88 131
56 71 88
49 56 42
62 67 46
48 56 39
50 56 39
65 69 38
52 60 43
64 69 45
69 73 45
78 83 52
77 82 55
84 88 56
92 93 59
93 96 57
92 94 53
87 91 53
98 100 63
97 99 58
96 99 58
102 103 59
114 115 70
114 115 71
125 123 75
112 113 66
107 109 64
106 106 56
125 124 70
125 124 71
122 121 73
128 126 69
144 141 78
121 121 70
130 129 70
139 137 73
131 129 72
143 141 79
141 138 73
143 141 82
144 141 77
143 139 76
150 146 82
155 150 88
147 144 79
145 142 79
151 147 81
153 149 85
154 150 76
149 145 78
157 152 83
154 151 80
162 157 81
158 153 79
159 153 83
158 153 79
157 152 87
162 156 91
164 159 88
164 158 87
165 159 86
160 155 80
163 158 84
163 158 86
167 161 85
164 158 89
166 159 86
162 156 82
158 154 75
157 152 78
168 161 85
171 163 89
171 164 92
169 163 85
173 166 88
171 164 93
166 159 86
166 159 82
167 161 84
167 160 84
167 160 90
169 162 87
172 165 90
158 153 78
169 163 89
173 166 91
165 159 80
165 158 85
169 162 87
162 155 78
163 157 81
159 153 74
163 157 76
158 153 78
162 156 75
166 158 86
161 154 79
163 156 83
161 155 74
157 152 73
165 158 81
159 154 73
153 148 72
152 146 71
156 150 72
159 151 74
155 149 74
162 155 78
150 144 71
152 146 66
152 146 68
159 153 76
153 148 67
150 144 67
146 140 66
150 143 68
139 134 51
160 153 73
145 139 61
147 142 66
140 135 57
137 133 53
141 134 65
139 133 58
137 132 59
131 126 59
133 132 47
138 136 52
134 134 48
146 149 48
149 152 49
155 166 34
152 164 36
159 173 34
155 169 30
160 178 11
163 183 11
168 187 0
169 192 0
171 193 0
169 192 0
167 189 0
171 195 0
173 196 0
173 196 0
173 197 0
171 195 0
173 196 0
174 197 0
173 197 0
171 195 0
170 194 0
173 196 0
172 196 0
173 196 0
173 195 0
170 194 0
171 194 0
172 196 0
169 192 0
172 196 0
174 196 0
171 195 0
172 195 0
172 195 0
172 195 0
173 196 0
169 193 0
171 194 0
172 196 0
171 195 0
171 195 0
171 194 0
170 194 0
172 195 0
173 196 0
172 196 0
171 194 0
170 192 0
170 194 0
170 194 0
171 194 0
172 195 0
173 197 0
173 196 0
170 193 0
172 196 0
171 194 0
169 192 0
172 195 0
172 195 0
170 194 0
167 190 0
171 195 0
172 195 0
171 195 0
169 192 0
171 194 0
168 192 0
170 193 0
171 195 0
167 191 0
171 195 0
171 195 0
170 193 0
168 191 0
169 192 0
167 192 0
171 194 0
169 192 0
171 193 0
172 195 0
167 191 0
171 195 0
171 196 0
172 196 0
175 197 0
168 192 0
169 191 0
172 194 0
168 191 0
165 189 0
168 191 0
168 191 0
170 193 0
167 190 0
167 190 0
168 190 0
169 192 0
160 185 54
73 106 156
62 98 164
61 97 159
62 98 159
62 98 163
62 98 164
62 98 161
61 97 163
61 97 159
61 97 158
62 98 164
61 98 164
62 99 174
62 99 169
62 98 169
61 98 170
61 98 170
62 99 167
62 99 172
61 98 168
62 98 167
62 98 171
61 98 170
62 99 175
62 98 170
62 99 174
62 98 169
62 98 174
63 99 176
62 99 173
62 99 174
62 98 167
62 98 175
62 98 168
62 99 174
62 98 170
62 98 171
62 99 171
62 99 175
62 99 176
62 99 175
62 98 170
62 99 178
62 98 170
62 99 175
62 99 177
62 99 174
63 99 177
62 99 172
62 99 179
62 98 176
62 98 173
63 99 174
62 99 174
62 99 177
62 99 172
63 99 174
63 99 175
62 99 177
62 99 176
62 98 171
61 98 173
63 99 172
62 99 177
63 99 177
62 99 178
62 99 178
62 98 173
62 99 175
62 99 174
61 98 175
62 99 176
62 99 170
63 100 178
62 99 178
62 98 172
62 98 173
62 99 174
62 99 173
62 99 173
61 98 166
62 99 175
63 99 177
62 99 174
62 99 177
62 99 173
61 98 163
61 98 169
63 99 173
62 99 174
62 99 177
63 99 175
62 99 168
62 98 168
62 99 175
62 99 173
62 99 173
62 99 175
62 99 174
63 99 175
62 99 173
63 99 172
63 99 175
61 98 173
62 99 172
62 98 172
62 99 174
62 99 176
62 98 172
63 99 174
62 99 175
62 99 173
62 98 172
63 100 178
62 99 177
63 99 172
62 99 174
62 99 171
61 98 169
62 99 175
62 99 170
63 99 174
60 97 164
62 99 171
62 99 173
63 99 174
62 99 176
62 99 172
63 100 174
63 99 176
62 99 175
62 99 171
62 99 174
62 99 170
62 99 174
63 99 176
62 99 167
62 98 168
63 99 175
62 98 169
62 99 170
63 99 171
62 99 171
62 98 169
62 98 170
62 99 173
62 98 170
62 98 164
62 99 165
63 99 172
62 98 163
61 97 164
63 99 168
62 97 161
61 98 167
61 97 167
62 98 168
61 97 158
61 98 165
62 98 166
61 97 162
62 98 168
62 97 165
61 97 161
62 97 164
60 94 151
61 97 160
61 96 161
60 94 152
61 95 156
59 93 157
58 91 147
59 81 112
47 55 50
53 59 41
50 56 32
58 64 42
65 70 43
54 60 36
57 62 34
85 88 58
73 78 47
75 79 46
84 86 55
89 91 49
86 90 56
95 99 56
92 94 58
94 96 50
98 101 59
105 107 66
97 99 49
106 108 62
108 109 68
99 101 62
111 111 61
113 113 65
122 122 69
114 114 67
119 119 71
130 127 72
123 122 68
129 127 69
127 125 67
122 121 73
134 132 72
140 137 78
137 135 79
141 138 80
145 142 77
137 134 73
142 139 76
142 139 77
148 144 79
150 146 79
143 141 73
153 148 80
154 149 83
155 150 84
160 155 83
155 150 81
160 155 81
151 146 81
155 150 79
156 152 78
158 153 78
157 153 81
160 154 81
160 155 83
161 156 83
167 160 86
161 156 84
166 159 83
164 158 81
165 158 80
169 163 89
171 164 84
164 157 84
167 161 86
165 160 78
167 161 89
170 163 89
166 160 82
169 162 81
171 164 89
164 158 80
170 164 82
163 157 75
165 159 83
165 158 80
163 158 79
161 155 81
160 156 75
166 159 80
167 160 82
166 160 80
163 157 80
163 156 84
161 156 70
164 157 78
163 157 79
165 158 79
163 157 79
160 154 77
155 149 74
166 159 83
157 151 71
162 155 76
162 155 75
158 152 74
158 153 73
159 153 73
159 152 75
154 149 72
160 152 79
157 151 68
162 155 75
158 152 67
154 148 70
152 145 70
156 150 75
152 146 66
148 143 64
146 140 66
156 150 68
136 130 58
145 138 64
148 143 63
146 142 54
146 141 60
144 139 60
148 142 60
150 143 70
138 133 54
143 137 62
135 128 56
147 144 60
146 145 52
144 145 49
138 139 47
140 146 41
154 162 36
158 171 36
148 159 25
154 172 11
161 180 16
164 186 11
169 191 0
170 191 0
170 190 0
169 189 0
171 193 0
172 195 0
173 197 0
173 197 0
168 192 0
172 196 0
172 196 0
173 196 0
174 197 0
172 195 0
173 195 0
171 194 0
172 195 0
172 196 0
172 195 0
171 194 0
171 194 0
174 197 0
172 195 0
172 196 0
172 195 0
168 191 0
172 195 0
172 195 0
171 194 0
169 193 0
172 195 0
173 195 0
171 194 0
169 192 0
170 194 0
173 197 0
170 194 0
173 196 0
172 195 0
170 194 0
172 195 0
172 195 0
171 195 0
171 196 0
171 194 0
168 191 0
171 194 0
172 196 0
172 195 0
174 196 0
170 193 0
173 195 0
166 190 0
169 193 0
169 193 0
170 193 0
169 193 0
168 192 0
167 190 0
165 189 0
169 192 0
169 192 0
170 194 0
170 193 0
172 195 0
172 196 0
169 192 0
171 193 0
173 195 0
171 195 0
168 190 0
172 195 0
170 194 0
169 192 0
167 190 0
169 193 0
169 192 0
170 193 0
168 191 0
167 191 0
169 193 0
171 194 0
170 193 0
173 196 0
172 195 0
171 195 0
172 195 0
166 189 0
169 192 0
169 192 0
168 191 0
166 190 0
148 172 88
61 96 151
61 98 163
61 98 160
62 98 163
62 98 165
61 96 151
62 98 165
62 98 166
61 97 161
62 98 164
61 98 164
62 98 168
63 100 177
62 99 168
62 98 166
61 97 161
62 98 161
63 99 169
62 99 171
62 99 168
62 98 168
62 98 169
62 98 167
62 98 170
62 98 171
62 99 172
61 97 167
62 99 172
62 98 168
62 99 172
62 99 172
63 99 172
62 99 172
62 99 174
61 98 169
63 100 177
62 98 172
62 99 171
62 98 170
63 99 174
62 98 173
61 98 172
63 100 177
62 99 175
62 99 177
61 98 171
62 99 177
62 99 169
62 99 174
62 98 174
61 98 176
62 99 175
62 99 175
62 98 174
62 99 175
62 99 174
62 99 175
62 99 175
63 100 176
62 99 173
62 99 175
62 99 177
62 99 175
62 99 177
62 99 171
62 99 175
62 98 168
62 99 172
62 99 174
62 99 177
62 99 174
62 99 176
62 99 176
62 98 172
61 98 175
62 99 174
62 99 175
62 99 176
61 98 173
62 99 177
62 99 171
62 99 176
61 98 173
62 98 170
63 99 176
62 99 175
62 99 177
63 99 175
63 99 176
62 99 173
62 99 173
62 99 176
62 99 174
62 99 174
62 99 172
62 99 173
61 98 170
63 99 173
62 99 172
62 99 175
62 99 175
62 99 175
63 99 176
62 99 176
62 99 173
62 99 176
62 99 173
63 99 174
62 99 176
62 98 171
62 99 170
62 98 172
63 99 172
62 99 173
62 98 174
62 98 167
63 99 173
61 98 172
62 99 171
63 100 178
62 99 172
61 98 168
62 98 171
61 98 167
62 99 173
62 98 167
62 99 171
62 99 172
62 99 170
61 98 167
63 100 172
62 98 167
62 98 167
61 98 166
62 99 170
62 99 174
62 99 171
63 100 174
62 98 166
62 98 173
62 98 173
62 99 174
62 98 169
61 98 167
62 98 170
62 98 165
61 98 164
62 98 166
62 98 167
62 98 167
64 100 171
63 99 170
62 98 162
62 98 168
62 98 161
61 97 164
62 98 170
62 98 170
63 98 167
62 98 161
61 97 164
61 96 158
60 96 156
61 96 161
61 97 158
61 95 155
60 95 156
60 95 154
61 96 165
60 94 149
60 94 157
59 92 146
59 87 137
49 59 57
50 55 35
46 53 37
68 73 35
67 70 37
61 68 40
70 73 46
76 81 49
67 73 44
77 81 50
87 90 54
77 82 54
80 84 49
85 89 55
79 84 53
93 95 56
91 96 61
91 95 57
95 98 51
105 105 63
94 95 55
109 109 57
109 110 64
116 115 61
111 111 62
122 120 70
125 123 73
121 121 71
115 116 69
135 133 72
127 126 69
128 126 70
135 132 75
139 137 77
139 136 75
141 139 71
138 136 71
132 130 65
152 148 80
148 145 76
152 148 81
136 133 69
146 143 75
146 142 78
154 150 80
151 147 84
161 155 84
153 148 78
149 146 80
153 150 78
150 147 78
157 152 80
165 159 91
159 154 80
166 159 85
159 154 79
168 161 86
165 158 87
156 152 79
161 156 76
160 155 80
165 160 83
163 157 84
164 158 84
169 162 89
166 160 87
164 158 82
163 157 84
170 162 91
168 162 88
166 159 84
164 158 84
166 159 80
170 162 84
167 161 85
164 157 82
162 156 81
158 153 78
167 160 79
167 160 85
165 160 79
167 160 81
164 158 78
165 158 82
164 158 84
162 156 83
160 153 81
165 158 80
160 154 78
166 159 76
155 149 64
161 155 75
161 154 75
165 158 84
152 146 68
161 155 77
165 158 79
151 145 72
154 148 74
161 154 78
163 156 78
161 155 75
155 148 78
161 155 78
157 150 75
158 151 75
156 149 67
158 151 79
156 150 72
153 148 67
152 146 71
153 147 67
142 137 58
140 135 59
147 141 59
144 138 66
148 140 65
134 129 54
145 140 59
152 146 73
139 135 52
141 135 61
142 137 59
134 132 47
147 148 52
146 149 52
143 151 36
156 164 42
155 168 36
159 173 25
157 169 34
157 176 0
168 187 25
167 186 16
168 189 0
170 192 0
171 193 0
174 196 0
169 191 0
173 196 0
172 196 0
171 195 0
174 197 0
172 196 0
173 196 0
171 195 0
171 195 0
173 196 0
170 193 0
173 197 0
170 194 0
170 193 0
173 197 0
171 195 0
171 194 0
173 197 0
172 196 0
168 191 0
171 195 0
172 195 0
168 192 0
174 197 0
170 194 0
174 196 0
172 195 0
171 195 0
170 193 0
171 195 0
169 192 0
167 190 0
171 194 0
168 191 0
171 195 0
166 190 0
168 192 0
171 194 0
169 193 0
168 192 0
171 194 0
172 195 0
173 196 0
171 194 0
170 193 0
171 194 0
172 196 0
172 196 0
171 194 0
171 195 0
164 188 0
171 194 0
171 195 0
172 195 0
172 195 0
168 191 0
171 194 0
175 198 0
169 192 0
171 195 0
168 191 0
169 192 0
170 192 0
172 196 0
169 192 0
169 193 0
174 197 0
170 193 0
168 191 0
171 195 0
169 192 0
167 190 0
169 193 0
172 195 0
170 194 0
170 193 0
169 192 0
169 193 0
171 194 0
169 192 0
169 192 0
171 195 0
169 191 0
168 192 0
171 193 0
170 193 0
166 189 0
169 192 25
119 145 117
62 98 161
62 98 158
62 98 161
62 98 160
63 99 166
61 97 160
62 98 165
62 98 164
62 98 169
63 99 168
62 98 165
62 98 167
62 98 166
62 99 171
63 99 172
62 98 168
61 98 165
62 98 169
63 99 168
62 98 168
61 98 163
62 99 171
62 98 167
62 99 171
62 99 170
62 99 171
62 99 171
63 100 177
62 99 171
63 99 176
62 99 175
62 98 172
63 99 175
62 99 178
62 99 171
62 99 175
62 99 173
61 98 175
62 98 170
62 98 173
63 99 175
62 99 174
62 99 175
62 99 175
63 99 176
62 99 174
62 99 177
63 100 177
62 99 174
62 99 174
62 99 177
62 99 175
62 99 175
62 99 176
62 99 174
63 99 175
62 99 175
62 99 170
62 99 178
63 99 173
62 99 175
63 99 176
62 99 175
62 99 175
63 99 174
63 100 178
62 99 174
62 99 175
62 99 172
61 98 173
62 99 177
62 99 175
62 99 174
63 100 174
62 99 172
62 99 175
62 99 179
61 98 173
61 98 172
62 99 173
62 99 174
62 99 174
62 98 175
62 99 173
63 99 175
63 99 176
61 98 174
62 99 178
62 99 173
62 98 172
62 99 174
62 99 171
62 99 176
62 99 177
62 99 172
62 98 169
63 99 175
62 99 176
62 99 171
63 99 174
62 99 177
62 99 173
62 99 170
62 98 174
61 98 168
63 99 173
62 98 169
62 99 173
62 98 172
62 99 173
63 100 176
62 99 173
62 98 170
62 98 172
61 98 175
62 98 171
62 99 173
62 98 170
62 99 174
63 99 173
62 99 167
62 99 173
62 99 173
62 99 171
63 99 170
63 99 171
62 98 171
62 98 169
62 99 175
61 98 169
62 98 171
62 99 171
63 99 174
62 98 171
63 99 171
62 98 165
62 98 171
63 99 173
63 99 171
63 99 173
62 98 172
62 98 170
62 99 172
62 99 170
61 97 167
62 99 175
62 98 171
62 98 167
62 98 167
61 98 164
62 98 165
62 98 162
61 97 163
63 99 171
62 98 165
61 97 162
61 97 163
62 98 164
61 97 165
62 97 159
60 96 160
62 98 166
62 97 160
62 97 161
61 96 156
61 97 162
61 97 158
60 94 155
61 96 158
61 95 153
60 94 157
58 90 143
58 87 138
53 69 87
59 63 37
63 66 40
51 55 33
61 66 33
56 61 39
75 79 46
66 69 39
66 70 44
55 62 38
72 77 46
85 88 54
87 89 44
89 92 55
93 96 64
91 94 55
98 102 57
100 102 61
107 108 61
106 107 64
109 108 63
106 107 59
118 118 62
114 114 71
109 110 62
115 115 62
116 116 65
130 128 72
121 120 66
126 125 72
137 135 71
137 135 74
136 134 72
133 132 73
137 136 70
135 132 69
146 144 76
143 139 74
136 134 74
148 145 78
149 145 80
145 142 79
150 145 75
145 142 71
150 146 75
164 157 86
152 148 75
153 148 78
155 151 83
150 146 78
162 157 83
156 151 83
156 151 80
158 153 81
159 155 86
163 157 83
154 150 82
156 153 76
168 161 86
156 151 78
162 156 78
163 157 75
159 152 82
172 164 87
166 159 84
159 153 75
163 158 77
170 163 82
166 159 80
166 159 81
170 164 89
162 155 82
165 159 81
167 160 86
162 156 80
163 157 82
169 162 86
166 159 84
162 156 72
160 153 76
164 158 80
166 159 81
165 158 83
169 162 81
169 162 80
158 152 71
162 156 72
163 156 76
160 154 75
168 161 85
166 160 80
160 154 76
168 160 78
159 153 75
162 156 79
156 149 74
162 156 75
155 149 65
164 158 76
155 149 67
160 153 74
150 144 76
157 150 74
155 148 71
150 144 68
158 152 70
153 147 65
154 148 73
152 146 67
152 146 70
148 141 64
149 143 64
144 138 62
145 139 63
144 139 59
147 140 62
154 147 71
142 136 61
154 147 67
145 137 65
137 133 52
137 132 54
142 139 58
143 142 53
148 148 63
139 141 42
139 147 41
150 157 30
148 162 28
146 159 22
162 178 28
159 176 19
166 186 19
163 183 0
169 190 0
171 193 0
172 195 0
171 193 0
170 191 0
170 193 0
173 197 0
174 198 0
169 193 0
171 194 0
171 194 0
171 195 0
174 197 0
171 194 0
172 196 0
172 195 0
173 196 0
170 193 0
172 195 0
174 196 0
173 197 0
172 195 0
172 196 0
171 195 0
172 195 0
175 198 0
174 197 0
172 196 0
173 196 0
171 194 0
172 195 0
170 194 0
171 194 0
170 194 0
169 193 0
172 195 0
172 195 0
170 193 0
170 195 0
171 194 0
168 192 0
170 193 0
173 196 0
171 194 0
173 196 0
173 196 0
169 193 0
168 192 0
173 196 0
172 195 0
170 194 0
175 198 0
172 195 0
169 193 0
171 194 0
175 198 0
172 196 0
172 196 0
170 194 0
168 192 0
171 195 0
169 193 0
171 195 0
169 192 0
173 195 0
173 195 0
167 190 0
171 194 0
171 195 0
172 194 0
172 195 0
169 192 0
171 195 0
166 190 0
169 192 0
170 193 0
170 193 0
171 194 0
168 191 0
167 190 0
164 187 0
168 191 0
169 192 0
171 195 0
171 194 0
170 192 0
169 192 0
169 192 0
168 192 0
170 193 0
167 190 0
169 191 18
94 123 142
61 97 158
61 97 158
62 98 162
62 98 159
62 98 165
62 98 167
62 99 168
61 97 165
62 98 166
61 97 167
62 98 161
62 99 171
62 99 169
62 98 165
63 100 171
62 98 168
62 98 173
62 98 166
62 99 168
61 98 165
61 98 165
62 99 171
62 99 173
62 99 174
62 99 173
62 99 172
62 98 172
62 98 169
62 98 171
61 98 170
63 99 175
62 99 174
62 98 170
62 98 172
61 98 164
62 99 170
63 99 174
62 98 170
63 99 177
61 98 168
62 98 170
62 99 177
62 99 174
63 99 169
62 99 178
63 99 176
61 98 172
62 99 175
63 100 177
62 99 171
62 99 174
63 99 176
63 100 175
62 99 172
62 99 175
62 98 173
63 100 179
62 99 171
62 98 170
62 99 177
62 99 173
62 99 174
62 98 169
62 99 175
62 99 174
63 99 173
62 99 177
62 99 175
62 99 172
62 99 171
63 99 176
62 98 173
61 98 170
62 99 178
63 100 176
62 99 175
61 98 176
63 100 174
62 99 177
62 99 171
62 99 170
62 99 173
61 98 173
62 98 170
62 99 174
63 99 173
62 99 176
62 99 175
62 98 170
62 99 175
62 99 174
62 99 175
62 98 171
62 99 176
61 98 169
63 99 176
62 99 175
62 99 174
62 99 174
62 99 173
61 98 170
62 98 170
62 99 173
62 99 177
61 98 170
61 98 173
63 99 174
62 99 172
62 99 172
62 99 172
62 99 168
62 99 169
62 99 169
62 98 170
62 98 172
62 99 174
62 99 173
62 99 176
61 98 167
63 99 169
62 99 173
62 99 174
61 98 165
62 98 166
62 98 168
62 99 170
62 99 175
62 98 169
62 99 169
62 99 169
62 98 169
62 99 170
63 99 171
61 98 164
62 98 169
61 98 166
62 99 170
62 98 166
62 98 168
62 99 172
62 98 170
63 99 173
63 100 170
62 99 172
63 100 174
62 98 170
62 98 166
61 97 159
62 99 167
61 98 167
62 99 169
62 98 164
62 97 158
62 99 169
61 97 160
63 99 169
62 98 168
62 98 162
61 97 165
61 97 161
60 96 156
61 97 166
61 96 155
61 97 160
61 96 162
61 97 162
61 96 155
62 98 163
60 94 152
61 95 156
59 92 151
58 92 147
57 88 137
50 71 101
51 55 30
62 66 40
56 60 27
63 69 44
66 72 40
70 73 40
80 81 46
68 72 42
84 85 47
76 80 49
75 78 40
79 84 48
90 92 54
83 86 49
93 94 49
94 96 50
102 102 60
103 105 60
112 112 65
110 110 64
107 109 62
111 112 59
115 116 69
120 120 71
118 118 63
125 124 68
127 126 70
129 128 76
123 122 73
124 123 67
127 126 64
125 123 66
146 141 78
136 134 72
138 136 72
142 138 74
135 132 70
146 143 70
144 140 73
149 145 80
157 153 83
144 140 78
152 147 76
154 150 80
152 148 73
148 145 77
152 147 80
156 150 78
151 146 78
150 147 74
152 147 74
157 151 76
157 152 75
160 153 80
159 153 81
158 153 79
164 159 80
162 156 81
164 159 80
156 151 77
166 159 82
161 156 73
163 156 84
161 155 82
165 159 78
166 159 82
167 160 83
162 156 76
166 160 80
170 163 86
167 161 83
164 157 78
166 159 80
160 154 80
172 165 90
168 162 78
163 157 79
162 157 77
164 159 79
169 162 80
156 152 71
165 158 80
164 158 82
162 156 75
161 155 76
169 161 84
165 158 78
161 155 74
157 151 75
166 158 84
160 153 73
153 148 66
158 153 72
158 152 68
161 154 75
162 156 76
155 149 69
163 156 79
159 152 74
161 154 75
157 150 70
153 146 67
153 148 75
149 143 66
159 152 76
155 149 67
153 147 64
151 144 64
150 144 67
152 146 63
147 142 61
149 143 65
153 147 61
144 138 53
154 146 72
137 132 60
134 130 57
137 131 53
138 133 56
141 136 60
138 134 52
130 125 49
138 138 49
142 143 54
140 146 36
150 158 42
155 165 44
155 169 28
155 168 25
157 172 22
163 183 19
165 186 11
170 191 0
169 191 0
170 189 0
169 191 0
173 194 0
169 190 0
172 195 0
171 193 0
169 193 0
173 197 0
172 195 0
172 195 0
169 193 0
171 194 0
173 197 0
170 195 0
172 196 0
169 192 0
171 195 0
170 193 0
172 196 0
173 196 0
171 195 0
172 195 0
172 195 0
172 195 0
171 195 0
173 197 0
169 192 0
171 194 0
172 196 0
168 191 0
171 195 0
171 194 0
171 194 0
171 194 0
167 191 0
171 194 0
172 195 0
172 195 0
173 196 0
172 196 0
170 194 0
171 194 0
170 193 0
169 192 0
172 196 0
172 195 0
172 195 0
171 195 0
169 193 0
169 193 0
170 194 0
169 193 0
169 194 0
169 194 0
174 196 0
169 192 0
172 195 0
170 194 0
171 194 0
169 192 0
172 195 0
170 193 0
168 191 0
171 195 0
170 194 0
170 194 0
172 195 0
170 193 0
168 192 0
170 194 0
164 188 0
169 192 0
169 192 0
171 194 0
170 192 0
167 190 0
164 188 0
170 193 0
169 192 0
170 192 0
169 192 0
166 189 0
168 192 0
169 192 0
167 190 0
166 190 0
167 190 0
168 190 0
166 188 0
167 191 0
161 185 62
70 103 158
62 98 166
62 98 160
62 98 159
63 99 170
61 97 159
61 97 155
62 98 160
62 98 164
62 99 166
62 98 164
62 99 171
61 98 169
62 98 168
61 98 166
61 98 162
62 98 167
61 98 165
63 99 173
61 98 171
62 98 165
62 99 169
62 98 165
62 98 166
63 100 178
62 98 170
61 97 168
62 98 168
61 98 167
62 99 170
61 98 169
63 99 172
62 99 173
63 99 175
61 97 167
63 99 174
61 98 171
62 99 172
63 99 175
62 99 174
62 98 175
62 99 177
62 99 174
62 99 176
62 99 173
61 98 171
62 99 172
62 99 173
62 99 175
62 99 172
62 99 175
63 99 178
61 98 171
62 98 174
62 99 174
62 99 172
61 98 173
63 99 174
62 99 176
62 99 172
61 98 176
61 98 171
62 99 175
62 99 176
62 99 176
61 98 169
62 99 175
62 99 174
62 98 172
62 99 176
61 98 170
62 98 169
63 99 173
62 99 173
62 98 167
62 99 177
61 98 171
62 98 174
63 99 175
62 99 174
62 98 173
61 98 172
63 100 177
62 99 177
63 100 176
62 99 176
63 99 176
63 100 177
62 99 173
62 99 172
62 99 172
63 99 173
62 99 172
62 99 177
63 99 171
62 99 174
62 99 174
61 98 172
63 99 172
63 99 173
62 99 174
62 99 175
62 99 174
62 99 176
62 99 173
62 99 171
62 99 173
62 98 166
62 99 173
62 99 175
62 99 174
62 98 167
62 98 170
63 100 178
62 99 171
62 99 175
62 98 169
62 99 176
61 98 171
62 99 172
62 99 169
63 99 177
62 98 170
62 99 172
62 99 173
63 99 174
63 99 168
62 98 168
62 99 170
62 99 172
62 99 172
62 98 169
62 98 164
63 99 169
63 99 170
62 98 166
63 99 174
62 98 164
62 98 166
62 99 170
62 98 169
63 99 170
62 98 165
62 98 167
61 97 161
61 97 165
62 98 168
62 99 170
62 98 168
61 97 164
62 99 170
62 98 161
62 98 171
61 96 164
61 97 161
62 98 168
63 99 163
61 97 162
61 97 159
62 98 166
61 97 160
60 96 156
61 96 164
61 96 162
60 96 166
61 97 160
62 97 156
62 97 161
60 94 152
59 93 153
60 94 146
59 93 147
59 92 145
58 91 145
52 76 109
60 67 51
47 52 33
54 59 34
60 64 34
57 63 42
67 72 39
65 68 40
74 77 38
65 70 37
79 82 46
77 80 45
92 94 58
81 84 42
81 83 51
93 95 49
78 83 52
99 100 54
105 105 61
98 100 52
106 107 58
126 124 58
109 109 52
111 110 64
117 117 63
118 117 63
122 122 66
128 126 69
125 123 63
130 128 72
132 130 70
124 123 69
143 139 73
131 129 66
131 129 70
140 137 69
138 135 68
146 142 75
147 143 77
138 135 77
139 137 71
146 142 76
147 143 74
154 148 78
151 148 79
150 146 83
149 145 76
150 145 76
146 143 77
156 151 78
153 148 78
155 151 80
158 152 79
153 150 75
159 154 71
147 143 73
156 151 77
158 153 71
165 159 83
173 165 90
165 159 86
160 155 77
158 153 77
170 163 81
159 154 78
165 159 82
164 157 80
160 155 76
166 159 82
163 157 75
163 156 73
167 160 83
166 159 84
166 160 80
164 157 83
168 161 87
163 156 80
173 165 85
167 160 84
166 160 80
162 156 81
168 160 81
164 158 75
158 153 74
165 158 82
163 156 80
152 147 64
162 155 76
158 152 75
160 153 79
162 155 80
164 158 78
161 155 69
161 155 74
156 150 74
152 146 65
161 154 75
154 148 71
158 151 73
154 148 67
161 155 75
157 150 70
150 144 62
155 149 66
157 152 65
154 149 62
158 151 73
151 144 64
152 146 73
150 144 68
143 137 62
151 145 67
151 145 72
148 142 59
147 141 64
144 137 62
144 138 64
141 135 49
135 130 48
145 140 57
136 130 64
139 135 47
141 139 48
142 143 51
145 146 45
141 144 44
146 156 34
149 159 34
157 172 25
163 178 22
164 182 19
162 179 11
167 185 0
171 192 0
168 189 0
168 191 0
173 195 0
169 190 0
171 191 0
172 196 0
172 196 0
175 198 0
173 196 0
171 195 0
175 198 0
171 194 0
171 194 0
171 195 0
174 197 0
174 197 0
168 191 0
170 193 0
170 194 0
174 197 0
170 193 0
169 193 0
172 195 0
172 194 0
168 190 0
171 195 0
173 197 0
172 195 0
174 197 0
170 193 0
165 188 0
173 196 0
171 195 0
171 194 0
169 192 0
170 193 0
173 196 0
173 195 0
170 193 0
173 196 0
169 192 0
172 195 0
170 193 0
172 196 0
171 195 0
170 194 0
171 194 0
171 194 0
171 195 0
170 195 0
170 194 0
171 194 0
171 195 0
170 193 0
170 193 0
172 195 0
171 195 0
171 193 0
170 194 0
170 193 0
169 193 0
171 194 0
172 195 0
170 193 0
171 194 0
170 193 0
169 193 0
172 195 0
170 194 0
171 194 0
172 194 0
169 193 0
172 195 0
167 190 0
170 193 0
169 192 0
168 191 0
169 192 0
169 193 0
167 191 0
169 192 0
169 191 0
169 192 0
171 194 0
171 194 0
163 187 0
170 194 0
167 190 0
165 188 0
172 195 0
168 192 0
140 165 88
62 98 157
61 97 152
62 98 161
61 97 160
62 98 163
63 99 162
62 98 159
63 99 169
62 98 163
61 98 161
62 97 158
61 97 163
62 98 161
62 98 164
61 97 165
61 98 163
62 99 169
62 99 172
62 98 169
61 97 165
61 98 166
62 98 167
62 99 172
63 99 174
62 99 174
62 99 168
62 99 171
62 99 173
62 99 175
62 99 171
63 100 178
62 99 175
62 98 168
62 99 170
62 99 175
63 99 176
63 100 175
62 99 174
61 98 168
62 98 171
62 99 174
62 99 175
62 99 178
62 98 169
61 98 173
61 98 170
62 99 172
62 99 176
62 98 171
60 97 166
62 99 174
62 99 174
62 99 175
62 99 170
62 99 173
62 99 173
62 99 169
62 99 175
62 99 174
62 99 171
62 99 176
62 98 171
62 99 173
62 99 176
62 99 177
62 99 179
62 98 172
62 99 177
62 99 177
62 99 175
63 99 176
62 99 175
61 98 170
62 98 174
62 98 168
63 99 177
63 100 175
63 99 176
62 99 172
63 100 178
62 99 174
62 99 169
62 99 175
62 99 174
62 99 174
62 99 174
62 99 175
61 98 171
62 98 170
62 99 175
63 100 177
62 99 175
62 98 170
62 99 171
62 98 170
64 100 179
61 98 166
62 99 172
62 99 171
62 99 167
62 98 166
62 99 173
62 99 172
63 99 176
63 99 172
62 98 170
62 99 175
62 99 172
62 98 166
62 98 170
63 99 170
63 100 179
62 99 173
62 99 171
61 98 174
61 97 168
62 98 171
62 99 172
62 99 173
62 99 170
61 98 169
62 98 171
62 99 173
62 98 168
62 99 172
62 99 176
63 99 169
62 99 169
61 98 163
63 99 168
62 98 173
62 99 171
62 99 172
62 99 170
62 98 168
62 99 171
62 99 169
62 99 168
62 99 166
62 98 169
62 98 167
62 98 165
62 98 166
63 99 171
62 98 165
62 98 164
62 98 169
63 99 170
61 98 169
61 97 162
62 98 165
63 99 169
63 99 171
62 98 164
61 97 167
62 98 163
61 97 165
61 97 162
62 98 163
61 97 162
62 99 165
61 97 161
61 97 156
62 97 164
61 96 161
61 96 151
61 97 165
60 95 159
61 95 159
61 96 157
60 94 148
58 91 143
58 91 138
60 94 146
62 87 134
38 49 53
55 62 38
59 61 32
51 58 38
60 66 31
74 77 40
72 77 38
81 83 39
74 76 37
81 84 46
74 75 39
94 95 52
82 86 46
95 97 52
95 97 51
99 100 51
101 103 59
93 95 54
111 111 55
115 114 64
102 104 59
116 116 63
119 118 64
119 119 62
120 119 65
121 120 62
119 120 65
129 128 64
136 133 70
117 116 60
124 124 60
137 133 72
132 131 70
136 134 70
137 135 70
133 130 61
138 136 72
136 134 68
142 138 72
147 143 75
138 135 68
140 137 72
154 150 78
153 150 75
154 149 74
153 149 75
150 146 77
153 149 77
154 150 73
161 155 80
153 147 75
156 151 79
154 149 77
147 144 76
157 152 79
156 150 75
156 150 76
156 151 78
160 155 78
157 153 75
157 153 73
156 150 65
163 157 75
160 154 76
168 161 80
167 160 84
164 157 80
158 153 68
159 153 73
162 155 75
163 156 75
153 148 67
159 153 73
163 157 73
167 161 77
165 159 77
167 160 81
160 154 75
163 157 80
159 154 67
162 156 72
165 158 80
164 157 81
168 161 81
163 156 79
158 152 70
162 156 75
166 158 76
161 155 72
160 155 70
163 158 81
165 158 80
161 154 69
158 151 69
166 158 80
157 150 75
154 148 70
157 150 72
155 148 69
157 151 72
154 148 71
152 146 62
151 146 70
151 145 65
149 143 67
148 143 67
151 146 63
146 141 69
150 144 68
146 140 61
153 146 71
147 142 58
138 133 60
148 142 64
150 144 62
137 132 52
139 133 48
141 134 60
139 132 58
131 127 52
145 141 52
138 138 45
141 141 45
144 152 34
141 147 28
140 147 41
158 174 25
155 168 28
161 176 32
164 182 16
163 182 11
168 188 0
172 194 0
172 193 0
168 189 0
169 188 0
169 191 0
170 190 0
172 195 0
171 194 0
170 193 0
172 196 0
171 194 0
173 196 0
169 193 0
173 196 0
173 196 0
172 196 0
172 196 0
171 193 0
172 195 0
172 195 0
169 193 0
172 194 0
171 195 0
174 197 0
171 194 0
172 195 0
169 193 0
172 195 0
172 195 0
171 194 0
169 193 0
170 194 0
171 195 0
172 196 0
171 195 0
170 193 0
171 194 0
169 191 0
172 195 0
170 194 0
172 194 0
172 196 0
168 191 0
168 191 0
171 194 0
169 192 0
169 191 0
168 193 0
169 192 0
170 194 0
170 193 0
168 191 0
171 195 0
172 196 0
171 194 0
171 194 0
171 194 0
170 194 0
171 194 0
168 192 0
169 193 0
168 192 0
171 194 0
173 196 0
167 191 0
172 195 0
165 189 0
170 192 0
168 191 0
173 196 0
170 193 0
173 196 0
171 194 0
166 190 0
167 189 0
165 188 0
169 193 0
171 194 0
167 190 0
171 194 0
168 192 0
169 193 0
171 194 0
173 196 0
171 195 0
168 191 0
168 191 0
170 193 0
169 192 0
164 188 0
171 193 0
167 191 18
120 145 125
62 98 160
62 98 160
61 97 161
62 98 164
62 98 164
63 99 170
62 98 161
63 99 167
62 98 163
61 98 170
62 98 164
62 98 160
61 97 160
62 98 166
61 97 160
62 98 164
62 98 166
62 98 167
62 99 172
62 98 161
61 98 168
62 99 169
61 98 169
62 99 171
62 98 170
61 98 171
62 98 168
61 98 170
62 99 173
61 98 171
62 98 173
63 99 175
63 100 175
62 98 168
63 99 172
62 99 173
62 98 168
62 98 168
62 99 177
63 99 176
61 98 168
62 99 175
62 98 168
63 99 169
62 98 169
63 99 175
61 98 166
62 99 174
62 99 174
62 99 169
62 99 172
62 99 171
63 99 175
62 99 173
62 99 176
62 99 177
62 99 171
62 99 173
62 99 176
62 98 169
62 99 175
62 99 173
62 99 172
63 99 176
62 99 171
62 98 170
63 99 176
62 99 173
62 99 170
62 98 168
62 99 172
62 98 171
62 99 172
62 98 170
62 98 173
62 98 171
62 99 171
62 99 176
62 99 175
62 99 172
62 99 171
61 98 171
62 99 172
62 99 175
62 98 172
62 98 169
61 98 170
62 99 177
62 98 170
62 99 176
61 98 173
62 98 170
63 99 173
61 98 168
61 98 171
62 99 175
62 98 167
62 99 173
62 98 171
62 98 170
62 99 170
62 98 173
62 99 170
63 100 176
62 99 177
62 98 172
63 99 176
62 99 173
61 98 165
62 99 175
63 99 171
62 98 164
62 99 170
60 97 166
62 99 176
62 99 171
62 99 173
62 98 168
62 98 165
62 99 176
61 98 173
62 99 172
62 98 170
63 100 176
61 98 167
62 99 173
62 99 173
62 99 171
62 99 173
63 99 172
62 98 166
62 99 172
63 99 169
63 99 172
62 98 170
62 99 171
63 99 166
63 99 174
62 99 170
62 98 166
63 100 176
62 98 168
62 99 168
61 97 164
62 98 165
63 99 170
62 99 172
63 99 167
62 98 167
62 98 163
62 98 165
61 97 159
62 99 168
62 99 170
63 99 163
61 97 164
62 98 169
62 98 163
62 98 165
62 98 166
62 97 159
61 97 163
62 98 163
62 98 163
62 97 162
61 96 158
61 96 157
61 96 157
60 94 145
60 94 148
61 96 155
60 95 151
59 93 150
59 93 149
61 89 131
57 72 92
53 60 40
58 62 32
57 62 29
52 57 29
66 69 33
73 75 34
64 66 32
80 81 40
75 79 45
75 78 44
82 85 50
90 91 48
107 105 52
88 91 47
102 103 50
98 100 50
102 101 48
109 110 64
105 105 47
121 120 63
120 118 61
106 107 58
110 110 56
114 114 62
119 119 62
117 116 62
126 125 68
115 114 56
131 129 70
124 123 62
139 137 66
133 131 66
135 133 72
131 129 72
130 127 68
130 129 68
136 134 67
135 132 68
141 138 72
145 141 70
148 145 68
153 149 80
143 139 65
149 145 73
152 146 78
151 146 68
156 150 82
151 146 76
166 160 79
148 144 73
161 155 80
161 155 75
159 154 81
158 153 75
157 152 76
154 150 73
157 151 76
158 154 78
158 152 72
155 151 69
165 158 82
160 155 73
163 156 77
160 154 74
162 156 75
159 154 72
163 157 76
161 156 80
167 160 78
171 163 82
159 153 66
159 153 68
168 161 81
166 160 76
165 159 77
164 157 76
163 157 80
158 152 66
161 154 83
160 155 69
163 155 75
163 156 76
167 160 84
159 153 71
168 162 77
164 159 73
157 151 69
158 151 71
155 150 71
161 155 72
153 147 65
154 149 66
155 150 68
158 152 67
153 147 70
155 149 70
150 144 64
159 152 72
159 152 71
155 149 64
148 143 62
154 148 68
153 146 68
151 145 63
156 149 67
150 144 67
150 144 68
148 142 66
152 144 64
148 142 60
155 149 68
147 142 57
138 133 52
138 134 51
132 126 48
144 139 57
130 124 52
137 131 52
135 133 51
131 129 48
142 140 53
146 148 49
146 151 44
145 150 44
160 169 34
149 160 36
163 177 25
158 173 25
163 180 19
165 184 0
167 187 11
170 192 0
172 193 0
171 192 0
168 190 0
170 191 0
172 194 0
171 193 0
171 195 0
170 193 0
170 193 0
168 192 0
171 194 0
173 196 0
168 191 0
170 194 0
173 197 0
170 194 0
172 194 0
173 196 0
172 195 0
173 196 0
171 194 0
172 195 0
170 194 0
169 192 0
171 195 0
170 194 0
170 193 0
169 193 0
173 197 0
172 195 0
172 196 0
172 194 0
171 194 0
170 193 0
169 193 0
169 193 0
172 195 0
170 194 0
169 193 0
171 195 0
175 197 0
173 196 0
172 195 0
172 194 0
169 193 0
172 196 0
169 193 0
171 196 0
169 193 0
174 197 0
171 195 0
171 194 0
167 191 0
171 195 0
168 192 0
170 193 0
169 192 0
168 192 0
171 195 0
169 193 0
171 194 0
167 190 0
170 194 0
171 194 0
169 192 0
170 194 0
169 193 0
171 195 0
164 187 0
170 193 0
169 192 0
174 196 0
167 190 0
168 192 0
170 193 0
170 193 0
172 195 0
169 192 0
172 195 0
172 194 0
170 194 0
166 189 0
172 195 0
170 193 0
166 190 0
168 191 0
165 188 0
167 191 0
168 191 0
170 193 0
170 192 18
105 133 131
63 99 164
62 98 159
62 98 157
62 98 155
62 98 159
62 98 163
62 98 167
62 98 167
61 97 163
62 99 171
61 97 161
61 98 161
62 98 166
62 98 165
62 98 170
62 98 170
61 98 166
61 97 160
61 98 167
62 98 164
62 99 173
62 99 173
62 99 172
62 99 174
61 98 170
63 99 169
62 99 170
62 99 174
62 98 170
62 98 167
61 98 168
63 99 172
62 98 167
61 97 163
62 99 171
63 99 176
62 99 172
62 98 169
62 99 173
61 98 170
63 100 177
62 98 173
62 99 172
62 99 171
63 99 175
62 98 170
62 98 174
62 99 174
62 99 175
62 98 170
62 98 170
62 99 171
62 99 170
62 99 176
62 99 175
62 98 169
61 98 169
62 99 178
61 98 170
62 99 174
61 98 170
63 99 176
62 98 168
62 99 175
62 99 169
62 99 171
63 99 174
61 98 173
62 99 174
62 99 173
62 99 174
62 98 171
61 98 173
62 99 172
62 99 173
63 99 171
62 99 174
62 99 175
61 98 174
63 99 176
62 98 168
63 99 174
62 99 171
62 99 174
62 99 171
62 98 171
61 98 170
61 98 170
62 99 171
62 99 173
62 98 170
62 99 172
63 99 174
62 98 171
62 99 176
62 99 174
62 99 173
62 99 171
62 99 176
61 98 169
62 99 173
61 98 167
62 99 172
63 100 176
62 99 171
61 98 163
62 99 173
63 99 170
62 99 173
61 97 164
63 99 177
63 99 177
62 99 177
61 98 169
62 98 166
62 98 170
62 98 168
61 98 167
62 99 169
62 99 173
63 99 173
63 99 172
62 99 173
63 99 173
62 98 168
62 98 166
62 98 171
62 98 165
62 99 170
62 99 171
61 98 166
62 98 164
61 98 167
63 99 170
62 99 173
62 99 167
62 99 174
61 98 166
62 99 171
61 98 168
62 98 168
62 98 166
61 98 167
61 97 161
62 98 166
62 99 172
62 98 165
62 98 170
62 98 163
62 98 166
62 98 163
62 98 165
62 98 166
62 98 170
61 97 163
61 97 161
62 98 170
62 99 167
61 97 156
60 95 158
62 97 159
62 97 162
62 97 162
62 98 165
62 98 164
61 97 160
61 96 158
61 96 160
60 95 160
61 96 156
61 96 159
61 95 153
59 94 147
59 92 143
58 90 146
56 72 87
44 51 39
55 59 22
57 61 29
72 74 34
55 59 30
63 66 28
66 71 39
72 78 45
83 84 48
86 87 39
76 78 46
72 75 39
86 89 43
78 82 38
89 92 48
93 94 48
100 99 51
116 115 60
109 110 55
103 103 59
104 105 58
98 100 53
118 117 66
113 113 57
113 113 58
117 117 59
121 119 63
128 126 59
131 129 64
136 133 74
132 129 68
134 131 62
134 131 67
135 132 74
140 137 70
139 136 67
130 128 70
140 136 71
141 138 72
144 141 72
143 139 72
144 140 72
145 140 74
141 138 69
144 139 70
152 148 73
150 146 67
159 152 79
158 152 75
156 150 78
146 141 65
159 153 78
156 150 83
156 150 75
155 150 75
158 152 73
159 154 78
154 149 72
163 157 75
160 155 75
164 157 86
163 156 84
163 156 75
154 149 74
157 151 72
158 152 68
170 163 85
162 156 79
163 156 74
156 151 72
162 155 80
161 156 73
162 157 77
161 154 76
164 157 76
161 156 71
167 160 83
162 156 73
165 159 79
161 155 76
162 156 74
165 158 75
160 153 69
159 153 70
159 154 74
163 157 78
161 154 78
158 151 65
164 157 79
160 154 71
159 152 67
162 155 71
162 154 75
157 151 68
157 150 71
153 148 67
155 149 68
153 147 67
159 151 72
145 140 61
160 154 76
152 146 66
149 143 62
147 141 65
157 149 68
141 135 54
143 139 57
143 137 64
151 143 70
156 150 69
141 135 59
151 145 70
141 135 57
147 140 64
140 135 56
136 131 54
147 142 49
123 117 45
142 138 59
138 136 48
136 137 49
144 147 37
141 147 37
154 163 34
158 172 28
157 171 25
162 176 25
162 177 22
167 186 16
163 181 0
174 195 0
171 192 0
171 191 0
170 191 0
169 190 0
172 194 0
172 193 0
175 198 0
170 194 0
169 193 0
173 196 0
175 197 0
173 196 0
173 197 0
170 194 0
170 193 0
170 194 0
172 195 0
170 194 0
170 194 0
170 193 0
171 194 0
173 196 0
170 193 0
173 196 0
169 193 0
172 196 0
171 194 0
166 190 0
171 195 0
171 195 0
172 196 0
171 194 0
170 195 0
173 196 0
173 197 0
171 195 0
172 196 0
172 196 0
171 195 0
171 195 0
171 195 0
170 193 0
170 194 0
169 193 0
170 194 0
171 194 0
170 194 0
170 193 0
170 193 0
171 195 0
171 195 0
168 191 0
171 194 0
171 194 0
170 193 0
170 194 0
170 193 0
174 196 0
171 194 0
167 189 0
169 193 0
171 194 0
173 196 0
173 196 0
170 194 0
169 192 0
173 196 0
168 191 0
169 193 0
168 191 0
169 192 0
171 194 0
168 191 0
165 188 0
173 196 0
170 193 0
171 195 0
171 194 0
170 194 0
168 192 0
168 191 0
168 192 0
169 192 0
169 193 0
170 192 0
168 191 0
169 191 0
166 189 0
170 194 0
161 185 0
168 191 0
160 183 47
76 108 148
62 98 158
61 97 153
62 98 159
62 98 165
62 98 162
62 98 162
62 98 167
62 98 166
61 98 163
61 98 164
62 98 167
62 98 163
62 98 167
61 97 158
62 98 165
62 99 169
62 98 166
62 98 168
62 98 162
62 98 166
62 99 167
62 98 165
63 99 174
62 98 162
62 99 171
62 99 170
62 98 168
61 98 170
61 97 166
61 97 169
62 99 171
62 99 175
62 99 170
62 98 176
61 98 170
62 98 171
62 98 172
62 98 167
62 99 169
62 98 167
63 99 177
63 100 175
62 99 176
62 99 171
62 98 173
62 98 171
62 99 173
63 99 175
61 98 170
62 98 172
61 98 172
62 98 174
62 99 175
62 99 177
62 99 177
62 99 176
62 99 170
62 99 175
62 98 167
63 99 177
62 98 169
63 99 173
62 99 174
62 99 174
62 99 174
63 99 174
62 99 175
62 99 174
62 99 174
62 99 171
62 99 174
62 98 166
62 98 170
61 97 167
61 98 171
62 98 169
62 99 174
62 99 172
62 99 171
62 99 169
62 99 172
62 98 170
62 98 170
62 98 168
61 98 175
63 99 176
62 99 175
62 98 172
62 99 176
62 98 167
61 98 173
62 99 171
62 99 172
63 99 173
62 99 176
61 98 172
62 99 172
62 99 174
62 99 172
62 98 170
62 98 169
61 98 163
62 99 173
62 99 171
62 99 173
61 98 167
62 99 170
62 99 172
62 99 169
63 99 173
63 99 173
61 98 171
63 99 171
61 98 168
62 99 170
62 99 168
62 98 168
62 99 171
63 99 173
62 99 169
62 99 168
61 98 164
62 98 163
61 97 159
63 99 173
63 99 166
62 98 171
62 98 170
62 98 168
62 99 175
62 98 167
62 99 169
63 100 176
61 98 165
61 98 165
62 99 173
62 98 164
63 99 171
62 98 161
61 98 167
62 98 161
62 99 170
63 100 173
62 98 164
62 98 165
61 98 170
62 99 169
63 99 169
61 98 168
62 98 168
63 99 168
62 98 170
62 98 161
62 98 168
62 98 161
63 99 166
61 97 161
62 98 168
62 98 168
61 97 165
63 99 169
63 99 166
61 97 161
63 99 168
62 98 161
60 95 155
62 98 162
61 95 152
60 95 152
61 96 158
61 95 151
60 94 152
58 91 146
58 91 144
59 93 149
58 78 91
53 61 49
64 68 27
57 63 28
61 66 33
65 69 30
59 62 31
62 67 26
71 74 33
81 83 45
83 84 31
81 84 46
76 80 43
78 81 41
83 86 48
101 102 49
92 94 52
97 98 47
94 95 51
110 110 53
103 103 50
116 115 59
118 117 58
116 115 59
125 124 66
113 112 49
122 120 60
116 116 64
128 127 69
125 124 54
127 125 62
129 128 59
128 126 64
131 128 68
131 130 67
135 132 60
140 136 69
143 139 70
135 133 72
147 142 67
137 134 67
141 138 65
152 147 71
134 133 65
146 141 72
144 141 68
148 143 71
142 138 62
157 152 72
152 147 64
154 149 76
160 153 75
159 154 76
153 148 74
155 149 75
153 149 70
158 152 76
159 154 77
161 154 78
154 149 75
160 155 71
157 150 64
160 154 75
162 155 80
158 153 72
163 156 77
164 158 78
161 155 76
162 154 78
164 158 76
163 157 75
162 156 72
162 156 76
161 156 72
158 152 64
160 154 70
161 155 77
157 152 72
157 151 67
162 154 77
161 155 72
160 153 72
164 157 76
159 152 66
162 155 71
158 152 75
163 157 76
160 153 76
150 144 65
156 150 70
156 150 62
165 157 76
157 150 67
160 153 75
160 154 70
153 147 70
152 146 70
163 156 77
154 149 59
152 146 66
154 147 71
153 146 74
143 137 60
152 146 64
152 146 59
143 137 57
147 141 59
143 137 64
154 147 70
147 141 60
148 142 66
148 142 57
148 142 63
143 137 53
143 137 56
142 136 56
140 135 54
141 135 49
141 138 53
144 140 57
128 127 41
142 146 47
145 148 45
151 158 42
152 163 34
147 157 30
155 169 28
163 179 19
160 176 19
162 182 0
169 188 0
169 190 0
168 187 0
167 186 0
168 188 0
168 189 0
169 190 0
169 190 0
171 194 0
172 195 0
171 194 0
172 195 0
171 195 0
174 197 0
172 195 0
170 194 0
170 193 0
173 197 0
170 194 0
171 195 0
171 195 0
171 195 0
173 196 0
171 193 0
173 196 0
169 193 0
168 191 0
173 197 0
171 194 0
173 196 0
169 192 0
170 194 0
171 194 0
168 192 0
173 196 0
168 192 0
173 196 0
171 195 0
168 192 0
170 193 0
172 196 0
172 195 0
171 194 0
170 194 0
171 194 0
173 196 0
172 196 0
170 194 0
167 190 0
169 192 0
169 192 0
165 189 0
171 195 0
168 192 0
174 196 0
171 195 0
171 195 0
171 194 0
172 196 0
172 196 0
169 192 0
169 192 0
168 191 0
167 190 0
171 195 0
170 194 0
168 192 0
167 190 0
167 190 0
171 194 0
171 195 0
168 190 0
170 193 0
169 192 0
170 193 0
170 194 0
169 192 0
168 192 0
166 189 0
168 192 0
168 191 0
169 193 0
163 186 0
169 192 0
170 193 0
168 191 0
170 192 0
168 192 0
168 192 0
172 195 0
166 188 0
166 190 0
167 191 0
156 180 67
61 97 156
61 97 152
62 98 161
61 97 151
63 99 162
62 98 161
62 98 163
62 98 165
61 97 167
63 99 166
61 98 167
62 99 167
62 98 163
62 98 162
62 98 163
62 98 162
62 98 165
62 99 169
61 98 166
62 99 171
62 98 167
62 99 168
62 99 172
62 98 168
62 99 171
62 99 174
61 98 170
61 98 165
62 98 168
61 98 168
62 99 170
61 98 170
62 98 166
62 98 171
62 99 176
61 97 169
62 98 175
62 99 172
61 97 165
62 99 173
62 99 172
62 99 171
62 98 170
62 99 173
62 99 175
62 99 172
62 99 170
62 99 174
62 98 175
62 99 173
62 99 173
62 99 174
62 99 169
61 98 171
63 100 175
62 99 172
62 99 173
62 99 169
61 98 172
62 99 173
62 99 171
63 99 173
63 99 172
62 99 173
62 99 175
62 99 174
61 98 169
62 98 172
63 99 172
63 99 172
61 98 173
62 99 171
62 99 174
62 99 171
62 99 175
62 98 164
61 98 168
61 98 172
62 99 177
62 99 173
63 99 175
61 98 168
61 97 164
62 98 168
61 98 166
62 98 170
62 99 170
62 98 169
62 99 173
62 98 168
62 98 169
62 99 171
62 99 170
61 98 168
63 99 175
62 98 169
62 98 171
62 99 172
62 99 174
62 99 176
62 99 173
62 99 177
62 99 175
63 99 173
62 98 170
62 99 172
62 99 168
62 99 169
62 98 173
62 98 168
62 99 168
62 99 176
62 99 172
63 100 178
62 99 169
62 98 171
62 98 166
62 99 169
63 99 169
61 98 163
62 98 167
62 99 169
62 98 160
63 99 167
62 99 173
62 99 170
62 99 171
62 98 167
62 99 169
62 98 168
62 98 165
62 99 171
62 99 166
62 98 168
61 97 164
62 99 170
62 98 169
61 98 167
62 98 162
62 99 173
62 98 165
62 98 168
62 98 169
62 98 166
61 98 162
62 99 167
62 99 168
61 97 158
62 99 167
62 98 162
62 98 159
61 97 160
62 98 164
62 97 165
61 97 159
62 97 159
61 97 162
62 98 160
62 98 167
61 96 158
61 97 164
61 97 156
61 97 162
62 98 163
62 98 166
60 95 151
61 96 157
60 95 149
60 95 151
60 94 151
61 96 156
61 96 157
61 96 157
61 96 155
59 93 145
59 93 140
63 81 100
58 65 51
56 59 21
61 67 26
64 66 27
69 73 30
69 73 37
65 70 34
74 77 40
74 77 35
77 80 40
70 75 43
78 81 41
84 86 46
95 95 50
94 96 49
96 97 46
96 97 49
100 100 45
110 111 57
103 103 47
108 108 50
107 105 49
113 112 59
120 118 56
118 116 60
114 113 60
118 118 59
131 128 64
122 121 60
128 126 62
124 122 62
129 127 53
133 129 65
136 134 63
136 133 69
149 143 72
140 137 70
142 137 71
144 140 72
145 141 72
137 134 71
149 145 76
153 148 81
132 129 60
148 144 73
145 141 73
142 138 67
161 156 79
145 142 71
153 149 71
163 157 80
147 142 67
153 148 76
152 146 69
158 153 74
151 147 69
161 155 73
159 152 75
163 157 81
153 148 72
158 153 71
151 146 70
163 157 72
161 155 75
155 151 76
155 149 75
160 154 76
162 155 73
152 146 62
163 156 78
162 156 75
160 154 72
165 158 78
163 158 72
163 157 78
154 148 69
155 149 65
164 158 73
160 154 70
161 155 73
151 146 65
155 149 65
158 153 64
157 151 65
156 150 75
151 145 70
160 153 73
163 155 80
152 146 65
160 153 72
157 151 69
161 155 64
154 147 71
158 151 76
160 154 75
152 146 69
152 146 67
138 133 59
160 153 71
154 147 69
145 140 61
157 151 64
145 140 61
148 143 64
150 144 67
145 139 63
146 140 59
141 137 47
146 140 56
143 137 54
145 138 58
145 139 53
139 133 54
142 136 57
141 135 60
138 132 57
138 133 56
141 136 54
141 138 53
144 144 52
131 133 41
141 147 37
150 158 34
153 163 37
142 153 16
155 170 19
166 184 11
164 181 16
170 190 0
170 189 0
169 190 0
170 191 0
169 190 0
170 190 0
172 192 0
171 192 0
171 191 0
172 196 0
172 195 0
173 196 0
169 193 0
173 197 0
172 196 0
172 195 0
172 196 0
169 193 0
172 195 0
172 196 0
172 195 0
171 194 0
169 193 0
175 197 0
169 193 0
171 195 0
174 197 0
173 196 0
172 196 0
171 194 0
171 195 0
168 192 0
169 193 0
168 192 0
169 193 0
168 192 0
169 192 0
170 194 0
174 197 0
172 195 0
171 194 0
172 195 0
168 192 0
168 191 0
172 195 0
169 193 0
170 194 0
169 193 0
168 192 0
170 193 0
167 191 0
171 195 0
170 194 0
168 191 0
171 194 0
169 192 0
172 195 0
170 193 0
171 194 0
170 194 0
170 193 0
172 195 0
173 197 0
168 191 0
172 194 0
171 194 0
169 192 0
170 193 0
170 193 0
168 192 0
172 195 0
171 194 0
169 191 0
165 189 0
171 194 0
170 193 0
171 194 0
168 192 0
170 193 0
170 193 0
167 191 0
166 189 0
165 188 0
169 193 0
169 192 0
169 193 0
170 193 0
171 195 0
169 191 0
170 193 0
168 191 0
166 189 0
170 194 0
167 190 0
130 155 102
61 97 154
60 96 143
62 98 160
61 97 162
62 98 157
61 96 156
62 98 161
62 98 164
62 98 161
61 98 160
61 97 157
62 98 160
61 98 165
61 97 156
62 99 166
62 98 166
62 98 168
61 98 167
62 99 169
61 97 164
62 98 168
62 98 172
62 98 168
62 99 170
63 99 172
62 99 172
62 99 173
62 98 170
63 99 170
62 99 171
62 98 172
62 99 172
61 98 175
62 99 173
62 99 169
61 98 168
61 98 164
61 98 169
62 99 177
61 98 164
62 99 173
61 98 170
62 99 172
61 98 170
62 98 169
62 99 169
62 99 175
62 98 169
62 98 171
63 100 174
62 99 174
62 99 178
62 99 175
63 99 174
62 99 174
62 99 171
63 99 168
63 99 172
62 99 175
62 99 175
62 99 172
63 99 173
62 99 175
62 99 174
62 99 174
62 98 172
63 99 172
62 99 172
62 99 171
62 99 175
62 99 174
62 99 173
62 99 174
62 98 165
63 99 175
62 99 174
62 99 175
63 100 178
61 98 169
62 99 174
62 99 173
62 99 173
62 98 171
62 99 177
61 98 171
62 99 172
62 99 170
62 98 173
62 98 175
62 99 174
62 99 175
62 99 171
62 99 173
61 98 170
62 99 176
62 99 173
61 98 171
62 99 170
62 99 173
62 98 169
62 99 173
62 98 169
63 99 171
62 98 168
62 99 173
61 98 171
62 99 170
62 98 169
62 99 173
62 99 172
62 98 165
63 99 176
63 99 173
62 99 172
62 98 167
62 99 169
62 99 172
62 99 173
63 99 171
62 99 172
62 98 163
62 99 166
62 98 170
62 98 167
62 98 163
62 99 172
62 98 168
63 99 169
62 98 165
62 99 171
62 98 169
63 99 168
62 98 164
62 98 168
63 99 176
63 99 175
61 97 161
61 98 166
62 99 166
62 99 171
63 99 171
62 99 165
62 99 170
63 99 162
61 98 164
62 97 160
63 99 169
62 98 165
60 96 156
62 98 170
62 98 167
61 97 154
62 98 167
62 98 167
62 98 161
61 98 163
62 98 161
62 98 166
62 98 166
61 97 163
61 97 155
61 96 157
63 99 168
61 96 159
61 96 158
62 98 165
62 97 158
62 98 162
61 97 158
61 96 153
61 96 155
61 96 155
61 95 157
61 95 148
60 94 152
61 93 149
56 83 127
52 62 67
56 61 32
59 62 24
64 66 21
59 64 32
73 76 26
73 76 37
69 73 41
80 82 38
73 77 38
91 92 38
81 84 35
82 83 40
87 88 43
93 94 46
105 104 51
109 108 54
100 102 53
111 112 54
103 105 55
108 107 46
100 102 49
117 117 58
103 104 45
119 118 54
127 124 66
119 118 58
117 117 57
128 126 61
125 122 64
129 128 58
127 125 61
133 130 73
121 120 60
130 128 58
146 142 67
140 138 64
140 137 64
133 130 69
141 137 68
147 141 77
146 141 66
150 145 74
149 144 67
154 148 75
143 140 74
157 152 78
149 145 70
156 151 79
153 148 72
149 144 59
160 154 80
153 148 73
155 150 78
161 155 75
148 144 65
149 145 66
155 149 72
161 155 79
154 148 71
157 152 69
159 153 71
156 150 67
156 150 68
152 146 65
158 153 72
159 152 67
159 152 71
158 152 65
154 149 69
163 156 73
158 152 68
159 152 72
156 151 68
162 156 72
159 152 73
162 156 71
165 157 76
161 155 73
158 153 69
164 157 75
154 148 64
163 157 71
161 153 74
159 153 71
159 152 72
149 145 64
159 153 75
160 154 73
160 153 76
164 156 75
153 149 61
158 152 75
152 147 67
155 150 59
154 148 66
154 149 63
148 142 62
146 140 61
150 144 66
157 151 68
151 145 61
149 142 60
155 149 67
149 144 62
148 142 56
147 141 64
144 138 61
152 145 61
143 137 57
143 136 64
151 145 62
138 134 49
133 127 58
135 130 48
122 116 39
135 130 49
124 122 41
141 139 45
141 143 37
146 150 47
150 161 28
141 149 34
163 176 32
154 167 16
155 168 22
160 176 22
168 186 16
166 186 11
172 193 0
166 187 0
169 190 0
170 191 0
167 187 0
171 192 0
171 192 0
172 193 0
171 195 0
170 193 0
173 196 0
170 194 0
172 195 0
173 196 0
171 195 0
173 197 0
173 195 0
172 195 0
169 192 0
172 195 0
172 194 0
166 189 0
172 196 0
174 197 0
172 194 0
170 195 0
171 194 0
171 195 0
173 196 0
172 195 0
170 193 0
171 196 0
173 195 0
173 197 0
171 195 0
172 195 0
169 193 0
168 192 0
171 193 0
170 193 0
171 195 0
172 194 25
172 196 0
167 189 25
175 198 0
167 191 0
174 197 0
167 190 25
168 192 0
175 198 0
171 194 0
168 191 0
172 195 25
169 192 0
171 195 0
170 192 0
169 193 0
173 196 0
169 192 0
168 191 0
170 193 0
171 194 0
170 193 0
169 192 0
165 189 0
168 191 0
171 195 0
168 190 0
172 196 0
170 194 0
169 193 0
170 193 0
170 193 0
166 190 0
172 195 0
169 191 0
170 194 0
170 193 0
170 194 0
169 193 0
171 194 0
169 192 0
170 193 0
167 190 0
166 189 0
168 192 0
168 191 0
167 190 0
166 189 0
167 190 0
167 190 0
165 188 0
168 191 18
114 140 113
61 96 145
61 97 150
62 98 159
62 98 164
61 97 156
62 98 157
61 97 161
63 99 163
62 98 161
62 98 163
61 97 160
61 97 159
62 98 161
62 98 162
61 98 165
62 98 161
62 98 165
62 98 169
62 99 171
62 99 168
62 99 167
61 98 172
62 98 169
62 99 167
62 98 171
62 98 169
62 98 163
62 98 168
61 98 169
63 99 172
62 99 171
62 99 169
61 98 168
62 99 173
61 98 168
62 98 167
62 99 175
61 98 165
62 99 175
61 98 169
62 99 168
62 98 171
62 98 169
62 98 169
62 98 167
62 99 171
62 99 170
63 99 175
63 99 174
62 98 167
62 99 173
62 99 170
62 99 174
63 100 174
62 99 172
62 99 172
62 98 170
61 98 170
62 99 172
62 98 170
62 98 170
62 99 173
62 99 173
62 99 168
63 99 176
62 99 173
62 99 173
63 100 178
62 99 171
62 98 171
62 99 172
62 98 172
62 98 165
62 99 174
62 99 166
62 98 168
62 99 178
61 98 170
63 99 175
62 98 170
62 99 169
62 99 173
62 98 169
62 98 171
62 99 173
62 98 164
61 98 166
62 99 172
62 99 170
62 98 166
62 98 173
63 99 169
62 99 173
62 98 171
61 98 168
62 99 173
62 99 169
62 99 176
62 98 170
62 98 168
62 99 174
62 98 168
63 99 171
62 98 169
62 98 168
62 99 171
62 99 172
62 99 170
62 98 169
62 99 169
62 99 172
63 99 174
63 99 174
62 98 169
62 98 169
62 99 169
63 99 171
62 99 173
62 99 173
63 99 172
61 98 170
62 98 167
62 98 170
62 99 168
61 97 161
62 99 167
62 98 170
62 99 174
63 99 171
62 99 170
62 98 160
63 99 169
63 100 172
62 98 168
62 98 165
61 97 161
62 98 166
63 99 171
61 98 169
61 98 166
62 98 169
62 98 164
61 97 161
62 99 170
62 98 164
63 99 168
61 97 165
62 99 168
62 98 166
62 98 169
61 97 160
62 98 165
62 97 161
62 98 162
63 99 167
62 98 167
62 98 162
63 99 170
61 97 162
62 98 169
62 98 167
62 97 157
60 95 148
62 98 162
61 96 157
61 97 155
61 96 153
60 95 146
62 98 164
61 96 161
59 93 144
60 95 151
60 94 151
60 95 153
58 91 143
59 93 146
57 87 134
53 65 67
54 59 30
65 69 29
69 71 20
64 68 28
62 66 28
72 75 36
68 73 39
68 71 33
89 90 31
85 86 44
75 77 40
84 87 45
98 100 44
89 92 49
101 101 45
101 101 53
103 103 54
101 101 48
103 103 50
107 107 46
105 106 50
118 117 51
119 118 56
123 122 56
115 115 56
120 119 58
128 126 62
125 122 58
123 120 56
133 130 61
112 111 53
135 132 68
126 125 64
132 129 65
140 136 69
140 136 66
143 139 72
137 135 62
146 142 70
148 143 68
147 143 56
140 137 69
142 139 64
139 136 68
145 140 60
149 145 67
149 144 69
149 145 74
153 148 73
139 136 59
150 145 68
149 145 72
153 148 68
153 147 69
158 153 69
155 150 73
157 151 73
156 150 70
155 150 68
157 151 75
162 155 72
163 156 77
162 155 71
159 153 70
165 158 82
156 152 63
163 156 74
154 150 63
157 151 71
156 151 71
159 153 69
168 162 80
160 153 74
164 157 72
155 149 64
160 153 73
164 157 75
159 152 66
160 153 67
157 151 65
154 148 71
157 150 69
157 151 72
159 152 72
165 158 75
154 147 69
151 144 74
160 154 67
159 152 70
160 153 69
152 146 64
156 149 63
162 155 77
150 145 69
154 148 65
152 147 59
155 150 65
146 141 54
146 141 60
144 139 58
152 147 58
151 145 59
151 145 65
149 142 61
151 145 66
136 130 53
143 137 62
143 137 56
144 137 60
150 142 63
134 128 56
133 129 53
143 137 59
141 135 51
131 127 45
151 148 60
132 131 47
127 130 37
141 143 45
148 157 37
146 154 41
150 160 37
152 168 16
162 177 22
154 167 22
167 185 19
166 184 0
168 188 0
169 190 0
167 187 0
173 194 0
168 187 0
170 191 0
168 190 0
167 186 0
172 193 0
168 193 0
174 197 0
170 193 0
171 193 0
172 196 0
173 196 0
169 193 0
171 195 0
167 191 0
172 196 0
167 191 0
171 195 0
174 196 0
173 196 0
172 196 0
170 194 0
170 193 0
170 193 0
172 195 0
171 194 0
172 195 0
170 192 0
173 196 25
169 192 0
174 197 0
170 195 0
168 190 0
170 193 0
174 197 0
172 195 0
169 192 36
172 195 0
166 190 25
170 194 0
169 193 0
168 192 0
173 196 25
170 193 36
170 194 0
172 195 25
171 195 25
171 195 36
172 195 36
168 192 25
174 196 36
168 192 0
171 194 25
171 195 0
169 194 25
171 195 25
170 193 0
172 195 25
171 193 25
172 195 36
166 189 0
171 195 0
169 193 0
166 190 0
168 191 0
173 196 0
169 191 0
167 190 0
168 190 0
168 191 0
169 192 0
172 196 0
172 194 0
168 191 0
166 190 0
170 193 0
165 189 0
169 192 0
169 192 0
169 193 0
170 194 0
170 193 0
167 191 0
165 188 0
169 192 0
168 191 0
166 189 0
170 194 0
166 189 0
170 193 0
163 186 31
90 119 140
61 97 152
62 97 157
62 98 163
61 96 157
62 98 164
61 97 156
62 98 161
62 98 166
61 97 157
61 98 163
63 99 165
63 99 165
61 98 165
62 99 173
60 96 159
63 99 173
61 97 164
62 98 163
62 98 166
62 98 163
62 99 171
62 98 167
62 98 165
62 99 171
62 99 170
61 97 162
61 98 170
61 98 168
62 98 169
61 97 163
63 99 172
62 98 169
62 99 168
62 98 174
62 99 167
62 99 170
62 98 165
62 98 169
61 98 170
62 99 172
62 99 174
62 98 170
61 98 170
62 99 175
61 98 162
61 98 168
62 99 171
62 99 174
63 100 175
62 99 172
62 99 174
62 99 173
62 98 166
62 99 176
62 99 174
62 98 169
62 99 174
62 99 173
62 98 172
61 98 169
63 99 176
62 99 173
62 98 174
62 99 175
63 99 175
62 98 170
62 99 173
62 99 169
62 99 169
62 98 170
63 99 171
63 100 177
62 99 169
61 98 170
62 99 173
61 98 165
63 99 171
62 98 172
63 99 175
62 99 175
62 98 168
62 99 171
63 99 170
62 99 173
62 99 170
62 99 173
62 98 165
62 98 167
61 98 170
62 99 169
62 99 174
62 98 168
62 99 172
62 98 166
63 99 169
61 98 168
62 99 173
61 98 169
62 99 174
62 99 169
62 98 170
62 99 169
62 99 177
62 99 171
62 98 171
62 99 169
61 97 161
63 99 171
62 98 169
63 99 175
63 99 173
63 99 173
62 98 168
62 98 166
62 98 167
62 99 171
61 98 167
62 98 164
61 97 163
62 99 167
63 99 171
62 99 164
62 98 165
63 99 170
63 99 169
62 99 170
63 99 171
62 99 173
63 99 166
61 98 165
62 98 166
62 99 170
62 98 167
62 99 168
62 99 171
62 99 170
61 98 164
62 98 163
62 98 166
62 98 160
62 98 167
62 98 166
61 97 160
62 98 165
62 98 166
62 98 164
62 98 163
62 99 170
62 99 165
62 98 164
62 98 162
62 98 162
61 97 156
62 98 168
62 98 165
62 98 162
61 96 160
62 98 163
62 99 166
61 97 160
61 97 161
62 97 162
62 97 157
62 98 164
63 98 166
63 99 168
61 96 155
59 94 147
62 97 160
60 95 153
61 96 161
61 97 158
61 94 151
60 95 153
60 95 154
60 93 147
59 88 130
64 78 82
62 64 28
61 66 30
58 61 27
64 66 26
68 71 30
82 83 33
75 79 36
73 77 32
79 81 37
87 87 40
83 84 35
74 77 35
92 94 48
86 88 42
103 103 54
84 86 46
97 98 48
99 101 48
101 102 48
116 116 60
113 112 60
114 112 55
109 110 51
126 122 64
106 105 47
113 112 58
121 119 57
112 111 47
134 131 62
125 122 65
126 124 58
137 134 63
140 136 62
134 131 64
135 131 67
144 141 67
125 124 59
127 124 58
136 134 71
138 134 70
136 133 72
147 143 63
144 140 62
149 145 69
148 144 70
143 138 62
140 136 61
151 146 64
150 145 66
150 144 73
154 149 73
152 146 68
155 150 68
151 145 68
156 151 71
155 150 76
156 151 66
165 158 77
151 146 65
157 151 72
153 147 67
152 147 74
157 152 66
157 151 65
160 154 72
160 154 72
165 158 73
157 151 70
157 151 65
158 152 67
155 151 67
159 153 69
156 150 70
159 154 71
155 148 69
163 157 75
157 152 67
157 151 68
161 155 70
161 154 75
155 149 61
159 152 63
151 145 62
157 150 73
156 151 71
161 154 74
158 152 68
153 147 58
157 151 67
154 149 63
161 154 70
154 148 66
156 150 64
154 148 67
148 141 73
156 150 69
149 145 54
155 148 67
153 146 60
145 138 58
150 145 57
144 137 64
139 135 48
145 139 60
140 134 59
146 140 63
147 140 61
143 137 59
133 128 47
143 137 59
133 128 49
127 121 42
132 128 47
133 128 51
131 127 41
140 138 52
144 145 48
145 147 49
147 152 42
147 152 36
149 161 30
158 170 37
151 165 28
157 170 22
162 180 0
167 184 19
168 186 0
168 189 0
172 193 0
169 191 0
167 187 0
165 185 0
171 193 0
169 189 0
169 188 0
168 190 0
170 193 0
170 193 0
170 195 0
170 194 0
172 196 0
173 197 0
174 196 0
173 196 0
173 196 0
171 194 0
170 195 0
171 195 0
171 195 0
168 191 25
169 193 0
171 195 0
170 194 0
175 198 0
173 196 36
168 191 0
171 194 0
172 194 36
173 196 25
173 196 0
171 194 25
173 196 36
167 191 36
173 196 25
171 194 36
172 195 25
169 192 0
171 194 44
171 195 44
172 195 25
171 194 25
170 193 36
172 195 44
169 193 25
175 198 44
172 195 57
170 193 51
168 191 36
170 194 25
171 194 25
172 195 44
167 191 0
169 192 0
169 191 0
172 194 25
172 195 25
173 196 25
169 193 36
172 195 25
170 194 25
167 189 0
169 193 25
173 196 25
171 194 25
169 192 25
169 192 36
172 196 0
170 193 0
167 190 0
170 194 0
170 193 0
166 189 0
167 190 0
170 193 0
166 190 0
169 193 0
171 193 0
170 193 0
169 192 0
167 191 0
169 192 0
164 188 0
168 191 0
169 193 0
171 193 0
169 192 0
170 193 0
167 190 0
170 194 0
165 188 0
163 186 40
90 118 135
61 96 143
62 98 160
61 98 161
62 98 159
62 97 155
63 98 164
61 97 159
62 98 160
62 98 159
63 99 164
62 98 162
61 97 163
62 98 167
62 98 166
62 98 164
62 98 168
62 98 171
62 98 166
63 100 174
62 98 170
61 98 163
61 98 164
61 97 164
61 97 165
62 99 168
62 99 169
62 98 165
63 99 168
62 98 173
62 98 167
62 99 167
62 98 168
62 98 167
62 99 173
62 99 170
62 99 172
62 99 170
62 98 166
62 99 174
62 99 172
63 100 174
62 99 168
62 99 171
62 99 176
63 99 169
62 99 171
62 98 167
62 99 173
62 99 172
62 98 172
63 99 176
61 98 167
63 99 171
62 98 167
61 98 170
62 98 172
63 99 172
62 99 176
61 98 172
62 99 177
61 98 173
62 99 169
62 98 170
62 99 172
62 99 175
62 99 175
62 99 172
62 98 170
62 99 175
62 98 168
62 99 178
63 99 175
62 99 174
62 99 170
62 99 172
62 98 165
63 99 176
62 99 174
62 99 174
62 98 166
61 98 170
62 99 173
62 99 173
62 99 172
62 99 172
62 98 170
63 99 176
62 98 167
62 99 174
63 99 170
62 99 169
62 99 167
62 99 169
62 99 168
61 98 169
62 98 166
61 98 164
61 98 168
62 98 167
61 98 170
61 98 172
63 99 166
63 99 171
62 98 165
61 98 167
63 99 173
62 99 171
62 99 170
62 99 170
63 99 170
62 98 163
62 98 169
62 98 170
61 97 160
62 98 165
62 99 167
62 99 170
61 98 165
62 98 168
62 98 165
63 99 172
63 99 170
63 99 169
62 99 168
62 99 170
63 99 171
61 97 159
61 98 162
63 100 175
62 98 163
62 99 169
62 99 170
63 99 169
62 99 169
61 97 163
62 98 170
62 98 163
63 99 170
62 99 163
62 98 167
62 98 164
61 98 164
62 99 168
63 99 167
62 98 166
62 98 164
61 97 161
62 98 167
62 98 162
62 98 165
62 98 165
62 98 165
61 97 160
61 97 160
62 98 164
62 98 166
62 98 165
61 97 155
62 98 164
63 99 165
61 97 158
61 97 156
61 97 159
62 98 165
62 98 164
62 97 164
61 96 154
61 97 161
61 96 156
61 96 160
61 96 159
61 97 157
60 95 152
60 95 151
60 94 152
59 92 139
59 92 143
50 65 78
71 74 27
59 63 27
68 71 25
71 73 30
73 78 32
73 76 35
76 79 38
84 85 36
70 75 32
82 84 34
92 93 44
93 95 42
92 94 40
98 99 44
87 89 47
107 106 51
86 89 39
104 103 49
106 106 52
112 111 54
109 109 48
114 114 50
115 114 54
115 114 54
132 130 67
118 117 56
122 119 64
112 112 53
136 133 64
130 127 57
132 130 60
132 129 63
125 123 57
138 135 62
132 129 60
141 135 65
131 128 64
136 132 61
133 131 52
144 139 64
140 136 64
143 140 66
139 135 62
143 139 61
145 141 65
150 145 61
141 136 55
157 151 74
148 144 62
154 149 71
154 148 72
140 137 63
159 153 74
158 152 72
153 148 67
158 152 70
158 151 71
159 153 78
158 152 67
156 150 68
151 146 67
157 152 69
155 149 67
161 156 70
158 152 74
160 153 71
159 153 68
162 156 70
156 150 72
155 149 69
155 149 67
160 153 72
158 152 67
155 148 71
152 147 69
154 149 64
159 154 66
151 146 65
159 153 69
155 148 69
159 153 74
162 156 72
150 143 56
154 149 64
160 152 74
156 149 65
155 148 64
161 154 75
148 143 54
156 150 66
153 147 62
148 142 56
159 151 72
153 147 56
152 146 58
147 142 58
149 143 60
145 140 63
149 143 59
145 139 56
154 148 65
145 139 59
144 138 60
149 142 60
139 134 49
145 139 54
140 134 51
133 127 58
151 144 61
140 135 58
142 135 56
141 135 54
132 126 45
127 123 44
138 134 56
136 137 34
142 143 42
140 139 32
145 152 30
152 159 39
150 162 22
157 170 22
156 169 32
160 177 28
165 184 16
166 185 16
171 191 0
172 192 0
169 190 0
169 189 0
171 192 0
174 196 0
172 194 0
165 185 0
170 190 0
173 193 0
171 194 0
168 191 0
171 196 0
171 195 0
171 195 0
169 193 0
172 194 0
172 195 0
171 195 0
169 192 25
171 195 0
170 194 0
172 196 0
172 194 25
170 193 0
169 193 25
166 190 25
174 197 44
174 197 25
171 194 0
173 196 25
170 194 0
175 198 51
174 198 36
168 192 44
169 193 36
167 191 25
172 196 44
172 195 0
171 195 25
173 196 36
171 194 36
173 196 0
172 195 36
170 193 36
172 195 44
171 194 44
167 189 0
172 195 36
169 191 25
172 194 25
170 194 25
171 194 36
172 195 44
172 195 57
173 197 36
170 193 0
174 197 67
169 192 25
170 193 25
168 191 25
168 192 36
168 192 44
171 193 25
168 192 0
169 192 36
171 194 51
164 188 25
172 195 51
169 192 36
168 192 25
168 192 0
173 197 36
170 194 0
168 192 0
164 186 0
166 189 25
171 193 25
168 191 0
163 186 0
169 191 0
169 192 0
166 189 0
171 195 0
166 190 0
171 193 0
170 194 0
166 190 0
167 190 0
168 190 0
168 190 0
169 192 0
169 192 0
168 191 0
164 187 44
63 98 149
62 97 153
62 98 159
61 96 149
62 98 156
61 97 152
62 98 163
61 97 158
62 98 162
61 98 162
61 97 161
62 98 164
62 99 166
61 97 155
62 98 162
62 98 162
62 98 161
63 99 172
62 98 169
61 98 166
61 98 168
62 99 170
61 98 161
62 99 170
62 98 166
62 98 166
62 99 172
61 98 160
62 99 173
62 98 169
61 97 163
62 99 170
61 98 169
62 98 174
61 98 168
61 98 170
62 99 173
63 99 172
62 98 165
62 99 172
61 98 168
62 99 170
62 98 168
62 99 171
62 99 171
61 98 168
62 98 170
61 98 171
63 99 173
61 98 168
62 99 167
62 98 168
62 99 175
62 99 175
62 98 169
62 99 172
62 98 171
61 98 170
62 99 173
62 99 172
61 98 165
62 98 170
62 98 167
62 99 174
62 99 173
61 98 166
62 98 171
62 99 172
62 99 176
61 97 164
62 99 170
61 98 167
62 98 174
62 99 173
61 97 168
62 98 170
63 99 175
62 99 177
62 99 174
62 99 170
61 98 172
62 99 172
61 97 170
62 99 174
62 99 174
61 98 168
62 99 175
62 99 167
62 99 171
62 99 173
61 98 170
61 98 170
62 99 173
62 99 171
62 99 170
62 99 169
62 98 170
62 98 168
62 99 173
63 99 173
62 99 172
62 98 167
62 99 168
62 99 170
62 98 167
62 99 166
62 99 171
62 99 172
62 98 170
62 99 170
62 99 170
62 98 168
62 99 171
63 99 174
62 99 172
62 99 172
62 99 170
62 98 167
61 98 166
61 98 168
62 98 165
61 98 168
62 98 163
62 98 168
62 98 165
62 98 168
62 99 176
63 99 168
62 98 165
61 98 162
62 99 169
62 98 170
61 97 162
62 98 165
62 99 169
62 98 164
62 98 165
61 97 162
62 98 168
62 99 171
62 98 157
61 97 163
62 98 166
62 98 167
63 99 166
61 97 158
62 98 161
62 99 170
61 97 162
62 98 163
62 98 164
62 98 165
61 97 159
62 98 159
62 98 162
62 98 160
60 96 156
61 97 158
62 98 163
63 98 165
62 98 162
62 98 162
62 97 159
62 97 157
62 97 162
61 97 156
62 97 161
62 98 163
61 96 153
61 96 156
61 97 158
59 93 142
61 96 156
61 95 156
60 95 154
59 92 141
60 94 145
56 88 132
62 80 101
61 68 59
64 67 23
54 58 28
72 74 24
79 81 33
76 78 33
75 78 28
80 82 40
84 84 30
87 89 35
81 83 43
86 88 37
92 92 42
85 88 45
84 87 40
99 99 46
102 102 41
112 112 50
98 99 45
105 105 41
103 104 50
113 113 51
117 116 56
114 113 50
117 116 58
128 125 64
125 123 60
118 117 45
121 120 59
134 130 61
123 121 55
130 127 54
130 127 63
135 132 59
137 134 59
137 134 65
143 140 61
133 130 57
138 134 59
141 138 61
141 138 55
141 137 64
142 139 60
152 147 67
147 142 71
150 145 66
146 142 60
142 138 68
152 147 72
153 147 66
143 138 61
154 147 69
146 142 67
145 141 56
153 147 66
155 151 72
157 150 66
157 151 72
157 152 71
153 148 64
157 151 76
157 151 66
154 149 61
162 156 75
158 151 67
164 157 70
157 150 70
156 150 64
153 147 64
150 145 56
156 150 67
161 154 74
159 152 67
155 149 63
157 151 61
161 154 80
156 149 60
157 150 63
159 151 67
156 151 67
157 150 68
163 156 72
156 150 66
157 150 68
148 142 64
158 152 64
156 150 62
157 151 67
158 152 66
157 150 65
152 146 65
144 139 52
153 146 65
149 142 62
151 146 58
149 143 58
155 149 56
150 144 64
145 139 58
146 140 59
146 140 56
140 135 51
150 145 63
147 142 57
145 140 58
141 136 57
143 137 65
143 138 51
139 135 49
144 138 54
142 137 52
142 136 51
136 131 47
135 131 47
144 141 51
130 130 36
137 139 37
145 148 44
138 143 30
147 157 25
151 162 32
161 177 22
160 177 16
161 178 16
168 187 16
167 185 0
166 184 0
170 189 0
168 189 0
170 191 0
170 192 0
170 193 0
167 188 0
173 194 0
171 192 0
171 191 0
172 195 0
171 194 0
171 195 0
172 196 0
172 195 0
172 196 0
170 194 0
172 196 0
171 195 0
170 194 0
169 192 44
172 195 25
172 196 36
173 196 36
172 195 0
173 196 36
174 197 0
171 194 25
174 197 25
173 195 25
179 200 57
174 197 36
173 196 44
174 197 44
169 192 0
173 196 51
174 197 44
173 196 0
172 195 57
174 197 36
174 196 44
168 191 44
174 196 51
173 196 25
168 193 25
173 196 57
172 195 44
172 195 36
168 191 36
175 197 57
169 192 44
173 195 51
174 196 72
174 197 51
171 194 51
170 192 25
175 197 57
174 197 62
173 197 51
175 198 44
172 195 62
172 195 36
175 197 44
172 195 36
170 193 57
175 197 44
173 196 25
169 192 36
171 194 25
171 193 44
169 192 36
173 195 36
170 194 0
168 191 25
171 194 36
169 192 44
170 193 0
170 194 0
164 188 0
170 193 0
172 195 0
164 188 0
168 191 25
170 193 0
168 191 0
164 186 0
163 187 0
169 192 0
169 192 0
167 190 0
163 186 0
167 190 0
164 187 0
159 183 0
157 180 60
61 97 150
61 97 156
62 98 166
61 97 154
62 98 164
62 98 157
62 98 161
61 97 155
61 97 155
61 97 154
62 99 166
62 98 160
62 98 168
62 98 163
62 98 167
62 99 166
61 97 161
61 96 161
61 97 166
61 98 164
62 99 167
61 97 161
61 97 163
62 99 171
62 99 171
62 99 173
62 98 168
61 97 161
60 97 167
62 98 170
62 98 164
61 97 164
62 99 173
62 98 168
61 98 163
62 98 166
62 98 170
62 98 168
62 98 170
62 98 167
62 99 171
61 98 170
62 98 170
62 99 173
62 98 172
63 99 173
62 99 171
62 98 170
62 99 173
62 99 174
63 100 177
63 99 174
62 98 165
62 99 170
62 98 170
62 99 172
62 99 173
62 99 172
62 99 174
62 98 168
63 100 175
62 98 168
62 99 172
62 99 174
62 98 171
62 98 171
63 99 171
62 99 173
62 98 168
62 98 174
62 98 168
61 98 169
61 98 170
62 99 174
62 99 174
61 98 169
63 99 173
62 99 170
62 98 169
63 100 176
62 99 173
63 99 171
62 99 173
62 98 166
62 98 170
62 99 171
62 99 171
62 99 173
62 98 168
62 98 172
61 98 172
62 99 171
62 99 173
62 99 173
62 98 172
62 99 173
62 99 174
63 99 166
62 99 172
62 99 171
61 98 165
62 99 171
62 99 167
63 99 173
62 99 169
61 98 164
61 98 168
62 98 161
62 99 175
63 99 171
62 99 165
62 99 169
62 98 163
61 97 163
62 98 168
63 99 173
63 99 172
62 98 168
62 99 171
62 98 170
62 99 170
62 98 164
62 98 169
63 99 165
61 97 164
62 98 164
63 99 167
62 99 171
63 99 164
62 98 166
62 99 168
62 99 171
62 98 168
62 99 173
62 98 166
62 98 164
62 99 168
62 99 168
62 99 171
62 98 162
62 98 165
62 98 167
62 98 166
61 98 161
61 97 164
62 98 167
63 99 164
63 99 167
62 98 161
62 98 163
62 98 159
61 97 154
63 99 168
62 98 165
62 98 166
62 98 162
62 97 160
63 99 165
61 97 158
61 97 156
61 97 159
62 97 161
63 99 166
61 97 154
62 98 162
61 96 156
61 97 154
61 97 159
61 96 156
59 94 144
60 95 150
60 95 152
60 95 149
62 97 156
60 95 155
60 94 147
59 93 145
59 92 145
62 85 121
69 75 55
63 68 28
71 71 20
64 67 25
72 75 24
71 73 28
79 81 35
78 79 31
83 85 38
75 79 37
89 90 37
91 91 43
98 98 46
85 87 35
89 91 32
90 90 40
96 97 37
110 109 45
96 97 35
108 108 52
115 114 50
115 113 53
114 113 56
113 112 58
114 114 54
112 111 48
110 109 42
119 117 51
121 119 56
126 123 50
134 130 61
125 123 57
103 103 47
126 125 59
125 123 59
137 134 63
133 131 54
136 132 63
139 134 65
143 138 66
150 144 65
149 144 71
137 133 58
135 132 63
144 140 63
151 146 67
151 146 71
149 144 69
154 149 70
148 143 65
153 147 71
160 154 71
149 144 69
153 147 67
146 142 65
158 152 69
148 143 66
161 155 67
156 151 70
155 149 65
155 148 59
151 147 67
156 150 65
162 155 67
158 152 74
158 153 59
156 151 63
155 149 66
158 152 65
158 152 66
160 152 70
158 153 69
160 153 68
164 158 75
158 151 76
153 147 59
156 150 60
157 150 72
150 145 56
158 152 68
163 154 69
151 145 60
157 151 65
157 151 71
151 145 59
148 142 61
146 140 60
156 150 64
156 150 62
151 145 53
153 148 59
153 147 58
151 144 65
149 143 56
150 145 52
152 147 56
149 144 58
151 145 64
146 141 53
139 133 59
144 137 56
144 138 53
149 142 64
148 142 61
149 143 53
137 132 51
143 137 56
143 138 49
141 135 48
141 135 56
133 128 44
138 132 51
136 132 52
138 137 49
131 129 41
140 144 41
138 140 34
146 153 36
150 159 28
148 159 25
153 162 32
161 177 22
154 171 19
156 172 11
164 182 11
166 184 0
171 191 0
167 188 0
168 188 0
169 189 0
168 188 0
170 192 0
169 190 0
169 189 0
170 191 0
170 190 0
175 198 0
171 195 0
170 193 0
174 197 0
171 194 0
173 196 0
169 192 0
169 192 36
172 196 0
173 196 25
171 195 0
173 197 44
172 196 0
171 195 25
167 190 25
169 192 44
169 193 25
171 194 36
173 195 51
171 194 57
172 195 36
170 194 44
170 193 0
172 195 62
174 196 57
176 198 57
170 193 36
175 197 51
170 193 44
174 197 36
174 197 36
168 191 44
168 191 25
171 193 72
170 193 44
173 196 51
174 197 62
172 195 36
175 198 51
176 198 57
175 197 51
174 196 44
176 199 62
170 193 25
174 196 51
170 193 57
174 198 67
170 193 44
170 194 36
170 193 51
172 195 62
175 198 44
169 193 0
173 196 51
172 196 25
171 195 44
169 191 44
168 192 25
175 197 62
168 191 25
166 189 36
171 195 36
171 194 36
167 190 44
171 194 36
169 192 0
170 193 36
170 193 36
166 190 25
168 191 0
169 193 0
169 192 25
168 192 25
173 195 0
168 191 0
164 188 0
168 192 0
174 197 0
167 190 0
166 189 0
166 188 0
169 192 0
167 191 0
167 190 0
138 161 72
61 96 149
61 97 152
62 98 158
62 98 160
61 97 156
62 98 158
61 97 158
62 98 166
63 99 167
61 97 153
62 98 165
62 98 168
61 97 160
61 97 158
62 98 157
60 97 160
62 98 166
62 98 162
61 98 164
61 97 164
61 97 158
62 98 169
62 98 167
62 98 165
62 98 167
61 98 167
61 97 164
62 98 170
62 99 173
62 98 167
61 97 168
62 99 171
62 98 171
62 98 166
61 98 172
62 98 172
62 98 171
62 98 168
63 99 170
61 98 165
62 99 173
61 98 166
62 99 173
62 99 172
62 98 162
63 99 169
62 99 171
62 99 173
61 98 165
63 99 171
62 98 170
63 99 174
63 100 175
62 99 174
62 99 171
62 98 170
62 98 165
62 99 172
62 98 168
61 98 170
61 97 169
62 99 177
62 99 170
62 99 174
63 99 173
61 97 168
61 98 172
62 99 169
62 98 166
62 99 172
61 98 170
62 99 169
61 97 161
62 98 166
62 99 169
63 99 173
62 99 169
62 98 166
62 99 171
63 99 168
62 98 168
63 99 175
62 98 167
62 99 170
63 100 176
62 98 168
62 99 170
62 98 173
62 99 169
62 99 164
62 98 168
62 99 172
62 98 170
63 100 174
62 99 171
63 99 173
62 98 168
62 99 172
61 98 165
62 99 177
62 98 166
62 98 162
62 98 164
62 99 170
62 99 170
62 98 168
62 98 169
63 99 170
62 98 168
62 98 164
63 99 166
62 98 164
62 99 173
62 99 168
62 99 167
62 98 165
63 99 168
63 99 170
62 99 173
63 99 171
62 99 170
61 98 162
62 98 166
61 98 164
62 98 161
62 98 165
62 99 171
62 98 165
61 98 164
62 98 168
62 99 169
62 98 166
62 99 171
63 99 163
62 98 159
62 98 166
63 99 167
62 98 166
62 98 169
62 99 165
63 99 171
62 98 164
62 99 165
62 98 169
62 98 166
62 97 163
62 98 164
62 98 163
62 98 163
61 97 164
62 98 161
62 98 168
61 97 160
62 99 166
62 97 160
62 98 161
61 97 160
61 97 160
61 97 158
61 97 152
61 97 158
62 98 164
62 98 163
63 98 164
61 96 152
61 96 153
61 96 157
60 95 149
61 96 155
61 96 156
61 96 158
60 95 151
60 94 150
61 95 153
60 94 148
61 95 151
61 96 154
57 89 135
62 83 106
59 66 55
60 63 22
68 73 32
61 66 28
75 77 30
68 69 19
80 80 20
74 78 30
78 81 40
75 77 27
80 81 31
91 92 36
84 86 30
89 89 31
99 99 44
101 102 47
94 94 38
106 106 38
88 90 40
102 103 42
105 104 47
111 111 47
115 113 43
119 117 51
118 116 51
127 125 50
117 116 58
120 118 53
122 119 52
118 117 51
129 127 53
121 120 54
136 133 55
127 125 58
133 130 63
124 122 54
141 137 61
132 130 56
131 128 58
142 138 64
147 141 67
139 136 63
135 131 59
143 139 60
155 149 69
144 140 60
145 141 65
142 137 61
144 140 63
152 147 65
148 143 61
150 144 70
151 146 64
158 152 64
149 144 60
155 149 62
157 151 72
152 147 65
152 146 66
153 148 66
151 146 57
157 151 65
156 151 64
143 137 60
157 152 60
152 147 66
155 149 67
155 148 69
155 148 65
156 150 65
159 153 68
162 155 69
156 150 66
153 148 63
157 151 61
156 150 60
158 153 63
154 148 67
154 148 63
145 140 58
157 151 64
152 147 62
149 143 66
153 147 66
154 149 63
154 149 65
148 143 56
157 151 69
148 143 54
148 143 58
154 148 65
147 141 60
149 144 54
146 140 53
145 140 52
148 141 64
135 130 53
152 145 68
144 139 56
147 141 56
139 133 49
148 142 58
142 136 52
147 140 60
130 126 44
147 141 57
140 136 52
144 137 51
140 135 52
142 137 48
130 124 44
131 127 42
127 123 45
138 135 47
134 136 39
141 145 36
146 149 39
143 152 19
152 162 32
150 162 19
159 171 28
159 171 32
164 181 16
169 187 0
167 186 11
164 183 0
171 191 0
169 188 0
167 186 0
169 189 0
169 190 0
169 188 0
167 187 0
172 192 0
172 191 0
169 191 0
174 197 25
170 194 0
173 197 25
171 193 0
174 197 25
172 195 25
168 191 25
175 198 51
173 196 51
172 195 36
172 195 25
174 196 67
174 196 36
173 196 36
174 197 51
173 195 25
173 196 25
170 193 36
174 197 57
168 192 57
172 196 36
173 196 36
173 196 36
173 196 44
172 195 62
170 193 36
173 196 51
170 194 44
170 192 57
172 195 51
172 194 57
177 200 76
173 195 57
174 197 44
173 195 62
171 194 72
171 195 62
171 194 36
175 197 72
170 194 36
176 198 76
172 196 51
175 198 57
170 193 25
174 197 72
170 194 44
170 194 51
175 198 62
169 190 25
172 195 36
166 190 25
174 197 44
172 194 67
173 196 57
170 192 51
172 195 36
172 194 57
170 193 62
167 190 44
177 199 80
170 193 62
174 196 57
171 194 25
170 192 44
167 191 25
174 196 36
170 193 25
169 191 36
171 193 36
168 191 44
167 190 25
169 192 36
171 194 51
171 194 36
171 194 36
168 190 0
166 189 0
166 189 0
170 193 0
166 188 0
168 192 0
169 192 0
166 189 18
168 191 0
124 149 102
61 96 151
61 96 151
61 97 156
61 97 156
61 96 151
62 98 161
62 98 163
62 98 165
61 97 158
62 98 157
62 98 167
62 98 162
60 96 157
60 96 158
60 96 154
60 96 157
62 98 161
62 98 163
61 97 157
61 98 166
62 99 171
62 98 164
62 98 169
61 97 163
62 98 165
61 97 161
62 98 169
61 98 166
61 98 167
62 98 167
62 99 169
62 98 170
61 98 166
62 98 171
62 98 171
62 99 171
62 98 165
62 98 168
63 99 172
62 98 165
61 98 172
62 99 175
62 98 169
62 98 167
61 98 170
62 99 171
63 99 173
62 99 175
61 98 167
63 99 167
61 98 169
62 98 171
62 99 176
63 99 173
62 99 173
62 99 172
62 99 172
62 98 175
62 98 168
63 99 174
62 99 174
62 99 175
61 98 169
62 99 173
63 99 175
62 99 170
63 99 173
62 98 165
62 98 165
62 99 168
62 98 167
62 99 172
62 98 169
63 99 174
62 99 179
63 100 174
62 98 168
62 98 172
62 99 170
62 99 172
61 98 171
62 98 162
62 98 167
62 98 168
62 99 174
61 98 166
62 99 169
62 98 167
62 99 172
62 99 170
62 99 165
62 99 176
62 98 168
61 97 161
62 99 171
62 99 173
62 98 171
62 99 165
62 99 171
62 99 170
62 98 165
62 98 168
62 98 167
62 99 171
62 99 168
62 98 167
62 99 170
62 99 171
62 99 168
62 98 165
62 98 162
62 98 161
62 99 169
62 98 163
62 99 167
61 98 161
62 98 167
61 98 166
63 99 171
62 99 165
62 99 163
62 99 170
63 99 173
62 98 162
62 99 167
62 98 167
62 99 173
62 99 168
62 99 169
62 99 170
62 99 165
63 99 170
62 98 169
62 98 165
63 99 169
62 98 162
62 98 161
63 99 168
61 98 159
62 98 163
63 99 165
62 98 164
62 99 167
62 98 161
63 99 170
62 98 163
62 98 160
63 99 166
62 98 163
62 98 162
61 97 155
62 98 165
62 99 168
62 98 161
61 98 161
62 98 163
62 98 163
62 98 165
62 98 162
62 98 161
61 97 157
62 97 160
61 97 155
62 97 156
61 98 166
61 97 158
61 97 155
60 96 150
61 96 151
61 96 148
58 93 140
60 94 147
61 96 154
61 96 154
60 94 142
61 95 149
58 91 139
58 91 138
64 86 120
69 77 55
65 70 31
78 78 24
86 84 20
73 74 23
74 77 30
77 80 27
74 77 22
81 84 24
82 82 28
81 84 38
90 91 39
80 82 31
88 90 39
96 97 44
111 111 41
97 97 43
101 102 39
99 100 47
97 97 36
114 115 43
111 110 43
113 112 53
100 101 48
113 113 41
117 115 51
120 119 47
123 121 43
120 118 50
124 122 51
120 118 57
129 126 51
132 129 58
127 125 52
131 129 55
137 133 67
129 126 55
126 124 52
145 140 65
135 131 59
144 140 63
139 135 64
138 134 62
147 143 69
146 141 63
152 147 61
144 140 60
148 143 69
150 145 64
150 145 60
147 142 66
142 138 59
144 139 56
144 140 64
155 151 65
155 150 62
140 136 50
156 150 67
158 152 68
155 150 64
147 143 54
148 144 60
161 153 71
158 152 70
154 148 67
155 149 64
157 151 62
155 149 67
152 146 64
161 154 64
153 148 61
151 145 66
154 149 64
159 153 62
145 140 54
155 149 60
151 146 53
151 144 62
155 148 61
157 151 61
158 152 67
154 149 56
151 144 59
149 142 60
155 149 64
154 148 53
148 143 57
152 146 62
147 141 60
150 144 57
149 143 59
154 149 59
153 147 58
150 144 59
150 144 54
150 144 54
148 141 64
148 143 58
144 138 56
137 132 45
144 138 52
146 140 60
145 138 53
146 141 56
141 135 59
144 137 52
132 126 45
134 128 48
145 139 51
137 131 53
132 128 45
135 131 45
131 130 37
144 144 42
136 137 37
142 147 36
148 154 36
139 145 30
150 160 25
145 157 19
157 170 25
161 175 25
164 182 0
167 187 16
166 184 0
166 185 0
169 189 0
168 188 0
167 187 0
171 189 0
171 191 0
169 189 0
166 186 0
168 188 0
170 188 0
169 188 0
171 193 0
172 196 0
171 195 0
173 197 25
173 196 25
170 194 0
173 196 0
172 196 0
173 196 51
171 194 36
173 196 51
172 195 36
174 197 51
172 195 36
176 198 72
172 195 36
171 194 0
173 197 36
173 195 62
169 191 36
174 197 51
174 197 51
169 192 25
176 198 51
172 195 44
171 193 57
173 197 51
170 193 51
172 195 44
169 193 51
176 198 84
172 194 44
172 196 51
169 193 67
174 195 57
172 195 67
173 196 72
170 193 57
176 199 67
172 195 36
176 199 76
176 199 67
174 197 67
174 197 72
174 196 67
173 195 57
173 195 72
168 192 72
173 196 72
170 193 36
172 195 62
175 197 51
174 196 57
171 195 36
171 193 57
169 192 51
172 195 44
168 192 25
174 196 62
168 191 36
172 194 44
169 193 44
171 193 44
174 196 62
165 188 36
167 191 44
169 191 25
173 195 51
173 195 25
169 192 51
172 194 57
168 192 36
174 195 44
169 192 0
170 192 25
169 192 57
166 189 0
164 188 0
172 195 0
171 194 0
164 187 0
169 191 18
168 191 18
166 190 18
125 150 107
65 100 151
62 98 157
62 98 159
61 96 153
61 97 154
61 97 156
61 97 157
62 98 164
61 97 157
62 98 163
62 98 162
61 97 155
62 97 158
62 98 162
62 98 168
61 97 161
62 99 168
61 97 165
61 97 158
61 98 164
62 98 169
63 99 164
62 98 169
61 97 166
61 97 165
61 97 162
62 98 166
62 99 172
61 98 167
61 97 167
61 98 165
62 98 160
61 98 160
62 99 170
62 99 170
61 97 162
62 98 170
62 99 171
63 99 170
62 98 172
63 99 174
62 98 167
62 98 165
61 97 158
61 98 169
62 98 168
61 97 161
62 98 168
62 99 175
63 99 169
61 98 170
63 99 173
63 99 174
62 99 170
63 100 173
62 98 165
61 98 168
62 99 170
61 98 164
62 99 170
61 98 167
61 98 165
62 99 173
62 99 170
62 99 171
62 99 173
62 98 169
62 99 173
63 99 171
62 98 165
62 99 173
62 98 167
63 99 169
61 98 170
63 99 168
62 99 170
63 99 171
62 99 171
62 99 169
61 98 166
63 99 173
61 98 167
62 99 170
62 98 169
62 98 168
62 98 170
62 99 169
62 98 167
61 97 163
61 98 165
62 98 164
62 98 164
62 99 171
62 99 173
62 98 165
61 98 170
63 100 175
62 99 170
61 98 168
62 99 168
62 99 167
62 99 173
62 99 169
61 98 165
61 98 169
63 100 173
63 99 170
62 99 169
62 99 172
61 97 162
62 98 166
62 98 163
62 98 159
62 98 166
63 99 166
63 99 170
62 99 164
60 96 159
63 99 169
63 99 166
63 99 168
62 99 171
63 99 174
62 98 166
62 98 165
62 98 163
61 97 161
62 99 169
63 99 170
61 97 159
63 99 171
62 98 164
61 98 162
62 98 165
61 98 161
62 99 166
61 97 160
62 98 158
62 98 162
62 98 165
62 98 166
62 98 158
62 98 165
62 98 162
62 98 166
61 97 164
62 98 163
62 98 162
62 98 160
62 97 161
62 98 159
63 99 167
63 99 165
62 98 161
62 98 162
61 97 155
61 97 158
63 99 168
61 96 150
62 97 159
62 98 162
62 98 156
62 97 160
61 97 158
61 96 153
62 98 164
62 97 157
62 97 157
61 97 159
61 96 158
61 95 151
61 96 151
60 95 151
60 95 144
59 92 138
61 95 154
59 92 148
58 90 136
59 84 116
71 81 65
59 62 24
67 70 26
75 76 20
77 78 15
88 87 27
87 87 23
79 81 23
82 82 26
85 87 36
94 92 31
90 92 33
83 84 30
84 85 31
95 97 37
94 94 38
99 100 37
92 93 33
112 110 47
104 104 40
110 109 50
120 118 44
109 108 46
116 114 49
119 117 56
127 125 53
119 117 52
124 121 56
129 125 51
123 120 58
116 116 42
126 124 50
129 126 60
137 133 56
132 128 56
131 128 58
132 128 51
142 138 62
141 137 54
135 132 49
145 140 58
143 138 65
143 139 58
142 138 58
142 138 59
145 140 62
157 150 78
145 140 62
149 143 61
145 141 62
152 146 68
147 142 61
144 140 60
144 140 63
154 149 69
151 146 65
149 144 59
149 144 63
154 148 67
159 153 64
148 143 60
148 144 58
156 150 72
149 144 59
159 152 71
154 148 60
156 151 65
161 154 73
154 148 58
153 148 66
154 149 68
151 146 59
159 153 68
160 153 69
151 146 58
153 146 68
156 151 64
154 148 57
156 149 60
151 144 62
152 146 57
152 146 58
154 147 67
149 144 53
154 148 61
155 148 63
151 145 54
152 145 54
146 141 59
143 137 61
145 140 54
144 139 56
153 147 62
153 147 62
140 135 53
151 146 58
150 144 62
142 137 47
145 139 52
139 134 60
140 135 48
130 125 45
137 132 54
137 132 48
139 134 41
135 131 56
135 130 39
133 128 48
129 124 45
140 134 53
133 130 41
122 120 34
143 142 39
137 138 41
142 146 37
136 142 28
140 149 28
156 166 32
153 163 25
159 175 16
161 176 32
160 178 16
162 180 0
166 184 11
167 186 0
170 188 0
168 188 0
167 186 0
169 189 0
167 188 0
171 192 0
170 192 0
170 189 0
167 186 0
162 181 0
171 190 0
174 197 44
174 197 36
172 195 36
172 195 0
171 194 0
172 195 51
174 197 57
171 195 36
171 195 36
172 195 36
175 197 51
173 196 51
174 197 44
173 196 36
167 190 51
174 197 51
174 197 44
176 197 84
174 197 57
173 196 51
173 196 51
172 194 57
175 198 62
173 197 36
172 196 44
175 197 72
176 198 72
172 195 51
176 198 72
172 194 62
176 199 72
176 199 72
176 199 72
173 195 57
175 197 92
174 196 51
176 199 80
168 192 57
172 195 57
173 196 80
176 198 72
173 195 72
175 198 72
175 196 76
175 197 84
177 199 92
172 195 67
174 196 72
171 193 51
174 196 67
169 192 62
172 195 44
175 197 67
167 190 51
177 199 88
175 197 57
170 193 44
170 192 62
173 196 57
175 197 67
175 197 57
172 194 67
167 190 36
169 192 25
168 192 36
171 194 62
171 194 51
172 195 36
169 191 25
171 195 51
169 192 51
167 190 44
167 191 0
169 192 25
164 188 0
169 191 25
157 180 25
171 194 25
166 189 25
168 190 0
169 191 36
170 193 36
167 190 18
165 188 31
121 147 105
63 99 153
64 99 155
63 98 154
61 97 152
61 97 151
61 97 158
61 97 155
62 98 162
61 97 157
62 98 161
61 97 153
63 99 162
61 97 158
61 96 155
61 97 160
61 97 160
62 99 168
62 98 165
61 98 166
60 96 156
62 98 164
61 97 162
62 99 173
62 98 165
61 97 164
62 98 170
61 97 167
61 98 166
61 97 163
62 98 170
61 97 162
61 98 165
61 98 167
62 98 169
61 98 168
62 98 168
61 98 166
61 98 171
61 98 171
61 97 165
63 99 174
63 99 171
62 99 169
62 98 163
63 99 167
62 99 174
62 98 168
61 97 164
61 98 165
61 98 172
62 99 175
61 97 169
62 98 165
62 98 167
61 98 168
62 99 171
62 98 167
62 98 168
61 98 167
62 99 168
62 98 162
62 99 173
62 99 168
62 98 170
62 98 168
62 99 170
62 99 170
61 98 163
61 97 162
63 99 174
62 99 170
62 99 168
61 98 167
62 99 169
62 99 175
62 98 169
62 98 170
62 99 172
63 99 170
62 99 168
62 98 167
62 99 171
62 98 165
62 99 173
62 98 166
62 98 171
62 99 173
61 97 160
62 98 168
62 99 171
63 99 174
62 98 168
62 99 170
62 99 170
62 98 167
62 99 166
62 98 167
61 97 163
62 98 169
62 99 165
61 98 166
62 98 169
62 99 170
61 98 164
62 98 169
62 98 167
62 99 169
63 99 170
62 99 168
62 98 167
62 98 163
62 99 169
62 99 171
62 98 163
62 99 168
62 99 169
62 98 168
62 99 166
62 99 168
61 97 159
63 99 163
61 98 163
62 99 167
62 99 170
62 99 171
62 99 169
62 98 164
61 98 165
62 98 166
62 98 164
62 98 164
61 97 162
62 98 166
62 98 168
61 97 157
63 99 167
63 99 166
62 98 166
62 98 161
62 99 169
62 99 169
61 98 166
61 97 159
62 98 157
62 99 165
63 99 169
61 97 161
62 98 161
62 98 168
61 97 155
61 97 154
61 98 160
63 99 167
62 99 167
62 98 160
62 98 162
61 97 159
63 99 169
61 97 154
62 98 160
61 96 154
62 98 162
62 98 160
62 97 162
61 96 152
61 97 154
60 95 153
61 96 152
60 95 144
61 97 158
62 97 157
61 96 154
61 96 155
61 95 148
61 96 153
61 95 149
59 92 140
58 89 131
59 89 135
68 80 80
68 70 30
78 81 21
71 73 25
66 69 23
82 83 21
64 68 27
83 84 24
83 85 34
91 91 31
83 85 26
86 88 34
93 93 32
92 91 33
93 93 41
103 101 31
89 89 25
99 99 36
109 107 47
100 101 42
109 109 44
97 97 44
102 101 42
118 116 45
117 115 50
110 109 42
112 111 45
121 119 49
116 113 46
122 120 50
115 113 49
125 122 53
120 118 48
122 120 48
129 126 53
137 133 57
123 121 58
139 135 66
138 133 56
139 136 53
138 134 55
141 136 61
141 135 58
140 136 60
152 148 66
140 137 53
148 143 62
144 139 62
151 146 60
144 140 60
144 140 55
150 144 59
141 136 53
140 136 46
144 140 57
147 141 59
145 140 61
150 145 65
144 139 57
153 148 60
152 147 59
156 150 65
147 140 54
149 144 54
152 147 57
155 149 62
155 149 62
155 149 60
159 152 61
153 147 61
150 144 60
151 145 61
153 147 63
151 146 67
158 152 66
148 144 57
156 150 66
154 148 59
146 140 59
147 141 59
148 143 60
150 145 58
157 151 59
144 139 52
152 145 63
155 149 61
154 148 61
147 141 62
151 147 57
150 145 57
149 142 62
145 140 54
149 144 62
148 143 54
147 140 61
139 135 49
139 133 49
147 141 59
138 132 47
140 134 57
144 137 62
139 135 37
130 125 51
144 138 53
135 131 48
140 134 54
143 137 58
135 130 52
131 126 48
124 120 36
138 134 51
137 136 41
134 135 41
134 136 34
147 154 34
144 149 30
149 159 11
155 164 32
154 166 25
156 171 16
157 173 16
161 177 19
165 183 11
170 188 11
168 186 0
169 189 0
174 194 0
171 192 0
170 188 0
169 188 0
169 189 0
170 191 0
172 192 0
172 192 0
170 190 0
171 191 0
175 198 36
173 195 25
172 196 51
172 195 36
172 195 36
168 191 0
173 196 51
171 194 36
174 196 57
173 195 62
174 197 44
175 198 57
174 197 51
174 197 51
177 199 62
170 194 25
173 197 51
174 196 57
172 196 0
175 197 62
177 199 62
178 200 92
174 197 67
173 196 44
174 196 76
178 200 88
174 196 57
174 197 76
173 196 62
177 200 72
172 195 57
174 197 80
174 197 76
178 199 92
173 196 62
174 195 76
176 199 84
177 199 80
174 197 76
173 196 80
177 199 72
177 199 84
176 199 72
174 196 72
174 197 80
180 201 105
176 197 84
176 199 67
173 196 72
180 202 95
172 193 76
175 196 92
173 195 72
173 196 57
175 198 76
173 196 57
172 195 57
173 195 62
169 191 57
172 195 76
174 196 76
169 192 36
169 192 51
172 195 57
170 193 44
168 189 51
169 192 44
171 194 76
172 195 57
168 191 51
170 193 36
168 191 44
169 191 36
170 192 57
172 194 25
167 190 51
170 191 44
166 189 36
171 194 44
171 194 36
164 188 44
164 187 0
170 193 40
160 184 36
113 139 118
67 101 145
69 103 152
65 99 151
62 98 159
62 97 163
61 97 149
61 97 155
62 97 156
62 98 158
62 98 160
62 98 164
61 96 152
62 98 163
61 98 160
62 98 159
61 97 161
62 98 165
62 98 165
62 99 166
62 98 163
60 96 158
62 98 162
61 98 168
62 98 169
63 99 171
61 97 164
61 97 162
62 99 172
62 98 167
62 98 169
62 98 171
62 98 168
62 98 166
61 98 163
62 98 167
62 98 166
62 98 168
62 99 166
62 98 171
61 98 167
61 98 169
62 99 168
62 99 168
61 97 163
62 98 170
62 98 166
62 98 169
62 98 166
62 98 171
62 99 171
62 99 172
61 98 171
62 99 172
61 98 163
62 98 166
62 98 167
62 98 167
61 98 170
62 99 170
61 97 158
62 99 172
62 99 174
62 99 172
62 98 164
62 98 170
62 99 172
62 98 169
61 98 165
62 99 167
62 98 169
61 97 164
62 98 172
61 98 170
62 98 173
62 98 171
62 98 164
62 98 170
62 99 166
62 99 171
62 99 171
63 100 173
62 98 171
62 98 168
61 98 166
62 99 168
62 99 169
62 99 171
62 98 167
62 98 166
61 98 169
62 99 170
62 98 164
62 98 168
61 98 164
62 98 165
62 98 169
62 98 168
62 98 169
61 98 168
62 98 164
63 99 171
62 98 172
62 98 167
62 99 168
61 98 163
62 98 167
62 98 166
64 100 174
62 98 164
62 99 171
63 99 170
62 98 161
61 98 164
62 99 167
62 98 170
62 98 170
62 99 168
62 98 167
62 99 167
62 98 163
62 98 163
63 99 169
62 98 168
61 98 168
62 98 164
63 99 170
62 98 157
63 99 169
62 98 159
62 98 166
61 98 159
62 98 166
62 99 165
62 98 158
62 99 171
62 98 165
62 98 165
62 98 162
62 98 166
62 99 172
63 99 166
62 99 170
62 98 158
61 98 165
61 97 162
63 99 166
62 98 163
61 97 161
61 98 162
61 97 165
62 98 163
62 98 162
61 97 153
62 98 159
62 97 160
63 99 168
62 98 161
62 98 162
61 96 159
61 97 157
61 97 161
62 98 165
61 97 161
61 97 152
61 97 153
61 97 155
62 97 158
62 98 165
60 95 152
62 97 154
61 96 152
61 96 152
62 97 158
59 92 138
61 95 145
60 94 149
60 95 145
58 92 145
53 83 119
73 80 70
80 80 25
77 77 13
70 72 20
60 64 21
78 81 25
86 86 22
81 82 19
73 76 29
87 87 34
92 91 33
96 96 29
97 96 32
84 82 30
97 97 33
91 92 39
103 103 38
103 102 44
99 98 37
107 106 49
98 99 29
106 105 38
111 110 39
95 95 37
109 109 43
112 111 45
108 106 34
121 117 45
123 121 50
120 118 49
127 124 50
118 116 49
126 123 50
121 119 51
134 131 58
134 130 60
128 124 50
128 126 51
132 127 57
135 130 62
133 130 53
139 135 50
133 129 56
137 134 51
147 141 60
138 134 60
139 135 55
147 142 64
149 143 58
152 145 65
146 141 65
145 140 55
153 147 61
146 140 59
152 147 56
154 148 65
147 142 58
150 145 63
140 136 51
149 143 58
149 143 66
147 143 52
153 148 62
154 148 65
153 148 56
146 141 62
146 141 58
151 146 60
155 148 59
152 147 57
154 149 60
154 148 58
147 142 54
156 149 64
154 148 53
164 157 73
149 143 55
156 149 64
151 146 57
152 145 62
153 147 63
156 150 54
154 148 61
154 149 63
148 142 61
155 148 63
151 145 62
147 140 59
146 140 57
146 140 56
139 134 53
150 144 59
150 144 53
139 133 53
146 140 56
143 137 48
145 140 56
143 138 47
137 133 52
141 136 53
145 138 49
139 133 54
141 135 58
139 133 51
132 127 45
130 125 37
145 140 49
131 126 48
139 134 41
128 127 32
135 133 41
140 138 45
135 139 39
143 146 34
141 146 34
149 157 32
154 165 25
155 169 19
155 166 19
159 176 16
160 177 11
158 174 0
164 182 11
167 186 0
169 188 0
164 182 0
172 191 0
169 189 0
167 187 0
168 187 0
170 190 0
172 193 0
170 190 0
170 188 0
169 189 0
167 188 0
173 197 36
172 195 44
173 196 36
172 196 0
169 193 0
172 197 36
170 194 25
175 198 51
173 196 67
171 194 0
174 197 44
176 198 72
175 198 57
173 196 44
173 196 57
166 189 57
170 194 36
177 199 88
177 199 92
178 201 84
174 198 72
174 196 62
174 197 80
180 202 99
177 199 88
178 201 92
178 199 95
175 198 57
177 199 108
175 197 105
172 195 67
175 198 72
176 198 76
178 200 84
175 197 76
174 196 76
179 201 92
183 204 120
179 201 92
175 196 88
175 197 80
171 193 80
176 199 92
178 199 84
179 201 99
175 197 80
182 204 105
175 197 88
176 198 80
179 201 92
177 200 76
175 197 76
176 198 80
177 199 95
180 201 88
179 200 95
177 199 92
178 200 95
173 196 72
175 198 84
175 197 57
171 194 67
176 198 57
175 198 67
176 198 72
174 197 51
175 197 84
174 196 44
165 188 25
167 189 44
171 194 57
174 196 57
168 191 57
169 192 25
169 191 62
172 194 62
169 191 25
169 192 51
169 192 36
170 193 51
160 184 25
166 189 31
164 187 31
163 186 31
118 144 120
74 106 137
73 104 136
68 102 157
63 98 154
66 101 156
62 97 153
64 99 156
62 98 157
61 97 154
62 99 166
61 97 159
61 97 158
62 97 158
61 97 158
60 96 154
62 98 162
60 96 160
61 97 161
61 97 160
62 98 166
62 98 166
61 97 161
60 97 163
62 99 172
62 98 167
63 99 172
62 99 169
61 97 163
62 98 163
61 98 169
61 98 167
62 98 165
62 98 168
62 98 165
62 99 171
61 98 167
61 98 167
62 99 168
62 98 170
62 98 167
63 99 175
61 98 167
62 99 168
62 98 173
62 98 165
62 98 167
62 98 166
62 98 165
62 99 169
63 99 168
61 98 170
62 98 168
62 99 167
62 98 170
62 98 168
62 98 167
62 99 173
63 99 173
61 98 170
62 98 170
62 99 173
63 99 167
61 98 169
62 99 171
62 98 171
62 99 167
62 98 163
62 99 173
61 98 170
62 98 167
61 98 165
62 99 173
62 99 174
61 98 169
62 98 168
61 98 166
63 99 170
62 99 174
62 98 166
62 98 168
63 100 174
62 99 171
62 98 165
62 99 170
62 98 170
62 98 171
61 98 167
62 99 172
62 99 170
61 98 166
63 100 172
62 99 174
62 99 169
62 98 164
62 98 170
63 99 170
62 99 173
62 98 167
63 99 174
62 98 163
62 98 168
63 99 168
61 98 164
62 99 172
62 98 166
62 98 162
61 97 159
62 98 164
62 99 169
62 98 162
62 98 163
62 98 163
62 98 168
62 98 169
62 99 168
63 99 170
61 97 164
62 99 169
63 99 165
62 98 167
62 98 165
62 98 162
62 98 165
62 98 162
62 98 164
63 99 174
62 98 161
62 98 166
62 98 167
62 98 163
62 98 166
61 97 161
62 98 164
63 99 169
61 97 160
62 98 160
62 98 166
62 98 164
62 98 166
62 97 158
62 98 163
62 98 161
63 99 171
62 98 165
63 99 164
62 98 162
61 98 164
61 98 163
62 98 163
62 98 161
62 98 165
61 97 163
62 98 165
62 98 165
62 97 159
62 97 159
61 97 162
61 98 160
61 97 160
62 97 156
61 97 156
61 97 149
62 97 156
61 96 153
62 97 156
62 96 151
61 97 153
61 97 158
61 96 152
60 94 143
61 96 152
60 94 150
60 95 145
61 96 151
61 96 151
60 95 142
58 92 137
58 91 144
58 89 128
76 85 82
76 75 17
62 63 22
74 74 19
71 71 20
75 76 19
80 81 19
95 93 21
87 84 26
88 88 33
77 79 24
77 79 25
89 89 31
97 97 33
84 86 30
92 92 31
98 97 32
103 102 37
97 98 31
116 113 45
102 102 41
100 101 39
98 98 33
112 110 38
113 112 48
106 106 41
118 116 47
113 113 45
111 109 45
125 122 58
115 112 42
122 118 47
128 125 56
123 121 40
134 131 52
136 131 53
136 132 53
129 124 51
131 129 53
129 126 55
134 130 55
129 126 46
134 130 54
132 128 53
137 132 53
145 140 60
148 142 60
143 139 64
144 138 63
153 146 67
136 133 52
145 140 47
139 133 51
153 147 65
142 137 55
140 136 56
146 142 54
141 138 50
149 143 52
150 144 58
147 142 53
151 145 63
149 143 60
152 146 56
144 139 47
154 147 58
153 148 56
155 149 67
150 145 51
156 150 64
154 147 63
155 149 60
153 146 62
139 135 45
142 136 58
148 142 60
155 150 58
150 144 51
153 146 56
159 153 65
152 146 63
148 142 56
148 142 59
144 139 54
144 139 58
146 141 49
145 140 53
138 134 49
144 138 60
146 140 60
138 132 45
147 141 56
142 137 47
140 134 44
142 137 41
141 137 44
150 144 48
141 135 54
135 130 45
144 138 54
133 129 45
137 131 44
142 137 47
132 128 44
141 135 53
138 133 44
134 129 47
129 124 44
128 124 42
126 121 41
137 139 37
142 139 49
142 144 36
147 153 30
139 147 22
143 150 30
142 150 11
155 166 28
156 170 19
159 174 16
159 175 11
163 181 0
165 183 0
168 187 0
169 190 0
171 192 0
164 182 0
168 186 0
168 188 0
169 187 0
168 187 0
167 186 0
167 186 0
163 182 0
164 184 0
165 186 0
173 196 44
174 196 57
176 199 72
175 198 62
172 195 44
174 197 36
176 199 72
175 198 57
174 197 44
173 197 57
174 196 62
175 197 67
178 200 80
178 199 80
176 199 57
175 198 57
174 196 80
180 202 92
175 198 62
174 196 76
177 199 84
178 200 102
175 197 84
171 195 57
176 198 76
178 199 105
181 203 102
181 202 95
180 200 122
176 197 99
175 197 80
184 205 114
182 204 105
183 204 117
178 199 92
177 199 105
178 200 95
177 200 84
178 199 102
177 199 88
179 201 95
178 200 95
183 204 111
181 202 102
180 200 105
178 201 105
179 201 99
176 197 102
183 204 108
173 195 108
180 201 120
177 199 84
176 198 102
178 200 84
176 198 88
180 202 108
175 196 76
176 198 99
174 194 99
173 196 67
176 198 84
175 198 84
174 195 95
173 195 84
172 195 72
172 193 72
172 195 51
173 195 62
169 192 51
169 191 44
172 193 51
173 196 36
171 194 57
173 195 57
173 196 57
170 194 44
169 192 57
169 191 25
173 194 57
169 192 47
166 189 54
163 187 47
165 188 47
162 185 54
102 128 129
66 101 157
64 98 149
67 100 152
63 98 150
63 98 154
64 99 162
73 107 162
62 98 160
64 99 162
61 97 162
63 98 152
61 97 156
61 98 165
62 98 167
61 97 158
61 96 154
62 98 157
61 97 155
61 97 163
61 96 161
61 98 162
62 98 165
61 98 168
61 97 164
62 98 161
62 98 166
61 98 167
62 98 164
60 96 157
62 98 167
61 98 164
62 99 168
60 96 159
62 98 170
62 98 163
61 97 161
63 99 171
61 98 163
61 98 167
62 98 168
62 98 170
62 99 168
62 99 168
61 97 165
61 97 162
61 97 164
61 98 166
61 98 168
62 99 168
61 98 171
61 98 169
61 98 169
62 98 167
62 98 172
62 99 169
60 96 155
62 99 171
61 98 168
62 99 166
62 98 170
62 98 166
62 98 166
62 98 169
62 98 165
62 99 171
62 98 170
62 99 174
62 98 168
63 100 175
62 98 166
62 99 168
62 98 167
62 99 169
62 99 172
62 98 166
62 99 167
62 99 167
62 99 170
62 99 173
62 98 163
62 98 171
62 99 171
63 99 172
62 98 170
61 98 164
62 98 171
62 99 169
62 98 170
62 98 164
62 98 171
62 98 170
61 98 160
62 98 163
62 98 162
62 98 172
62 99 169
63 99 170
62 98 166
62 98 168
61 98 168
62 99 169
63 99 168
63 99 173
62 99 169
62 99 170
63 99 168
62 98 162
61 98 166
62 99 163
62 98 161
62 98 170
63 99 171
62 98 168
62 99 163
62 98 167
63 99 166
61 97 168
62 99 166
61 98 162
62 98 165
62 98 162
62 98 163
62 99 170
62 98 168
62 98 160
61 98 161
63 99 167
62 98 165
62 98 164
62 98 166
62 98 163
61 98 161
62 98 164
62 98 158
61 98 162
61 98 160
62 98 160
62 98 159
62 98 164
62 98 163
62 98 164
62 98 162
62 98 166
62 98 163
62 98 163
62 98 164
61 97 155
62 98 159
61 97 158
61 97 155
62 98 164
61 97 160
62 98 156
63 99 162
62 97 157
61 97 153
62 98 166
62 98 158
62 97 156
62 98 159
62 98 159
61 97 154
60 96 153
62 97 158
62 98 163
61 96 152
60 95 152
61 95 152
62 96 155
62 96 160
62 97 159
61 96 155
62 97 155
59 93 140
60 94 143
60 94 149
60 94 144
59 92 142
58 91 137
73 84 74
70 71 19
78 77 16
82 82 17
77 78 17
87 84 20
75 78 27
90 91 28
84 85 20
92 93 13
87 87 27
80 81 24
94 93 30
84 86 18
83 85 35
94 94 29
93 95 32
107 106 30
93 94 31
93 94 36
113 110 40
109 106 39
112 111 41
110 108 41
116 114 39
120 118 44
114 113 40
119 117 43
118 115 43
118 116 49
119 116 41
121 118 46
122 120 48
122 120 43
124 121 49
118 117 48
131 128 50
131 128 48
131 127 53
133 129 50
130 127 46
139 135 55
136 133 57
138 134 55
139 134 57
143 137 64
137 134 54
142 138 56
140 136 55
137 133 49
143 138 58
150 144 63
143 139 53
146 142 49
146 141 53
153 147 60
151 146 58
138 134 49
139 133 58
149 143 53
149 144 62
152 146 64
151 145 61
149 144 59
158 152 60
149 143 58
143 137 60
152 146 61
145 139 59
150 143 58
151 146 54
154 150 54
148 143 59
150 143 64
151 146 57
150 145 58
145 139 52
152 146 63
147 141 54
143 137 52
144 140 48
152 145 53
144 139 53
148 142 54
142 135 59
148 142 54
145 140 54
148 142 57
145 139 42
140 135 49
144 139 45
147 141 56
142 137 52
145 139 44
139 133 48
146 140 53
138 132 53
135 130 32
133 129 39
138 132 48
137 131 47
145 140 52
142 137 52
130 125 45
130 123 45
127 123 39
139 134 49
136 131 42
134 131 45
135 137 37
140 142 44
145 148 39
143 148 34
141 147 28
145 155 28
149 162 22
157 169 25
154 166 19
160 176 0
166 183 11
162 179 11
168 186 0
167 187 0
170 189 0
170 189 0
168 187 0
165 183 0
166 183 0
169 188 0
166 186 0
167 189 0
169 187 0
166 184 0
165 183 0
167 186 0
168 186 0
177 200 57
175 198 36
171 195 36
172 194 51
173 196 57
173 196 62
176 199 72
179 201 92
172 195 51
173 196 62
177 199 84
171 194 44
181 203 99
178 201 92
170 193 44
181 203 99
177 199 88
180 201 105
179 201 99
175 198 84
177 200 88
176 199 76
181 203 105
180 202 111
182 203 114
182 204 105
177 198 99
183 204 108
179 200 108
176 199 99
179 201 92
180 200 122
185 206 128
182 202 120
181 202 111
179 201 105
182 204 130
182 204 117
186 206 135
180 202 102
178 200 114
180 200 114
181 202 117
177 198 102
181 202 117
182 202 120
182 202 111
175 197 92
182 203 122
184 205 111
184 206 117
181 203 117
176 197 92
175 197 84
176 199 108
176 198 111
183 204 108
175 197 99
173 197 72
173 194 95
172 194 80
172 193 88
176 198 95
175 198 80
176 198 84
175 197 84
176 197 72
175 198 80
175 198 72
171 193 76
168 191 62
170 193 51
174 197 62
169 192 51
167 189 67
175 197 80
165 189 36
168 191 44
169 192 44
171 192 57
168 191 67
160 182 65
158 182 60
165 188 65
96 125 142
67 101 148
73 105 147
71 104 148
73 106 147
66 100 153
62 97 148
64 99 157
65 100 156
61 96 159
62 98 161
61 97 156
63 98 164
64 99 159
61 97 165
62 98 163
61 97 162
62 98 160
62 98 166
61 98 164
62 98 166
62 99 166
62 98 160
61 97 157
61 97 162
62 98 164
62 98 166
61 97 164
62 98 165
62 99 169
61 97 162
61 98 166
61 97 169
61 97 163
62 98 161
61 97 169
61 97 168
62 99 172
62 98 167
62 98 167
62 98 166
61 97 171
61 98 164
63 99 171
62 98 168
61 98 167
62 98 165
61 98 162
62 99 173
62 98 172
62 99 172
62 98 170
62 99 168
62 98 171
62 98 166
62 99 166
62 99 170
63 100 177
62 99 169
62 99 170
62 99 171
62 98 165
62 99 170
62 99 171
62 99 172
62 99 170
62 98 172
62 98 165
62 98 166
62 99 170
62 98 167
63 99 174
63 99 171
62 98 165
62 98 168
62 99 172
62 99 168
62 99 171
62 98 169
62 99 169
61 98 162
62 99 168
62 98 161
62 99 169
62 98 167
62 99 171
62 98 166
62 98 165
62 98 165
62 99 168
63 99 170
62 99 169
62 99 170
62 99 173
62 99 167
63 99 172
62 98 168
63 99 169
63 99 172
62 98 165
62 98 167
62 98 167
63 99 167
62 98 169
62 99 169
62 99 173
62 98 163
62 99 169
62 98 165
62 98 167
62 98 168
61 98 161
62 98 165
62 99 166
62 98 161
63 99 168
62 98 162
62 98 159
62 98 160
62 98 164
62 98 168
62 98 164
62 99 168
62 98 160
62 98 163
61 98 163
63 99 171
62 98 164
61 97 160
62 98 164
62 99 164
62 98 160
62 98 159
62 98 162
63 99 168
62 99 165
61 97 159
63 99 171
62 98 164
61 97 157
61 97 155
62 98 163
63 99 167
63 99 168
61 97 160
62 98 160
62 98 167
61 97 156
62 98 163
63 99 169
62 98 159
61 97 162
62 97 158
62 98 163
61 97 159
62 98 160
62 98 161
61 97 159
63 99 165
62 98 159
61 97 152
62 98 159
62 97 153
62 97 157
62 97 159
61 97 157
62 97 158
60 95 154
61 97 153
61 96 148
60 95 149
61 96 151
61 96 145
61 96 152
60 94 143
57 90 141
59 94 146
59 93 141
59 93 150
63 90 125
74 85 84
66 68 33
79 79 19
79 79 19
83 83 22
93 92 23
73 73 20
77 78 19
71 74 19
87 86 20
80 80 28
99 99 21
94 94 24
89 90 34
95 95 22
93 93 31
93 95 29
107 106 29
102 101 29
95 96 33
106 104 38
109 109 37
101 100 42
101 100 34
112 111 45
114 113 33
118 116 40
122 119 44
109 109 40
126 123 47
120 118 43
128 126 45
127 123 48
134 130 58
133 129 49
131 129 39
124 121 53
134 131 51
133 130 47
137 132 48
132 128 47
135 131 53
137 132 56
139 134 51
140 136 57
138 135 47
136 132 53
135 132 48
148 142 57
140 135 49
142 138 49
143 137 54
145 141 56
147 142 62
142 138 46
143 137 64
144 137 57
149 143 58
153 147 66
147 142 62
143 139 46
151 146 54
144 138 49
146 141 58
148 142 56
147 142 49
146 141 43
149 143 59
144 138 54
135 130 49
150 144 59
157 150 64
147 141 57
149 143 61
150 144 56
144 139 49
147 142 49
149 143 59
146 140 53
143 138 48
147 141 59
145 140 59
150 143 51
146 140 47
146 140 52
140 135 52
152 146 56
144 139 51
146 139 56
144 140 47
143 137 49
142 138 47
140 136 42
139 134 42
141 135 49
138 132 45
135 131 44
127 123 39
142 136 49
136 131 48
138 132 49
138 133 48
132 127 39
128 123 37
132 125 48
125 121 32
118 114 36
134 131 36
132 133 34
145 144 41
136 139 30
151 154 44
146 152 30
146 156 16
150 160 37
143 151 22
158 171 25
158 172 22
165 181 16
161 179 0
163 180 0
168 187 0
164 183 0
169 187 0
166 186 0
170 190 0
167 187 0
168 187 0
170 189 0
167 185 0
166 185 0
166 184 0
169 189 0
166 187 0
169 189 0
169 188 0
168 192 44
171 195 44
175 198 51
176 198 67
173 195 51
174 197 72
175 197 76
175 197 80
175 198 62
177 200 67
170 193 62
176 199 84
176 199 67
178 200 80
179 201 95
178 200 88
179 201 108
181 202 102
179 201 88
180 202 111
182 203 114
182 203 105
182 204 105
181 202 128
177 199 99
181 202 102
175 197 88
178 199 105
185 205 122
181 204 111
178 200 95
181 202 111
187 207 140
182 203 125
177 199 111
180 201 111
188 208 135
183 204 120
179 201 95
185 206 125
179 201 117
182 203 125
184 204 128
183 204 120
185 206 133
181 202 108
181 202 120
183 203 122
182 203 111
184 206 128
183 203 117
182 203 117
177 199 92
183 204 114
178 200 102
180 202 114
181 202 108
176 198 108
181 202 108
178 199 114
180 202 111
177 199 95
176 198 99
178 199 108
174 196 88
177 200 88
171 194 76
176 198 84
180 202 95
178 199 92
168 190 67
175 196 88
166 188 76
168 191 25
174 197 80
173 196 67
170 194 57
173 194 84
167 189 54
167 189 76
168 191 57
159 181 72
156 178 76
152 175 72
99 126 147
84 114 147
72 104 148
74 106 151
88 117 149
75 107 146
68 102 153
67 102 157
68 102 150
64 99 150
66 101 153
61 98 165
61 97 156
62 98 164
64 99 152
62 98 162
62 98 165
61 98 163
62 98 164
61 97 158
61 97 154
61 98 171
61 97 160
62 98 159
61 98 166
62 99 170
61 97 161
62 98 164
62 98 161
61 97 163
62 98 167
62 98 161
61 97 163
62 98 167
62 98 157
62 98 166
62 99 167
61 97 164
62 99 170
62 98 169
62 99 169
62 98 170
62 98 165
61 97 165
61 98 169
61 98 173
61 97 170
62 99 170
61 98 165
62 98 166
61 98 165
61 98 164
62 98 169
61 98 170
62 99 170
62 98 165
62 99 170
61 98 169
62 98 170
62 99 169
62 98 169
62 99 169
62 98 164
61 98 164
62 99 173
62 99 175
61 98 168
61 98 161
62 98 163
61 98 161
62 98 170
61 98 163
62 98 170
61 98 170
61 97 163
62 99 172
63 99 172
63 99 169
62 99 173
62 99 166
62 99 172
62 98 165
62 98 170
62 98 167
62 98 169
62 99 170
62 98 165
62 99 170
62 99 173
62 99 167
62 98 162
62 98 168
61 98 165
62 99 170
62 98 164
61 98 166
62 98 163
62 99 173
62 98 162
62 98 167
61 97 163
62 98 162
61 97 165
61 98 163
61 98 162
62 98 166
62 98 167
62 99 168
61 98 161
62 98 167
62 98 165
62 98 166
62 98 164
62 98 165
61 97 163
62 98 169
62 99 169
63 99 171
62 98 161
62 98 166
62 99 168
61 97 159
62 99 169
62 99 167
63 99 168
62 98 157
62 98 161
61 97 160
62 99 168
62 98 165
63 99 167
62 98 167
63 99 167
62 98 161
62 99 166
61 97 158
62 98 166
62 99 172
63 99 167
61 97 160
61 97 154
62 98 164
62 98 164
62 98 164
61 97 157
62 98 162
61 96 152
62 98 158
62 97 160
61 97 155
61 97 155
62 98 159
61 97 158
62 99 165
62 97 154
61 97 154
62 98 161
61 96 156
62 98 161
61 97 151
62 98 160
61 96 151
61 97 156
61 96 149
62 98 159
61 97 163
62 97 155
61 97 155
62 97 158
61 97 156
60 95 149
61 96 147
61 96 150
60 95 142
60 95 142
60 94 147
59 93 137
60 94 144
61 95 151
58 91 141
69 82 79
72 72 15
81 81 19
68 70 20
82 79 15
72 75 22
81 84 23
84 84 22
81 82 22
87 84 28
83 85 18
81 81 23
83 84 27
97 96 27
90 91 28
96 96 32
105 104 30
104 103 26
106 104 32
102 101 34
97 98 36
107 106 32
109 107 42
115 112 47
114 112 42
113 113 39
120 117 32
122 119 38
124 121 41
116 115 39
119 116 44
118 115 45
118 115 39
131 129 48
121 119 47
131 129 39
132 129 55
132 129 43
135 131 48
132 129 52
131 128 47
133 129 51
131 128 49
133 130 53
133 129 51
146 141 57
135 131 43
131 127 51
141 136 46
140 136 53
139 135 42
140 136 51
143 138 51
149 144 61
147 142 54
143 139 53
140 136 53
148 141 51
153 147 53
151 146 58
149 144 50
151 146 51
155 148 64
151 146 57
151 146 48
150 146 51
143 139 45
147 142 56
145 139 62
153 147 53
139 135 45
152 146 61
148 144 51
146 140 59
144 139 49
150 143 59
142 137 51
144 138 53
145 139 54
143 138 47
150 144 54
140 134 49
146 141 51
137 132 39
145 141 44
146 140 47
136 131 53
143 138 48
142 137 49
146 140 48
135 131 37
138 133 49
138 133 45
129 125 47
141 136 48
133 127 45
137 130 51
130 125 47
138 132 45
128 124 48
130 125 42
138 133 49
133 125 41
137 133 42
127 124 37
131 126 44
138 135 44
126 126 37
143 146 25
142 144 39
143 144 37
143 151 34
139 147 19
152 162 28
151 162 16
150 160 22
157 171 0
158 172 16
160 176 0
167 185 0
167 183 0
163 180 0
165 184 0
167 186 0
162 178 0
168 187 0
167 185 0
167 186 0
168 188 0
168 189 0
166 184 0
168 186 0
168 190 0
167 189 0
170 190 0
164 182 0
171 195 51
175 197 84
176 198 72
177 198 72
175 197 76
178 200 84
178 200 99
175 198 62
176 198 76
178 200 84
175 197 80
178 200 88
174 196 76
176 199 88
178 201 92
181 203 105
177 199 102
179 201 111
181 203 122
182 202 128
179 201 102
181 202 108
184 204 125
178 199 114
183 204 114
186 206 137
179 200 120
183 204 125
184 205 133
187 208 137
187 207 147
185 205 133
191 211 155
185 206 128
186 206 133
188 209 135
187 207 133
183 204 122
183 205 133
185 205 140
183 205 125
188 208 144
184 205 135
187 208 133
185 206 142
185 206 142
186 206 135
187 207 142
178 200 122
183 203 125
181 203 117
187 207 137
179 200 114
184 205 130
188 208 149
180 200 117
180 202 111
186 206 137
182 203 117
181 201 117
180 200 111
180 202 105
182 203 133
185 206 122
178 199 111
180 201 111
178 198 108
177 199 105
182 203 111
180 201 95
177 198 80
177 198 108
178 199 95
173 196 76
173 195 67
170 193 67
173 193 76
174 196 57
171 193 90
163 187 40
163 186 90
157 181 72
155 177 74
150 173 90
102 128 139
86 116 148
75 106 154
78 108 153
76 108 155
79 110 149
74 106 151
70 102 149
61 97 156
63 98 154
63 98 151
62 98 159
65 100 152
63 98 163
61 97 158
64 99 158
61 97 160
61 96 153
61 97 164
61 98 166
62 98 160
61 97 162
62 99 169
61 97 158
62 98 161
62 98 165
62 98 161
60 96 163
62 99 175
61 97 161
61 97 161
61 97 160
62 98 163
61 97 164
62 98 168
61 98 165
62 98 168
62 99 172
60 96 156
61 97 164
62 98 168
62 98 166
61 98 166
63 99 172
62 99 169
62 98 169
62 98 165
61 98 168
61 97 162
62 98 168
62 99 168
62 98 167
62 98 168
62 98 166
61 97 157
61 98 166
62 99 173
62 98 165
63 99 166
62 98 163
62 99 168
61 98 165
62 99 172
62 99 173
62 98 167
62 99 170
62 99 173
60 97 168
62 98 163
61 98 169
62 98 165
62 99 171
61 98 166
61 98 168
61 98 163
62 98 165
62 98 174
61 98 159
62 99 168
63 99 167
62 98 167
61 97 161
61 98 169
62 99 171
62 98 167
61 98 163
62 98 164
63 99 165
62 98 164
62 98 165
61 98 167
62 98 163
62 99 169
62 98 169
61 98 166
63 99 165
62 98 164
61 97 161
62 99 171
62 98 162
63 99 167
62 98 164
61 97 161
62 98 165
62 98 160
62 98 164
62 98 165
61 98 161
62 98 166
62 99 170
62 99 168
62 98 168
61 97 160
63 99 165
63 99 166
62 98 163
61 98 163
61 97 159
62 98 166
62 98 166
61 97 157
63 99 169
62 99 167
62 98 166
63 99 167
62 98 160
62 98 165
62 98 161
62 98 164
62 99 164
61 98 163
62 99 164
61 98 164
63 99 168
62 98 161
62 98 164
60 96 148
62 97 155
62 98 159
62 98 156
61 97 156
61 97 154
62 98 159
62 98 162
62 98 156
62 98 163
62 98 166
61 97 149
62 98 156
61 97 160
62 98 160
62 98 158
62 98 162
61 97 160
62 98 159
62 97 158
61 97 152
61 97 153
61 97 161
61 97 154
61 97 153
60 96 149
60 96 156
62 98 161
61 97 158
62 98 161
62 98 159
60 95 147
61 97 156
61 96 153
61 96 156
61 96 149
62 97 155
61 97 159
59 92 135
61 96 151
61 95 153
61 95 146
59 92 146
56 88 126
77 90 89
89 89 34
92 90 13
81 81 14
81 81 20
84 82 18
82 82 24
82 81 20
91 91 23
89 90 29
88 91 26
90 89 23
89 88 19
86 87 30
91 91 28
97 96 26
89 90 31
86 85 24
105 104 28
93 93 34
95 96 35
98 98 23
93 92 27
109 107 35
105 105 29
112 110 44
116 114 38
113 112 46
127 125 38
124 122 37
114 111 40
119 116 48
126 123 40
121 118 48
127 123 45
118 115 45
128 126 46
125 121 49
127 124 42
121 119 40
125 123 39
129 125 49
132 129 48
129 127 45
136 132 47
136 132 45
136 132 50
148 144 58
140 135 50
134 132 48
139 134 54
136 132 53
142 137 48
145 139 58
142 138 52
139 136 46
142 137 47
145 139 53
142 137 52
144 138 54
147 142 55
138 133 51
146 140 49
145 139 52
149 144 57
143 137 56
149 145 56
146 140 59
147 141 54
146 142 53
146 141 48
139 135 46
149 144 49
150 145 49
141 136 45
155 149 49
148 142 54
139 135 48
145 139 53
149 144 51
143 138 52
153 146 51
138 134 42
138 132 49
149 143 54
141 135 44
144 138 52
147 141 51
134 128 44
141 137 48
131 126 48
134 130 44
147 140 54
139 133 45
146 139 56
132 128 42
133 128 42
128 123 44
131 126 45
137 131 51
128 124 34
136 132 41
122 117 48
126 121 36
134 130 47
137 133 42
139 138 37
134 133 36
140 142 30
145 148 32
146 152 36
147 153 37
147 157 28
149 159 25
149 162 16
163 174 16
156 173 11
162 177 11
164 179 11
161 178 0
169 188 0
171 190 0
168 187 0
170 189 0
164 184 0
166 184 0
168 186 0
165 184 0
168 188 0
171 190 0
167 186 0
171 190 0
168 188 0
169 188 0
168 190 0
172 191 0
173 196 67
174 196 84
175 198 80
174 196 44
176 198 62
176 198 84
178 199 84
178 200 92
176 199 99
184 205 111
181 202 105
181 203 102
187 207 125
178 201 95
183 204 120
186 207 135
182 203 111
180 202 108
184 205 120
182 203 125
186 207 125
190 210 149
189 209 142
185 205 137
185 205 133
185 206 125
184 205 128
185 205 137
187 207 135
189 209 147
184 205 128
183 204 130
187 208 144
187 207 147
195 215 175
187 208 142
192 212 155
189 209 151
185 206 130
192 211 153
188 208 153
187 208 135
186 206 153
189 209 153
185 205 140
184 205 140
186 206 142
186 207 149
183 204 137
189 209 149
182 203 125
185 205 135
186 207 142
184 205 133
183 203 142
186 206 137
182 203 128
182 204 108
184 205 128
179 201 125
180 202 114
184 205 120
180 201 128
184 205 128
182 203 114
186 205 137
181 201 122
179 200 117
177 198 99
178 200 105
174 197 95
175 196 80
179 201 102
179 201 108
173 195 88
174 196 88
174 195 92
176 198 90
166 188 70
172 195 92
160 184 84
153 176 82
158 181 80
152 175 90
93 121 129
85 115 158
77 108 144
80 111 151
75 105 143
84 114 166
69 102 144
64 99 150
65 100 155
65 100 158
65 100 163
65 100 157
64 99 161
64 99 158
64 99 158
62 98 159
65 100 160
68 102 155
62 98 162
62 99 166
62 98 164
61 97 153
61 97 160
60 96 157
60 96 162
61 97 166
62 99 169
61 96 157
62 98 168
61 97 157
61 97 170
61 98 167
62 98 166
62 98 167
62 98 168
62 98 164
62 98 164
61 97 162
62 98 170
61 98 167
62 98 167
62 98 163
61 97 168
61 97 163
62 99 169
62 99 169
61 97 162
63 99 163
62 99 173
62 98 166
60 97 155
62 98 169
61 98 160
60 96 160
62 98 163
61 98 166
62 98 162
61 98 169
61 98 166
62 98 167
62 98 163
61 98 165
61 97 168
62 99 169
62 98 165
61 98 164
62 98 164
62 98 160
62 98 169
61 98 166
61 97 166
61 97 158
61 97 163
62 98 165
62 99 169
63 99 169
62 98 167
61 98 164
62 98 166
62 99 175
61 97 160
63 99 168
61 98 166
62 99 174
62 98 168
62 99 167
61 98 166
63 99 170
61 98 162
61 98 164
62 98 167
61 97 162
62 98 167
62 98 163
62 99 172
62 98 166
63 99 169
62 98 167
62 98 168
62 98 163
61 98 167
61 97 163
62 98 167
62 98 163
60 96 159
62 98 161
62 98 162
62 99 169
62 98 167
61 98 163
63 99 166
62 98 164
62 98 167
62 98 163
61 98 163
61 97 160
62 99 168
62 98 165
63 100 173
62 98 167
62 98 162
61 97 158
63 99 165
62 98 168
62 98 167
62 98 164
62 99 168
62 99 167
62 98 161
62 98 160
62 98 165
63 100 173
62 98 159
61 97 156
62 98 162
62 98 164
62 98 161
62 98 164
61 97 156
62 98 163
62 99 164
62 98 162
62 98 163
62 98 158
61 97 157
62 98 161
62 98 162
61 98 158
62 98 157
63 99 164
62 98 159
62 98 161
61 97 164
62 98 158
61 97 158
61 96 155
61 97 157
61 97 156
63 98 162
62 98 164
62 98 162
61 96 149
60 96 153
61 97 154
62 99 166
61 97 158
61 96 159
61 96 151
61 97 153
61 96 155
62 97 156
62 98 156
60 95 148
59 94 140
61 96 156
60 95 148
60 94 147
60 93 146
60 93 147
60 90 132
73 83 72
83 83 27
80 80 20
81 80 18
78 78 15
82 82 22
83 82 21
81 83 23
91 90 18
91 92 23
90 89 18
97 95 30
90 88 23
99 98 29
92 91 30
97 96 31
91 91 30
100 99 35
106 105 25
104 103 32
103 102 36
98 98 27
104 102 31
103 104 41
124 122 37
116 115 38
114 112 43
119 116 45
113 111 33
119 117 43
124 122 40
130 127 46
124 121 46
127 125 45
118 117 37
129 125 41
120 117 45
131 128 37
125 122 45
131 128 42
127 124 46
139 135 48
135 131 54
132 128 44
120 118 37
140 136 45
144 140 53
143 140 45
135 132 37
135 130 43
141 137 46
138 134 48
143 138 51
145 140 60
148 142 57
139 134 55
144 138 53
140 135 56
147 143 48
144 138 52
151 145 56
144 139 49
144 139 45
141 137 41
147 142 61
147 142 54
148 143 41
145 141 45
143 137 49
147 141 54
146 141 47
144 139 49
150 144 52
146 141 49
154 147 59
138 134 45
151 146 48
153 147 59
148 143 45
144 139 48
147 142 47
139 134 42
147 141 56
134 128 42
144 139 42
144 138 51
133 129 42
144 139 39
146 141 47
139 135 44
138 133 48
152 146 58
141 135 52
141 136 42
136 129 47
140 135 37
140 134 52
129 124 39
137 129 48
132 127 34
124 119 39
130 124 39
130 124 44
138 135 44
137 134 42
134 132 34
132 132 30
135 133 28
133 136 30
145 151 30
147 154 25
147 155 32
156 167 16
151 162 22
156 169 16
154 168 0
159 177 11
167 184 0
162 180 0
168 185 0
169 188 0
163 180 0
166 184 0
164 182 0
168 188 0
167 187 0
169 187 0
167 185 0
166 187 0
170 192 0
166 186 0
170 190 0
166 185 0
170 188 0
164 184 0
168 186 0
175 198 72
181 203 99
180 202 88
175 197 80
181 203 102
179 201 92
181 202 102
182 204 108
179 201 102
179 200 92
181 203 111
186 207 125
184 205 117
184 205 125
183 205 111
176 199 95
184 205 125
183 203 130
189 209 144
180 201 111
182 204 117
183 204 133
187 207 144
185 205 135
187 208 144
189 209 151
187 208 140
190 209 165
188 208 147
179 200 117
184 205 125
187 206 140
188 209 140
190 210 161
190 210 147
186 207 140
185 206 135
190 210 151
189 209 151
192 212 153
191 211 155
189 209 157
183 204 135
191 211 163
184 204 149
192 211 161
186 206 147
191 211 157
189 209 157
193 212 165
185 205 144
186 206 147
186 207 133
193 213 155
183 204 122
184 205 140
186 207 144
184 205 133
186 206 135
185 205 142
184 205 128
182 203 122
185 206 135
184 205 130
184 205 130
184 205 135
182 203 128
183 204 128
179 201 120
181 202 120
178 200 99
177 198 108
178 199 105
178 200 120
180 201 108
176 198 84
177 199 95
174 195 76
170 192 102
160 183 72
153 177 111
143 167 100
142 165 113
148 171 110
96 123 131
83 113 154
79 109 144
72 104 151
69 102 158
81 112 158
75 107 151
68 102 148
78 109 153
73 105 160
74 106 145
66 100 149
66 100 160
66 101 164
62 97 161
62 98 159
67 101 161
61 97 161
61 97 156
62 97 154
61 96 160
62 98 165
61 97 154
61 97 164
61 97 164
61 97 163
61 97 160
60 96 153
62 98 163
61 98 162
61 97 161
61 97 159
62 98 165
61 97 161
61 97 162
62 99 169
62 98 167
61 97 160
61 97 161
61 97 165
62 98 170
62 98 165
61 97 166
62 99 168
62 98 165
62 98 167
62 98 166
62 98 165
62 99 167
62 98 166
62 98 163
62 98 169
61 98 163
62 98 169
61 98 165
62 99 172
62 98 163
62 98 168
62 98 168
62 99 167
62 98 169
61 98 165
62 98 167
61 98 164
62 99 171
62 98 167
62 98 164
62 98 171
62 99 165
61 98 166
62 98 164
62 98 167
62 99 168
62 98 168
62 98 170
62 98 162
62 99 170
63 99 167
62 98 166
63 99 172
62 98 159
62 98 167
62 98 167
61 98 165
62 98 167
63 99 169
62 98 167
61 98 164
62 99 171
62 98 165
63 99 175
63 100 172
61 97 159
62 99 170
61 98 168
63 99 169
62 98 165
62 99 170
62 98 164
62 98 161
61 98 163
62 98 169
62 98 162
61 98 162
62 99 171
62 98 164
61 98 167
61 98 166
61 97 159
61 97 149
61 97 160
61 97 157
62 98 166
62 98 160
61 98 167
63 99 168
62 99 162
63 99 165
62 98 165
61 98 163
62 98 162
62 98 166
61 97 157
62 98 160
62 98 162
62 98 159
62 99 166
62 99 166
62 98 159
63 99 165
62 98 164
61 98 163
62 98 163
63 99 163
61 97 159
62 98 161
63 99 163
62 99 165
62 98 160
62 98 163
63 99 165
62 98 158
62 98 159
62 98 160
62 97 158
61 97 152
61 96 155
62 98 161
62 98 162
63 99 168
61 97 151
63 99 164
62 98 160
61 96 152
61 97 160
62 97 162
62 97 152
61 97 155
62 98 159
62 97 154
62 97 154
61 97 157
62 97 154
61 97 153
61 96 153
62 97 160
61 96 151
62 97 159
60 94 142
59 94 144
60 95 145
61 96 145
61 96 156
60 95 147
61 96 147
60 94 145
60 93 144
60 94 139
59 92 139
61 90 132
73 83 84
70 72 24
86 86 12
90 90 9
81 80 18
79 79 16
73 72 12
78 78 18
71 72 19
89 89 22
89 88 13
94 93 22
96 95 26
99 96 33
97 94 24
86 87 21
99 99 34
96 95 26
97 95 24
96 96 31
108 106 21
101 98 27
101 101 23
108 106 37
108 105 32
111 109 40
107 106 30
105 104 27
109 107 30
102 100 39
128 124 46
128 125 43
120 118 49
121 118 33
123 121 45
129 126 50
135 131 52
129 124 48
126 122 46
131 127 46
128 125 34
134 130 45
129 126 48
137 132 42
134 130 44
132 128 45
138 133 45
137 132 53
140 136 51
140 135 49
141 137 52
146 141 54
147 140 54
145 140 42
137 134 44
142 137 49
128 125 42
141 136 46
137 133 51
146 140 56
142 137 47
146 141 54
143 138 41
147 141 53
137 133 50
151 145 49
145 140 44
152 146 58
151 146 54
139 135 48
145 139 45
136 131 37
139 135 41
145 140 52
146 141 54
144 139 44
141 136 47
138 134 39
142 138 52
145 141 47
142 138 48
133 129 39
153 146 56
144 138 47
145 140 49
139 134 51
132 128 39
148 142 48
144 137 53
141 135 44
141 136 42
139 133 52
139 133 39
138 133 39
136 131 36
136 130 36
135 129 47
137 132 48
128 123 36
133 127 45
133 127 41
123 117 37
134 130 36
125 122 30
132 128 44
144 144 37
139 138 42
137 140 32
141 143 30
145 152 36
144 150 25
145 156 22
155 165 19
151 164 11
155 167 19
163 180 11
164 179 0
161 178 0
166 181 0
164 181 0
168 185 0
162 181 0
166 182 0
164 183 0
163 182 0
163 181 0
165 183 0
171 191 0
167 186 0
166 185 0
166 186 0
167 186 0
169 188 0
172 191 0
168 189 0
171 192 0
178 201 95
178 199 99
180 202 102
180 202 108
179 201 105
180 201 102
181 202 105
182 203 125
185 205 128
182 203 120
185 206 133
184 205 125
180 201 125
183 204 108
184 205 130
190 211 149
186 206 128
188 207 147
184 205 120
187 208 147
186 206 149
186 207 135
189 209 147
187 208 135
188 208 142
192 212 165
191 211 155
188 207 155
193 212 159
193 213 165
191 211 151
190 210 159
195 214 175
191 211 161
189 208 147
195 214 171
200 219 193
187 207 144
194 213 165
185 206 130
193 212 165
195 215 179
194 213 179
188 208 155
194 214 171
195 214 175
196 215 173
194 212 173
190 211 153
192 211 147
189 210 144
192 212 155
187 208 149
192 211 159
190 210 159
184 204 140
189 209 153
188 208 151
189 209 157
186 206 149
187 207 140
186 206 144
189 209 151
189 209 149
183 203 135
181 202 125
185 205 135
178 200 108
183 204 120
185 206 133
183 204 114
186 207 130
180 201 111
173 195 84
180 201 108
181 203 117
179 201 99
174 195 110
171 192 103
164 186 117
157 178 135
145 168 108
144 168 114
135 159 117
97 125 144
90 117 152
83 112 155
84 113 159
69 103 157
72 105 159
75 107 151
80 111 148
73 105 153
72 105 159
63 97 150
64 98 148
66 100 156
61 97 157
62 98 162
67 102 162
62 98 166
60 96 160
60 95 155
66 101 164
62 98 159
61 98 169
61 98 161
60 96 155
61 98 166
61 97 157
61 97 160
61 97 162
61 97 163
61 98 168
62 98 169
61 97 161
61 97 160
61 97 163
61 97 166
61 97 167
61 98 173
61 97 159
61 97 157
62 99 168
62 99 172
61 97 161
61 98 170
62 98 165
62 98 170
62 98 166
61 98 171
62 98 169
62 98 169
62 99 169
62 98 168
62 98 167
61 98 166
61 97 163
61 97 158
62 98 168
62 98 170
61 98 162
62 98 166
62 98 168
63 99 173
62 98 168
61 97 167
61 98 164
62 98 167
62 99 167
62 98 166
61 97 165
62 99 170
61 98 170
62 99 172
61 98 167
62 98 166
62 98 163
62 98 165
61 98 166
62 98 167
61 98 162
61 98 163
61 97 159
62 98 162
61 98 162
62 99 167
61 97 163
62 98 168
61 97 164
61 98 165
62 99 169
62 99 169
61 97 159
63 99 170
63 99 162
61 98 166
62 98 167
62 98 162
62 98 165
62 98 163
61 97 162
62 99 168
62 98 162
61 98 167
62 98 162
61 97 161
62 99 167
62 98 169
62 98 169
62 98 166
62 98 166
62 98 170
61 97 158
62 98 166
62 98 168
62 98 163
62 98 169
62 98 171
62 98 164
63 99 171
62 98 164
62 98 159
62 98 166
62 98 165
61 97 161
62 98 163
62 99 169
62 98 163
62 98 157
62 98 166
62 98 164
62 98 164
62 98 162
62 98 159
61 97 156
63 99 166
62 98 161
60 96 156
62 98 162
61 97 153
62 98 162
61 97 160
62 98 162
62 98 160
62 98 159
62 97 154
63 99 169
62 97 158
61 97 154
63 99 168
62 97 155
62 98 160
61 97 151
62 98 158
62 98 162
62 98 156
61 97 157
61 97 155
61 97 157
62 97 154
62 98 155
62 98 158
61 96 154
62 98 160
62 98 163
61 97 159
62 98 161
61 96 155
62 98 158
61 96 155
60 95 151
60 95 149
61 96 152
62 97 151
61 96 146
60 95 150
61 96 149
60 95 139
60 94 140
60 93 137
59 92 136
59 92 140
57 88 134
71 85 90
84 82 12
80 78 12
79 78 12
85 84 12
70 72 4
79 80 18
68 70 15
85 83 21
96 94 8
84 85 22
95 93 20
95 94 20
82 83 20
75 77 19
93 93 23
82 84 18
96 96 31
96 94 22
99 98 18
106 102 37
86 87 20
102 100 35
113 110 36
108 107 37
108 107 25
111 110 28
114 111 39
114 112 41
119 118 30
125 122 44
117 114 35
113 112 23
120 117 41
126 122 40
127 124 45
112 110 35
123 120 38
119 116 34
131 127 48
126 121 40
129 126 38
119 117 48
136 132 58
127 123 35
132 129 38
143 138 51
125 121 46
138 133 46
139 134 47
140 135 54
138 134 42
143 139 49
146 142 48
140 136 41
138 134 45
145 141 37
139 135 40
137 133 37
148 143 45
142 137 42
143 138 54
139 134 49
143 137 48
146 140 45
147 141 45
146 141 53
144 139 44
145 139 49
137 133 49
144 140 41
144 138 42
139 135 45
148 142 49
151 145 56
145 140 49
139 134 52
139 134 47
138 133 49
140 135 42
133 129 34
145 139 49
134 129 41
127 122 34
133 128 42
138 134 37
141 135 45
133 128 34
140 134 49
143 136 48
139 133 49
142 136 42
142 137 44
136 132 41
129 124 41
129 124 47
132 127 41
130 126 37
129 123 32
131 125 42
131 126 49
129 124 37
130 128 34
131 126 44
128 124 44
129 131 32
148 155 25
139 145 19
140 143 34
140 145 30
146 153 22
149 160 22
154 168 16
161 172 22
161 175 11
165 181 11
163 179 11
160 177 0
167 183 0
167 184 0
164 181 0
165 180 0
168 185 0
167 185 0
171 189 0
165 183 0
165 185 0
170 190 0
167 186 0
167 185 0
166 184 0
164 184 0
170 191 0
167 187 0
169 188 0
167 187 0
178 200 99
178 199 105
180 201 111
180 201 108
181 202 105
183 204 117
184 204 125
183 204 122
187 207 137
190 210 149
192 212 153
184 205 128
189 209 151
185 206 144
186 206 130
188 208 151
190 210 153
190 210 151
188 208 142
192 211 149
188 207 149
189 209 155
190 211 149
192 212 161
194 214 169
192 212 171
190 210 159
192 212 167
194 214 173
188 209 147
195 214 171
197 216 184
195 214 184
196 215 179
198 216 184
187 208 161
195 215 179
193 213 175
191 212 157
193 212 175
192 211 171
200 219 198
191 210 169
193 213 171
194 214 173
195 214 175
190 210 163
198 217 184
188 208 153
191 211 169
190 209 163
194 213 173
187 208 149
195 214 173
189 209 153
188 209 149
184 205 128
191 210 167
186 206 151
192 211 165
187 207 149
188 208 159
187 207 149
188 208 151
190 210 147
184 206 130
182 202 142
187 207 142
185 205 140
180 201 120
182 203 120
181 201 133
183 203 137
183 204 130
179 200 120
186 207 133
175 197 108
173 194 100
168 189 118
166 188 124
154 177 108
160 182 114
148 172 115
142 166 124
105 131 143
86 116 142
80 111 153
91 119 159
87 116 150
89 118 156
69 103 160
71 104 154
75 106 149
67 102 154
70 103 158
67 101 155
61 96 158
69 102 155
64 99 158
64 99 161
63 98 154
63 98 155
61 97 161
59 95 156
61 97 164
61 97 161
63 99 160
63 99 161
60 96 156
62 98 163
61 97 162
61 97 156
61 97 157
61 97 161
60 97 158
61 97 151
61 97 160
62 98 169
61 97 163
61 97 168
61 98 160
62 98 160
62 98 167
60 96 161
62 99 171
61 98 169
61 98 166
62 98 163
63 99 168
61 97 163
61 97 164
61 97 162
61 97 158
62 98 169
61 97 165
62 98 161
62 99 168
61 97 154
61 97 159
61 97 161
62 98 168
62 98 164
62 98 160
62 99 169
62 99 169
61 98 164
61 98 164
62 98 170
61 98 165
62 99 166
62 98 168
61 97 164
62 99 173
61 97 159
62 98 166
62 99 169
62 98 167
62 98 167
62 98 170
62 98 171
62 99 170
62 98 166
61 97 165
61 97 159
62 99 168
62 98 167
63 99 168
61 97 163
62 98 163
62 98 166
62 98 162
63 99 164
62 99 169
62 98 165
62 99 168
62 98 165
62 99 169
61 97 160
62 98 162
61 98 161
62 98 165
62 98 162
62 98 163
62 98 162
62 98 167
62 98 171
62 99 167
62 98 163
62 98 165
62 98 160
62 98 167
62 99 169
62 98 164
61 97 162
62 99 168
62 98 159
62 98 163
62 98 164
62 98 167
62 99 166
63 99 167
62 98 163
62 98 162
61 97 154
62 98 165
62 98 168
61 97 157
62 98 161
62 99 168
62 98 165
62 98 168
62 98 169
61 97 157
62 98 165
62 98 161
63 99 165
63 99 166
62 98 165
61 98 160
63 99 168
62 98 164
63 99 163
61 97 158
61 97 159
61 97 153
63 99 165
61 97 156
62 98 159
63 99 160
62 98 166
62 98 157
60 96 157
62 98 160
63 99 167
62 98 159
61 97 160
62 98 160
61 97 152
61 97 162
62 98 159
61 97 158
62 98 164
60 96 158
62 97 160
61 96 147
61 96 154
61 97 156
60 95 144
61 97 155
61 96 155
61 97 152
61 96 152
62 97 154
60 93 140
60 95 147
60 96 144
61 96 142
61 95 143
60 95 145
61 96 148
58 91 129
60 94 141
59 92 148
64 93 136
66 76 64
79 79 35
78 77 12
84 84 12
92 88 20
85 84 14
82 81 8
86 86 14
85 85 17
85 85 20
85 85 19
87 88 26
88 87 18
92 91 24
104 101 30
98 97 20
99 97 13
112 109 16
92 91 20
94 94 19
101 99 34
112 110 30
114 112 35
104 103 31
101 100 30
111 108 38
111 109 31
117 115 37
114 113 37
108 106 30
120 117 44
126 122 39
120 118 33
120 116 35
128 124 46
119 116 37
118 116 37
106 105 22
122 118 40
124 121 41
129 125 45
126 123 42
127 125 34
125 123 31
133 129 42
134 129 45
137 133 52
137 135 34
134 131 39
140 135 43
135 131 45
142 137 51
127 123 35
142 137 42
135 131 39
131 128 32
135 131 51
144 139 51
140 136 43
145 139 54
147 141 47
139 134 42
134 130 38
139 134 42
142 137 49
149 143 47
143 139 44
137 132 53
142 136 45
141 136 53
140 135 48
142 136 49
139 135 41
144 140 42
145 141 47
142 136 45
139 135 32
141 135 49
135 130 39
140 135 49
145 139 57
143 137 47
135 130 39
144 138 45
142 136 42
141 136 39
139 134 47
140 134 42
144 139 39
128 123 41
135 129 41
140 135 53
143 137 44
134 129 45
136 131 42
123 119 34
133 128 37
133 126 42
135 130 44
138 133 47
125 122 34
130 125 34
139 137 45
129 130 30
132 137 19
138 140 22
139 142 30
147 153 25
138 144 25
146 153 28
155 166 22
158 168 16
155 167 11
158 173 11
165 182 11
161 176 0
167 185 0
164 180 0
164 180 0
167 184 0
161 180 0
165 182 0
167 185 0
171 189 0
165 183 0
169 190 0
171 189 0
160 178 0
163 178 0
168 186 0
169 187 0
166 184 0
167 186 0
168 188 0
158 175 0
169 187 0
181 203 108
181 203 111
183 205 120
182 203 122
182 203 120
176 196 114
180 202 117
182 203 130
189 208 147
187 208 137
184 205 133
183 204 122
192 212 159
192 211 157
187 207 159
188 208 135
186 207 144
190 210 159
191 210 149
193 213 163
193 212 165
192 212 163
196 215 179
193 213 171
192 211 169
195 214 169
195 214 175
195 214 173
196 216 186
190 210 171
195 214 184
198 217 189
192 212 175
190 210 163
194 213 188
199 218 193
191 211 171
191 212 165
192 211 177
193 212 161
198 218 196
198 217 194
194 214 175
197 215 194
193 213 173
197 216 186
192 212 167
191 211 163
199 217 182
195 214 182
193 212 173
196 214 179
196 215 181
189 209 165
193 213 175
192 212 171
190 210 155
195 214 171
188 209 142
188 209 151
188 208 153
186 207 155
190 211 159
189 208 159
190 210 155
191 211 163
188 207 155
185 206 133
185 205 151
182 203 122
185 205 137
180 201 114
179 200 122
183 204 130
185 206 137
186 206 133
175 198 102
180 201 120
170 192 133
168 190 131
154 176 144
146 167 141
145 168 133
144 168 117
117 141 139
100 127 150
81 111 153
81 112 152
87 116 151
84 114 153
73 105 153
84 114 148
67 101 156
68 102 145
73 105 158
70 103 147
67 100 151
64 99 157
69 103 154
63 98 156
62 98 162
64 99 151
67 101 157
62 98 164
61 97 154
61 97 156
62 98 165
62 98 162
63 98 157
62 98 169
61 97 159
61 97 160
62 98 165
61 97 162
61 97 163
62 98 168
61 97 161
61 97 162
62 99 173
62 98 166
61 97 160
61 96 164
61 97 163
63 99 171
61 97 163
61 98 170
61 98 166
62 98 166
62 98 169
61 98 165
61 97 162
61 97 165
61 98 166
62 98 163
61 97 163
61 98 165
62 98 168
61 97 163
61 97 160
61 98 167
61 98 167
62 98 170
61 97 162
63 99 168
62 98 164
61 97 165
62 99 165
61 97 167
61 97 160
61 98 165
62 99 169
61 98 166
61 97 162
61 97 162
62 98 169
62 98 161
62 99 171
62 98 166
61 97 161
62 98 162
62 98 170
61 98 162
61 97 165
63 99 166
61 97 158
61 97 160
62 98 166
62 98 162
62 99 169
62 99 169
62 99 169
62 99 171
62 98 164
61 97 162
62 98 166
62 98 165
62 98 169
62 98 168
62 98 164
63 99 169
62 99 165
62 99 170
62 98 164
62 98 164
62 98 162
63 99 172
62 98 163
62 98 162
62 98 165
62 99 168
62 98 163
62 98 164
62 98 166
62 99 165
61 97 162
62 98 166
62 98 161
63 99 170
61 98 165
63 99 171
62 98 165
61 97 158
62 97 157
62 98 161
62 98 164
62 98 164
62 97 157
62 98 161
61 97 157
63 99 166
63 99 168
62 99 165
62 98 163
61 97 154
61 98 162
61 97 160
62 98 163
60 96 154
62 98 159
62 98 163
62 98 162
62 98 161
62 98 158
61 97 158
62 98 163
62 97 154
61 98 160
61 97 153
61 97 158
62 98 160
61 97 160
62 97 155
63 99 163
62 97 153
63 98 159
62 97 159
61 96 150
63 99 160
62 97 150
62 97 152
62 98 158
61 97 153
61 97 148
60 95 150
62 97 154
62 97 153
62 97 159
61 96 155
61 97 154
62 98 162
61 96 142
62 97 154
62 97 156
62 96 150
61 96 154
62 97 155
60 95 151
61 96 154
60 94 149
60 94 148
59 94 141
60 93 139
58 90 125
62 91 119
73 84 87
76 77 24
78 74 8
91 89 16
80 80 14
88 85 14
89 89 20
94 92 14
86 83 14
91 89 14
88 87 18
87 86 18
80 80 17
84 82 23
97 96 24
99 98 26
110 107 27
94 94 21
92 90 26
111 108 29
105 104 31
106 106 17
105 104 21
108 106 27
114 111 22
99 97 29
127 122 47
114 113 33
110 108 25
113 112 25
114 111 33
120 117 33
120 117 36
113 111 40
126 122 44
120 117 37
131 127 38
124 120 40
121 118 33
127 123 40
123 119 42
134 129 42
140 135 50
135 130 45
129 126 31
129 127 42
144 138 53
134 131 45
127 124 40
144 138 50
138 133 47
130 126 42
137 133 44
134 129 42
134 130 41
146 140 58
133 126 37
135 130 45
139 135 39
133 129 36
139 134 42
139 134 50
135 131 42
138 131 53
142 135 42
147 141 51
143 138 51
137 131 47
149 143 52
142 136 49
133 128 36
146 141 45
144 139 47
142 136 47
139 134 48
139 134 42
145 139 48
133 130 36
144 139 44
143 138 47
140 135 47
137 131 41
139 133 51
144 139 39
140 134 51
139 134 41
137 132 45
142 137 41
137 132 42
129 124 36
137 132 42
131 125 41
139 133 30
126 122 30
132 127 41
138 133 49
132 126 37
128 125 36
127 121 36
122 119 32
134 132 32
124 122 36
130 131 28
138 140 34
133 135 28
131 137 28
143 149 32
147 154 22
147 156 25
147 155 16
147 156 22
153 163 16
163 178 19
160 175 11
159 174 11
167 185 0
160 175 0
164 181 0
165 182 0
163 180 0
166 183 0
167 183 0
166 184 0
165 183 0
167 185 0
166 185 0
165 183 0
167 187 0
169 190 0
167 185 0
159 177 0
169 188 0
166 184 0
166 186 0
166 186 0
169 187 0
179 200 108
186 205 130
183 205 122
186 207 130
183 204 120
184 206 135
183 204 130
184 205 133
185 206 142
189 209 153
184 205 125
190 211 155
191 210 161
184 205 133
188 210 147
189 210 151
186 207 147
191 211 153
191 211 165
193 213 165
197 216 184
193 212 171
194 213 184
195 215 181
188 209 157
195 214 179
193 212 165
192 211 163
200 219 203
191 211 173
199 218 188
196 216 182
196 216 181
197 216 182
195 214 175
196 215 188
194 213 175
191 211 169
201 219 198
201 220 201
196 215 177
192 213 169
194 213 175
192 212 173
195 214 179
199 218 199
198 217 189
198 216 189
192 213 175
194 213 173
198 217 189
197 216 188
194 214 181
193 212 173
194 214 181
198 217 191
197 215 188
196 215 182
194 212 181
197 216 186
198 217 184
193 212 171
195 214 173
190 209 165
191 211 151
192 212 165
191 211 161
192 212 161
189 209 159
188 208 144
189 208 149
189 208 151
189 208 151
176 198 117
184 204 125
182 202 137
177 197 137
176 197 131
168 189 143
163 185 151
146 168 143
146 169 154
143 166 120
146 168 149
120 145 144
87 116 157
86 115 159
90 119 154
80 110 148
78 109 154
76 108 159
86 115 154
74 106 157
75 107 162
71 104 155
70 103 148
66 100 158
64 99 154
70 103 154
66 101 161
63 97 154
61 97 152
62 98 162
61 97 156
63 98 154
62 98 162
61 97 154
63 99 158
60 97 161
61 97 157
63 99 167
61 97 163
60 96 157
61 97 163
60 96 159
61 97 162
61 97 165
62 98 164
61 97 165
61 97 170
61 98 166
62 98 162
61 97 161
61 97 158
60 97 158
61 96 156
61 97 165
61 97 160
61 98 168
62 98 162
61 97 163
62 99 170
61 97 157
61 98 163
62 98 163
61 98 169
61 97 161
61 97 165
61 97 164
61 98 162
61 97 166
62 99 171
61 97 164
61 97 165
61 97 160
63 99 166
61 98 166
61 98 159
62 98 169
63 99 168
62 98 168
62 99 167
62 98 166
62 99 170
62 98 168
62 98 165
61 97 161
62 99 168
62 98 162
62 98 167
62 99 169
61 98 166
61 98 163
61 97 161
63 99 168
62 98 164
62 98 168
62 99 169
62 98 166
63 99 170
62 98 157
62 98 164
62 98 166
61 97 159
62 98 166
62 98 161
62 99 166
62 98 166
61 97 159
62 98 162
62 97 156
62 98 164
61 98 171
62 99 169
62 98 165
63 100 170
62 98 160
62 98 163
61 97 164
62 98 165
62 98 168
62 99 169
62 98 166
61 97 164
61 98 166
62 98 161
61 97 158
62 98 166
62 98 165
62 97 155
62 98 162
63 99 168
63 99 161
62 97 156
61 97 159
62 98 164
62 98 165
62 98 164
62 98 159
62 98 164
61 98 158
63 99 167
62 98 165
62 98 160
62 98 160
62 98 165
62 98 160
62 98 166
62 98 159
62 98 158
62 98 159
62 98 159
62 98 165
62 98 162
63 99 169
62 98 166
61 97 154
61 96 153
63 99 161
61 97 164
61 96 151
62 98 159
62 97 153
62 98 166
61 97 148
62 97 157
62 98 155
60 95 147
63 98 161
62 99 165
62 98 159
62 98 158
61 97 154
61 97 155
62 97 154
62 97 158
62 98 162
61 97 149
61 96 155
61 96 147
61 96 148
61 96 154
61 96 148
60 95 139
61 97 155
61 95 149
60 94 143
61 95 147
61 96 148
60 94 137
58 91 134
58 92 134
60 93 144
59 90 122
73 86 82
80 80 11
90 89 8
95 93 12
96 94 6
78 76 3
93 91 9
99 96 18
91 90 15
93 90 12
89 89 0
93 91 14
82 82 21
91 89 24
97 95 18
91 91 16
97 97 18
100 99 18
102 100 20
105 103 22
101 100 25
101 99 22
111 108 30
98 97 24
101 101 26
107 106 31
104 103 16
105 103 34
112 110 35
112 111 36
111 108 27
116 114 29
119 117 25
125 123 34
113 111 33
124 120 35
122 119 30
118 115 22
123 121 39
119 116 30
130 126 42
128 124 43
125 121 37
128 125 43
128 124 44
132 128 44
123 118 37
130 126 45
127 123 40
130 126 45
128 125 42
132 127 45
134 130 42
142 136 51
136 131 48
130 126 34
127 122 37
135 130 45
143 138 42
134 128 36
127 122 48
139 134 39
146 141 44
137 132 45
132 126 36
140 134 37
139 133 32
138 133 44
137 131 46
141 135 45
142 136 49
144 138 39
139 134 39
135 131 28
143 138 37
142 136 51
132 128 37
146 142 37
137 132 41
136 131 36
141 135 49
143 136 37
138 132 34
140 135 44
134 129 39
133 129 30
130 125 37
133 129 36
138 134 34
132 127 34
131 126 37
137 131 41
134 129 34
136 129 39
131 127 42
129 124 41
134 129 39
122 117 42
125 119 32
125 122 32
130 127 36
136 137 36
127 127 30
132 136 19
140 145 25
149 154 34
145 150 32
147 156 19
147 156 22
157 172 22
146 157 0
154 167 16
154 168 0
157 170 0
161 177 0
164 181 0
164 178 0
164 180 0
168 186 0
164 180 0
170 188 0
163 179 0
168 185 0
165 184 0
169 189 0
168 186 0
165 183 0
166 184 0
165 182 0
169 188 0
167 185 0
161 179 0
170 189 0
168 186 0
164 182 0
166 185 0
181 202 105
186 207 125
186 206 133
182 203 122
185 206 133
192 213 163
186 207 137
188 209 153
189 209 144
191 211 155
186 207 149
192 212 163
195 214 167
193 213 163
197 216 181
190 210 167
192 212 171
194 213 175
192 212 163
197 216 184
192 212 173
194 213 173
193 212 181
196 215 184
199 218 193
195 215 179
195 214 179
198 217 194
197 217 191
197 217 188
198 217 193
196 215 189
198 216 184
196 216 186
199 217 198
197 216 189
198 217 199
199 219 201
200 218 191
199 218 204
197 216 194
198 217 189
199 218 196
199 218 203
199 218 194
198 217 193
201 219 198
199 218 194
197 216 188
199 218 198
193 213 177
197 215 194
198 216 179
196 215 191
198 217 194
201 220 198
200 219 196
193 212 175
195 215 177
194 213 179
199 218 189
198 216 191
189 209 161
191 211 159
193 212 171
193 212 165
187 207 142
192 211 171
188 207 149
192 212 155
189 209 165
189 209 151
188 208 157
186 206 140
189 208 158
183 203 147
171 193 126
170 191 148
170 190 157
164 185 165
149 171 153
146 168 121
145 168 141
129 153 143
122 146 148
103 129 148
93 121 151
77 109 147
89 118 148
82 113 159
76 108 143
77 108 152
76 108 163
65 100 161
68 101 147
72 105 144
70 103 158
67 101 154
64 99 162
68 102 152
61 97 159
68 102 160
65 100 156
66 101 160
62 97 151
63 99 154
63 99 157
60 96 154
61 98 166
63 97 146
63 98 155
62 98 163
61 97 157
62 98 167
62 98 167
61 97 161
62 98 163
60 96 157
61 98 164
61 97 163
61 97 158
62 98 167
62 98 165
62 98 161
61 97 158
62 98 171
61 97 164
63 99 173
61 97 161
62 98 163
61 96 164
61 97 161
62 98 164
62 98 163
62 98 164
61 97 162
61 98 169
61 98 169
62 98 161
62 98 166
62 99 166
61 97 163
61 98 167
62 99 165
61 98 166
62 99 169
62 98 167
62 98 165
61 97 164
61 97 160
62 98 170
62 98 158
61 98 163
61 98 161
62 98 164
62 98 162
62 98 169
62 98 164
61 98 166
62 98 161
61 97 162
62 99 165
62 98 162
62 98 160
62 98 162
61 98 165
62 98 166
62 98 165
63 99 168
62 98 166
62 98 163
61 97 156
62 98 161
62 98 165
62 98 162
62 98 162
62 98 163
62 98 161
62 98 165
62 98 165
62 98 162
62 99 166
61 97 160
62 98 164
62 98 164
62 99 168
62 97 158
62 98 162
62 99 166
61 98 162
62 98 157
62 98 167
62 98 159
61 97 162
62 98 161
61 97 159
63 99 165
61 97 161
62 98 161
62 98 163
62 98 159
62 98 162
63 99 167
62 97 155
61 98 162
61 97 156
63 100 173
62 98 163
61 97 160
61 97 154
62 98 163
62 99 167
63 98 160
62 98 159
61 97 156
61 97 162
62 98 161
62 98 163
61 97 153
62 98 161
63 99 166
61 97 155
63 98 161
61 97 156
62 99 165
62 97 147
62 98 161
62 98 154
61 97 153
62 98 159
62 98 162
62 98 155
61 97 153
62 98 161
62 97 155
63 99 165
62 98 160
62 98 158
61 97 159
60 96 149
62 97 155
60 95 142
61 97 151
62 97 152
62 97 154
62 97 158
62 97 150
62 97 155
61 97 156
61 96 149
61 96 145
60 95 143
60 95 145
60 94 152
62 96 154
60 95 146
61 96 149
60 94 145
60 94 144
60 95 143
60 94 142
57 90 127
57 90 129
62 90 112
77 83 72
81 80 0
84 81 11
83 80 8
90 87 18
87 86 14
75 76 14
96 94 12
83 80 8
97 95 14
82 82 18
93 91 16
93 92 20
99 97 22
88 87 16
94 91 16
90 88 16
100 99 22
97 96 21
101 99 20
103 101 16
103 101 27
102 101 24
101 101 21
97 96 16
118 116 34
103 101 26
110 108 30
117 116 29
127 122 35
115 112 37
110 108 21
123 119 38
133 129 40
122 118 32
124 120 44
118 116 35
117 113 37
129 124 48
121 117 29
132 129 34
126 121 44
122 118 37
135 131 42
129 125 38
137 132 45
133 128 46
132 129 41
133 128 50
131 126 42
135 130 44
146 140 47
146 141 45
135 131 42
136 131 40
137 132 47
138 132 47
140 135 47
138 134 39
144 139 51
134 129 36
141 136 42
146 140 49
136 132 30
137 132 44
142 136 45
137 132 36
145 139 46
135 130 39
134 128 47
146 140 37
138 134 34
134 129 37
140 133 42
131 126 36
139 135 36
137 133 37
139 134 36
135 129 39
140 136 44
139 133 47
130 124 30
127 122 32
135 129 37
135 130 39
126 121 32
123 119 30
140 134 47
128 124 41
131 125 39
126 122 37
139 132 44
142 137 44
123 118 34
137 132 44
136 130 37
122 118 34
121 118 32
134 132 28
127 126 30
140 140 37
137 137 28
139 141 30
129 130 30
132 136 19
151 158 28
148 157 25
147 154 22
147 156 22
143 154 11
153 162 11
160 175 0
161 176 0
161 178 0
165 180 0
165 179 0
160 176 0
164 180 0
158 175 0
170 189 0
166 182 0
164 180 0
163 182 0
167 183 0
164 180 0
166 186 0
163 179 0
165 183 0
168 187 0
167 185 0
169 188 0
170 189 0
168 186 0
169 189 0
164 183 0
165 182 0
192 211 157
184 205 125
188 208 137
191 211 159
186 208 137
186 206 144
190 209 159
188 208 147
190 210 159
192 211 163
195 214 179
194 214 179
192 212 171
190 210 157
197 216 181
193 213 177
190 211 165
194 214 173
200 219 198
201 219 198
195 214 186
196 215 179
198 216 189
199 218 199
199 219 203
199 218 194
201 220 203
199 218 194
198 217 194
203 222 212
196 216 189
198 218 199
199 218 193
200 218 196
201 220 201
200 218 193
197 216 188
201 220 204
198 218 194
201 220 203
201 220 206
201 220 203
194 213 186
201 220 206
202 220 211
203 221 212
200 219 199
199 218 198
197 216 194
200 219 203
199 217 194
202 221 207
199 218 194
202 220 199
202 220 198
198 217 194
200 218 199
200 219 198
195 214 193
197 216 188
198 218 189
194 214 169
195 215 179
198 217 188
194 214 169
193 213 177
195 214 177
192 212 159
190 210 169
191 210 169
193 212 169
192 212 165
189 209 153
190 209 155
192 211 163
190 210 175
180 200 158
169 190 166
169 189 166
163 183 178
149 171 164
147 170 143
144 166 147
144 165 150
112 138 150
107 132 158
108 134 160
107 133 165
90 118 158
78 109 162
71 104 155
79 111 161
82 113 143
79 110 155
67 100 162
70 102 152
71 105 162
69 103 161
68 102 156
62 98 156
65 101 160
60 95 147
67 102 162
64 100 168
60 96 156
61 97 157
65 100 161
61 97 162
63 98 156
62 98 161
60 96 157
61 96 154
61 97 161
61 98 161
62 98 165
62 98 169
61 97 158
62 98 167
61 97 161
61 97 163
61 98 167
61 97 165
61 97 161
62 98 164
61 97 165
61 97 163
62 98 163
61 97 157
62 98 168
61 97 160
61 97 162
61 98 167
61 97 159
62 98 166
62 98 167
61 97 161
62 98 167
61 97 157
61 97 158
61 97 164
62 98 166
61 97 158
62 98 167
63 99 166
62 98 166
61 98 167
62 98 165
62 98 168
62 98 167
62 98 161
61 97 156
60 97 160
61 98 164
62 99 164
62 98 168
62 98 164
62 99 168
61 97 167
61 97 161
61 97 160
61 98 161
62 98 164
61 97 160
62 98 168
62 98 166
62 98 162
62 98 162
61 97 157
62 98 158
62 98 165
62 98 166
61 97 162
61 98 160
62 98 168
62 99 167
62 98 158
61 97 165
62 99 170
61 97 158
62 99 165
63 99 170
61 97 159
61 97 159
61 98 165
61 98 163
62 97 158
62 98 163
62 98 162
61 97 162
62 98 165
62 98 161
61 98 162
62 98 166
61 97 162
62 98 163
62 98 162
62 98 164
61 97 163
61 97 160
62 98 160
62 99 168
62 99 168
61 97 156
61 97 162
62 98 162
61 97 157
62 99 167
62 98 159
62 98 157
62 98 163
62 97 156
62 98 161
62 98 166
63 99 172
61 97 158
61 97 159
62 98 161
62 98 161
62 98 156
62 98 162
61 97 157
63 98 159
63 99 163
62 97 155
62 98 161
62 98 165
62 98 158
61 97 158
62 98 158
61 97 155
61 97 152
61 97 161
61 97 154
61 97 152
62 98 168
62 98 159
62 98 160
62 98 158
61 97 150
62 98 152
61 97 149
62 97 155
61 97 157
62 97 152
61 97 154
61 96 151
61 96 154
62 97 155
60 95 149
61 97 159
61 97 154
61 95 143
61 96 151
60 95 149
61 96 149
60 95 142
60 95 145
58 92 136
59 94 147
60 94 141
59 93 134
59 92 124
59 93 138
64 91 128
74 83 79
96 94 11
95 93 18
84 81 14
88 84 11
89 87 3
84 83 16
85 84 8
93 91 14
81 79 18
96 94 14
91 91 14
93 91 0
90 88 12
96 93 14
108 106 14
97 94 8
92 92 25
105 102 18
94 90 20
108 104 20
104 101 22
84 86 19
99 97 26
101 98 22
108 106 24
109 106 30
111 109 26
105 105 24
117 115 26
117 114 32
111 108 31
115 111 40
125 122 34
121 119 33
127 122 33
130 128 33
120 116 37
118 115 31
123 120 40
120 118 31
124 119 42
125 121 37
130 126 37
140 137 38
125 121 43
125 121 39
136 132 39
127 123 35
127 123 39
134 129 45
126 123 35
132 128 39
136 132 36
132 127 41
135 131 37
131 127 36
134 129 37
142 137 49
135 131 42
141 136 44
133 128 41
135 130 37
139 134 39
142 136 45
139 135 37
133 128 42
136 132 39
126 121 30
133 128 39
144 138 44
142 137 42
138 133 39
128 124 28
134 129 30
134 130 30
137 132 36
136 131 41
130 125 36
143 138 34
133 127 25
131 127 34
132 125 45
138 133 37
144 138 44
128 123 37
123 118 25
140 134 44
129 123 37
137 131 37
123 118 34
132 128 22
131 126 42
126 121 30
120 115 34
130 125 37
123 120 25
130 127 32
122 120 36
133 131 30
132 137 22
134 136 30
141 142 25
134 136 25
146 151 30
147 159 22
145 153 22
154 164 22
152 164 11
146 156 19
152 164 11
158 170 0
157 172 0
166 182 0
161 177 0
161 177 0
163 179 0
161 177 0
164 180 0
164 183 0
160 176 0
161 175 0
163 178 0
167 182 0
164 179 0
169 187 0
164 181 0
164 181 0
167 186 0
166 183 0
169 189 0
167 184 0
162 180 0
170 191 0
167 185 0
166 183 0
190 211 153
187 207 140
188 208 147
190 210 149
190 210 155
190 210 153
191 212 157
194 214 173
187 208 140
194 214 169
191 211 155
195 214 173
192 212 167
196 214 186
198 217 186
200 218 193
196 215 186
198 217 194
197 217 184
194 213 189
196 215 181
197 217 184
199 218 193
196 215 188
199 218 194
201 219 204
204 222 211
197 217 198
195 215 181
200 219 199
201 220 204
198 217 198
202 220 201
198 217 189
205 223 218
200 218 203
200 219 193
202 220 206
198 217 194
200 219 203
198 218 198
201 220 206
199 218 199
199 219 194
204 223 215
204 222 211
200 219 199
202 221 211
200 219 199
198 217 191
198 217 201
198 217 193
202 221 209
201 219 198
199 218 199
201 219 196
203 221 206
200 219 203
199 219 194
200 219 198
197 216 193
199 218 198
197 216 191
202 220 206
196 215 182
199 217 198
198 217 191
199 217 186
198 218 191
194 213 171
194 214 181
190 209 163
187 207 159
186 207 151
190 209 164
188 207 186
184 203 170
173 193 168
164 184 181
157 178 165
137 160 164
146 167 174
143 165 164
134 157 157
126 149 155
104 130 160
96 124 157
91 119 160
84 114 161
81 112 154
88 117 160
89 117 157
82 113 160
73 105 158
74 107 158
77 108 150
66 100 156
74 106 156
62 97 159
65 99 153
62 98 149
64 99 158
61 97 159
61 96 157
61 96 155
63 98 157
65 100 153
65 100 162
63 99 164
61 97 160
61 97 158
62 98 159
61 97 161
61 98 167
61 97 162
62 98 164
61 97 166
61 97 164
62 98 168
60 97 164
61 97 156
61 97 164
61 97 161
62 98 167
61 98 171
60 96 163
62 98 160
62 98 167
61 98 163
61 97 162
60 96 156
62 98 165
62 98 160
62 98 163
61 98 164
61 97 154
61 97 161
61 97 164
62 99 167
61 97 160
61 97 164
62 98 163
61 97 163
62 98 167
62 98 166
62 99 166
62 98 169
62 98 163
62 98 165
61 97 160
62 98 163
62 98 163
62 99 169
61 98 161
62 98 165
62 97 160
61 97 160
62 98 166
62 99 170
61 98 168
61 97 161
61 98 165
62 98 166
61 98 162
62 98 164
62 98 160
62 98 157
61 98 164
60 96 160
61 98 169
62 98 164
62 98 155
61 98 164
62 98 165
62 98 160
62 99 171
63 99 169
61 97 161
62 98 165
62 98 167
61 96 158
62 98 163
62 98 163
63 99 173
62 98 160
62 98 159
62 98 168
63 99 168
62 98 164
61 97 161
62 98 166
63 99 166
62 98 160
62 98 162
62 98 168
62 97 156
62 98 159
60 95 153
62 99 169
61 97 160
62 98 160
62 98 163
62 99 165
62 98 156
61 97 161
62 98 160
62 98 163
63 99 166
62 98 162
63 99 168
62 98 159
62 99 168
62 98 163
62 98 155
61 97 155
62 98 160
61 97 154
61 97 149
62 98 159
63 99 170
62 98 157
61 97 150
61 97 154
63 99 168
62 98 161
62 98 163
61 97 152
62 97 153
62 98 156
62 97 159
62 98 162
61 97 151
63 98 162
62 98 157
61 97 158
61 97 158
61 96 147
62 97 157
61 97 152
62 98 157
60 95 156
62 98 157
61 96 152
61 96 144
61 96 152
61 97 153
62 97 157
62 98 162
61 96 153
61 96 148
61 96 148
62 97 154
60 96 150
62 98 152
61 97 151
59 94 140
61 96 144
61 95 149
61 96 151
59 93 134
59 92 137
58 92 131
59 92 134
67 92 119
86 93 77
80 76 16
87 86 16
99 97 19
81 78 18
85 84 8
81 79 18
86 85 3
94 93 11
83 80 10
91 89 11
80 77 0
95 93 13
97 95 18
95 92 11
92 90 13
105 104 13
103 101 18
93 91 21
105 102 21
98 97 15
100 99 23
99 98 21
117 112 31
110 107 29
102 100 21
113 110 29
96 96 19
108 104 25
119 115 30
114 113 24
116 113 23
118 116 25
119 116 32
129 124 37
123 120 27
113 110 25
114 110 25
120 117 37
124 120 43
124 119 38
126 122 24
115 112 31
131 128 33
118 116 33
136 130 41
129 124 37
130 126 33
136 131 39
131 127 37
136 130 36
138 133 42
134 128 33
132 128 32
134 129 32
131 126 41
138 133 47
137 132 31
130 126 39
136 130 36
136 131 36
139 134 32
136 130 36
131 126 36
140 134 45
144 139 44
130 126 39
125 121 36
144 138 41
142 137 39
129 124 44
143 138 42
135 131 34
135 130 36
131 125 30
141 135 41
140 133 42
134 129 28
128 125 28
140 135 37
132 127 34
127 123 36
136 130 47
137 132 37
133 127 34
129 124 36
124 119 36
141 135 37
124 120 22
129 124 32
131 126 37
128 124 37
127 122 36
130 124 30
133 131 34
129 125 34
112 108 22
129 127 34
127 127 30
131 131 34
132 135 28
138 143 19
134 136 30
141 145 22
147 156 11
142 152 16
156 165 22
157 167 16
150 163 11
158 171 11
160 176 0
157 170 0
166 182 0
161 177 0
166 181 0
165 181 0
166 184 0
167 187 0
161 177 0
166 181 0
165 183 0
166 185 0
167 185 0
164 184 0
168 184 0
167 185 0
159 176 0
163 181 0
168 188 0
167 182 0
164 181 0
169 191 0
168 186 0
164 184 0
166 183 0
169 186 0
188 209 147
191 211 153
191 211 163
194 213 169
193 213 167
189 209 163
193 212 165
193 212 169
191 211 157
196 215 175
199 218 191
194 214 179
198 218 193
197 216 184
198 217 193
194 213 177
196 216 189
198 217 193
202 221 206
202 221 211
200 219 199
202 221 211
205 223 215
204 222 212
202 221 206
200 219 204
200 219 199
202 221 206
201 220 207
205 223 218
201 220 203
202 221 211
199 218 199
202 221 211
202 220 204
204 223 221
203 222 218
208 226 227
205 224 218
204 222 218
204 222 215
204 222 215
199 218 203
200 219 204
204 223 214
205 223 214
204 222 220
207 225 224
200 219 209
202 221 209
202 220 204
204 222 217
204 222 207
204 223 212
202 221 206
202 220 206
201 220 204
199 217 199
198 217 194
198 218 194
198 217 196
198 217 198
200 219 198
198 217 193
200 219 201
199 217 196
193 213 169
197 216 184
196 215 182
197 216 181
200 219 194
198 217 188
198 217 181
195 213 188
193 212 182
182 202 169
175 196 172
176 195 180
173 192 188
162 181 197
150 171 181
147 169 175
139 160 157
137 159 164
119 143 164
109 134 162
103 129 159
102 128 168
92 120 157
92 120 156
84 114 166
81 112 159
76 108 159
75 106 163
73 105 155
76 108 162
74 107 153
69 103 157
71 103 155
64 99 158
72 106 159
64 99 156
66 100 157
61 97 164
60 96 158
64 99 159
64 99 161
60 96 160
65 100 162
61 97 157
62 98 164
61 97 161
64 100 161
64 100 167
61 97 161
61 97 157
61 96 153
61 97 162
61 98 165
60 96 154
61 97 162
61 96 158
61 97 164
62 98 162
61 97 156
60 96 157
60 96 157
61 97 159
61 97 157
61 97 162
61 98 165
61 98 167
62 98 164
63 99 166
61 97 158
62 98 167
61 97 163
63 99 165
61 97 165
61 97 165
61 96 157
62 98 167
62 98 165
61 97 163
61 98 167
61 98 167
62 98 166
61 97 156
62 99 166
62 99 170
61 97 158
62 99 173
62 99 169
61 98 162
61 97 162
62 98 167
62 98 164
62 98 166
62 98 166
61 98 167
61 97 160
62 98 165
62 98 160
63 99 166
61 98 165
62 98 165
62 98 162
62 99 168
62 98 169
62 99 167
62 98 166
62 99 166
62 98 163
63 99 168
62 98 165
62 99 170
62 98 164
61 97 159
62 98 166
62 99 170
62 98 171
61 97 162
63 99 168
62 98 162
61 97 161
61 97 156
62 98 160
62 98 166
62 99 164
61 97 163
62 98 163
63 99 165
63 99 165
61 97 160
61 98 166
62 98 167
62 98 159
61 97 162
62 98 163
62 97 157
62 97 154
62 98 165
62 97 157
62 99 165
62 98 164
62 98 156
61 97 153
62 98 161
62 98 157
63 99 164
63 99 168
63 99 165
62 98 157
61 97 152
63 99 169
62 98 162
62 98 161
62 98 158
61 97 152
61 96 152
61 98 164
62 98 157
62 98 160
62 97 154
61 97 156
62 98 156
62 98 160
61 97 156
62 97 160
62 98 158
62 98 163
61 96 149
62 98 163
62 98 159
62 97 154
62 98 154
62 98 160
63 98 158
62 98 159
62 98 161
61 97 153
62 98 156
62 97 152
62 98 156
61 96 150
61 96 149
61 96 153
61 96 152
59 94 138
61 97 151
61 96 147
61 95 150
60 95 142
60 95 151
58 92 134
60 96 147
60 94 143
61 96 144
61 96 145
58 91 135
60 94 137
58 91 129
57 90 125
74 93 113
76 82 64
100 99 0
92 90 15
95 94 14
95 92 12
93 91 11
84 80 8
85 85 16
80 77 8
82 79 12
102 98 12
73 73 14
88 88 16
100 97 16
91 90 9
83 82 0
89 88 14
106 104 16
94 92 16
98 95 16
94 94 18
108 106 18
99 96 21
106 103 16
102 102 16
109 107 24
106 104 19
104 102 24
106 106 26
111 107 27
118 114 25
119 115 24
105 102 32
109 107 30
115 110 30
110 108 21
125 121 31
118 114 28
125 122 28
119 115 35
120 117 25
127 122 36
118 113 37
121 116 36
134 129 31
133 131 37
130 126 31
125 121 25
137 133 38
134 130 38
129 125 40
127 122 30
125 122 35
131 127 37
132 128 37
135 130 41
129 125 32
143 137 47
133 129 40
142 138 34
131 127 28
135 132 36
132 126 38
142 137 41
139 135 37
137 132 28
140 134 45
144 140 36
145 139 44
143 138 44
138 133 34
138 132 42
134 129 28
129 126 25
136 130 36
137 131 36
134 128 37
132 126 41
132 127 30
136 132 37
127 122 32
133 128 37
133 128 37
129 123 41
129 125 25
124 119 32
127 121 30
124 118 28
128 121 39
133 127 39
123 118 32
125 119 36
121 117 25
135 130 42
130 126 28
126 123 28
125 123 22
130 126 30
137 137 30
139 140 30
140 144 22
143 148 19
142 147 30
138 147 0
153 163 16
149 156 19
151 161 11
147 158 16
161 174 11
159 173 0
162 177 0
162 177 0
167 184 0
165 178 0
163 178 0
165 183 0
165 182 0
162 179 0
160 177 0
165 182 0
163 179 0
166 184 0
165 181 0
164 181 0
164 179 0
164 180 0
162 178 0
167 185 0
163 183 0
164 183 0
162 180 0
169 188 0
166 185 0
168 187 0
169 189 0
168 188 0
188 208 149
192 212 163
192 212 161
196 215 177
194 213 169
194 213 171
191 211 167
198 217 188
196 215 182
198 218 194
197 216 194
200 219 191
197 216 188
203 222 209
200 219 196
200 218 198
200 219 204
200 219 203
205 223 215
198 217 191
198 217 191
206 224 226
202 220 207
203 222 215
204 222 211
198 218 198
206 224 218
203 222 212
203 221 214
204 222 215
203 222 214
202 220 212
205 223 217
205 223 217
208 226 227
205 223 220
201 220 212
206 224 224
204 222 218
204 222 209
202 220 206
201 220 209
202 221 211
203 222 217
205 223 215
206 223 221
202 221 212
205 223 218
202 221 207
204 222 214
205 224 221
207 225 221
204 223 215
200 218 201
204 222 224
202 220 209
203 222 211
206 224 221
202 221 212
205 223 218
201 220 206
203 222 211
202 221 209
200 219 204
200 219 198
198 217 196
200 219 204
194 213 182
201 219 203
197 216 188
201 219 203
197 216 188
199 218 193
195 214 188
191 210 182
184 203 174
182 202 188
180 199 193
165 185 181
160 180 189
150 171 177
148 169 183
141 162 166
127 150 164
119 144 166
114 139 170
105 130 160
92 121 156
102 129 163
79 110 162
87 117 167
91 119 162
71 104 150
93 122 166
82 112 164
82 113 157
75 107 160
70 103 152
76 107 159
77 108 157
69 102 155
66 100 156
63 98 152
65 99 153
63 97 151
60 97 163
64 100 160
60 96 157
60 96 157
65 101 164
62 97 151
60 95 154
61 97 154
60 96 165
61 97 156
61 97 165
62 98 164
61 97 162
61 97 160
61 98 167
61 97 160
61 97 163
62 98 165
62 98 167
61 97 170
62 98 167
62 98 170
61 98 163
62 98 164
61 98 166
61 97 164
61 97 167
62 98 165
61 97 159
61 97 162
61 97 162
61 97 156
61 97 165
62 98 165
61 97 163
62 98 162
62 98 164
61 97 161
61 97 164
62 98 163
62 97 163
61 98 164
61 98 166
62 98 160
61 97 157
61 97 163
61 97 163
62 98 165
60 96 159
61 96 154
62 98 163
62 99 172
62 98 164
62 99 171
62 98 165
62 98 167
61 97 161
62 98 166
62 98 162
62 98 164
61 98 160
62 98 166
62 98 166
61 97 158
62 98 159
62 98 162
61 97 161
61 97 161
63 99 165
62 98 162
62 98 161
62 98 161
62 98 166
62 98 165
62 98 162
63 99 171
61 96 153
62 98 161
62 98 167
62 99 168
61 97 159
61 96 153
62 99 164
62 98 159
61 97 156
62 98 161
62 98 164
63 99 170
61 97 159
61 97 160
62 98 165
62 98 160
62 99 168
62 98 162
61 97 156
62 98 162
61 98 164
62 98 162
62 97 155
63 99 162
61 97 159
61 97 156
61 98 160
62 98 154
62 98 163
61 97 157
62 98 160
61 97 159
62 97 158
62 98 162
60 97 153
62 98 162
62 98 160
63 99 161
62 98 158
61 96 151
61 97 152
62 98 163
61 97 157
62 98 163
61 97 158
62 98 155
62 98 164
63 99 163
61 97 159
61 97 158
62 98 156
62 98 155
62 98 155
63 99 164
63 99 164
61 97 156
61 97 149
61 96 152
64 99 163
61 97 150
62 97 160
61 96 148
61 96 150
61 96 145
62 97 154
61 97 148
61 96 152
61 96 145
61 97 155
61 96 152
60 95 145
62 98 160
61 96 152
60 95 148
60 95 145
60 95 144
61 95 142
60 95 144
61 95 151
59 92 128
58 91 134
58 90 120
68 88 110
82 86 48
98 96 8
96 95 14
90 90 0
94 93 0
81 80 0
89 85 18
91 88 0
78 76 1
100 96 8
88 83 4
82 81 14
84 83 11
85 82 11
85 83 8
83 82 0
101 100 18
97 94 18
91 91 12
102 101 11
96 95 14
98 96 9
97 95 18
100 98 18
92 92 18
103 99 14
94 94 14
117 114 28
105 103 20
112 109 24
106 104 22
113 110 28
121 117 35
121 119 23
110 108 35
122 118 30
118 114 29
125 121 22
122 118 28
128 126 26
126 123 37
116 113 23
138 134 32
122 119 24
126 121 25
133 128 35
125 121 37
117 114 33
132 128 33
120 116 28
133 129 32
135 131 37
124 121 36
129 124 32
125 120 36
127 123 28
132 127 36
137 132 37
133 129 34
128 124 36
130 124 36
137 131 41
136 130 39
134 129 39
129 124 32
141 135 36
131 127 30
134 129 36
133 129 22
129 125 34
128 124 34
137 131 39
133 128 32
139 134 42
132 128 34
136 132 37
125 121 32
129 125 25
131 126 32
128 124 28
130 125 36
133 128 34
129 124 32
124 119 36
121 115 25
129 124 37
115 111 22
132 127 39
125 119 36
127 121 36
120 114 32
121 118 28
126 122 36
121 118 25
129 126 22
124 124 25
131 131 30
134 133 28
141 143 30
134 136 22
143 151 19
142 146 32
142 146 28
146 154 19
148 159 0
158 171 0
146 155 11
151 161 16
157 172 0
162 175 0
162 177 0
152 164 0
166 177 0
161 175 0
158 173 0
156 171 0
167 183 0
166 185 0
165 183 0
162 177 0
162 179 0
166 183 0
165 182 0
164 180 0
166 183 0
159 175 0
167 185 0
164 183 0
166 184 0
168 187 0
165 184 0
166 184 0
168 186 0
166 186 0
167 186 0
169 187 0
195 214 173
192 212 159
197 215 179
194 213 169
193 213 167
197 216 186
198 218 194
197 216 181
200 219 199
198 217 191
200 219 196
195 214 194
200 219 201
197 217 191
199 218 199
202 221 206
198 218 194
196 216 188
203 222 214
203 221 211
204 222 209
201 220 204
201 220 204
203 222 214
203 221 211
203 221 217
202 221 215
204 223 214
203 221 207
204 222 214
206 224 218
207 225 223
205 223 220
207 225 227
205 223 217
203 221 214
205 223 218
206 224 220
203 221 217
208 225 226
207 225 223
201 220 212
203 221 212
203 222 217
206 224 223
203 222 217
206 224 220
203 222 217
207 225 227
207 225 221
202 221 214
204 222 215
204 223 217
207 224 224
204 222 223
205 223 218
207 225 226
203 221 209
203 222 214
202 220 207
201 220 207
206 224 218
201 220 203
204 222 211
202 220 207
202 220 203
202 220 199
203 221 207
197 216 189
202 221 207
199 218 196
201 220 199
199 218 190
197 215 198
189 208 195
183 202 188
176 195 184
172 192 189
168 187 199
146 167 184
145 166 191
143 164 185
132 155 180
134 156 182
128 151 174
100 126 164
112 137 168
97 124 174
105 131 175
100 126 160
84 113 164
94 121 169
82 112 159
76 108 153
72 106 165
71 104 158
69 102 158
78 110 153
73 104 149
76 108 159
66 101 155
70 103 153
72 104 158
63 99 160
70 102 156
71 103 150
61 97 159
62 98 160
63 99 158
61 97 156
60 96 151
64 100 163
61 96 155
63 98 161
61 97 165
61 96 151
63 98 157
60 95 155
61 96 151
60 96 153
61 96 156
61 97 160
59 95 150
62 98 160
61 97 162
62 98 162
61 97 162
61 97 164
63 99 170
61 97 165
62 98 167
61 97 163
62 99 168
61 98 169
61 97 163
62 98 163
61 97 161
62 98 168
61 97 156
62 98 164
61 97 160
61 97 162
61 98 165
62 98 166
62 98 163
61 97 163
60 96 157
62 98 169
62 98 168
61 97 163
62 98 163
62 98 165
61 97 161
61 97 155
62 98 165
62 98 165
62 98 167
62 98 166
61 97 156
61 97 159
62 98 165
62 98 163
62 98 160
62 98 165
63 99 169
61 97 153
62 98 160
62 98 164
61 98 160
61 97 156
61 98 162
61 98 159
61 97 162
61 97 161
61 98 160
62 98 168
63 99 165
62 98 165
62 98 161
62 98 161
62 98 162
62 98 163
62 98 166
61 97 162
62 98 163
62 98 165
61 98 163
62 98 161
61 98 161
62 98 162
61 96 159
62 97 156
62 98 158
63 99 162
61 97 153
62 98 165
62 98 166
62 97 160
62 98 160
62 97 157
62 98 158
62 97 153
62 98 164
63 98 163
61 96 154
62 98 159
62 98 159
62 98 160
62 98 158
62 98 163
61 97 153
61 97 160
61 97 156
62 98 158
62 98 161
61 97 152
61 97 154
62 97 153
61 97 154
62 98 162
62 98 159
62 98 158
62 97 156
62 97 157
62 98 155
61 96 144
62 98 161
62 97 151
61 97 155
62 98 159
63 98 165
62 98 154
62 98 158
61 97 158
61 96 150
61 97 148
61 96 142
61 97 148
61 97 150
61 96 143
62 98 159
62 97 157
62 97 150
60 95 140
60 96 145
61 97 150
61 96 154
61 96 143
62 97 151
62 97 156
61 97 151
61 96 146
61 96 146
60 95 149
59 93 137
60 94 139
60 94 139
60 95 140
59 94 140
59 92 133
60 93 144
60 93 133
60 93 142
73 90 100
84 86 36
100 100 11
86 88 0
100 97 8
88 85 8
87 86 14
91 89 16
93 90 11
77 75 5
84 81 12
94 90 12
90 87 14
85 83 14
83 80 12
86 83 0
80 80 3
81 79 14
96 93 16
84 85 8
90 89 21
106 104 8
100 98 8
112 110 16
105 104 3
100 96 14
96 94 11
106 103 24
105 102 15
115 111 31
115 110 22
97 96 16
112 109 26
119 116 26
107 107 16
114 111 20
121 117 35
118 114 31
111 109 24
117 115 26
108 105 30
110 108 25
123 118 26
121 117 16
119 117 26
119 117 12
129 126 28
124 121 24
116 113 22
129 126 26
127 122 35
131 127 34
123 119 22
129 125 35
131 127 34
128 125 30
123 119 37
130 126 28
129 126 33
135 130 30
125 120 26
123 119 28
131 127 37
137 132 41
120 115 34
134 128 39
131 126 34
120 118 30
128 124 34
138 132 36
139 133 39
130 126 16
115 112 28
132 127 37
131 126 30
131 126 36
128 124 30
132 128 32
131 126 30
128 123 30
124 119 25
130 125 30
131 123 36
122 118 32
135 129 37
127 122 30
135 130 37
118 113 22
126 121 28
114 110 28
130 124 37
122 117 30
131 127 37
137 134 28
125 121 25
134 134 22
137 138 25
132 132 19
134 138 28
126 128 0
140 145 16
144 149 28
138 146 19
148 155 22
143 150 11
154 166 19
153 162 11
159 173 11
153 165 0
162 175 0
164 180 0
154 167 0
160 173 0
163 178 0
163 179 0
163 178 0
162 178 0
162 180 0
160 174 0
166 182 0
162 179 0
165 182 0
165 185 0
164 182 0
164 182 0
160 177 0
163 179 0
166 185 0
166 185 0
168 185 0
164 180 0
164 182 0
165 184 0
170 190 0
163 183 0
169 186 0
167 186 0
197 216 184
196 215 188
191 212 165
193 212 169
198 217 188
198 217 193
199 218 194
197 217 188
196 215 189
200 218 201
199 218 194
202 220 206
201 220 203
200 219 194
200 218 199
202 220 209
203 221 212
198 217 198
204 222 218
202 221 201
203 221 209
201 220 201
206 224 220
205 224 223
205 223 218
204 222 215
203 222 211
207 225 223
204 222 215
204 222 214
207 226 230
205 223 212
209 227 231
207 225 227
204 223 218
204 222 214
205 224 218
208 225 223
205 223 226
206 223 220
208 225 230
207 225 226
204 222 215
206 224 221
206 224 221
204 223 218
211 228 233
206 224 224
208 226 227
206 223 223
207 225 227
203 221 206
202 221 212
206 224 223
204 222 215
206 224 223
208 226 230
203 221 209
208 225 224
205 223 212
203 220 206
199 218 198
204 222 212
208 225 223
206 224 221
204 222 211
203 222 215
199 217 194
203 222 214
200 219 204
199 218 193
202 220 203
198 216 196
197 216 201
195 214 201
188 206 196
183 203 199
176 195 203
163 182 190
149 170 194
153 173 201
154 174 202
149 170 199
140 161 183
120 144 172
119 143 183
103 130 171
102 128 165
98 125 175
88 118 166
87 116 169
86 116 168
96 124 172
89 118 161
85 115 169
81 112 166
71 104 155
79 110 168
67 102 154
74 106 165
67 101 154
70 103 163
67 102 167
70 103 153
66 100 160
67 101 157
64 99 155
64 99 165
65 99 153
63 98 157
60 96 157
61 97 160
61 97 163
62 98 165
61 96 157
61 97 163
61 98 163
61 97 158
61 97 162
61 97 151
61 97 163
61 98 161
59 95 153
61 97 163
62 98 163
61 97 159
61 97 161
60 96 155
61 97 161
61 97 159
62 97 161
61 97 160
61 97 161
62 98 162
61 97 160
59 94 152
61 97 163
61 97 160
61 97 166
60 96 147
61 98 164
62 98 166
61 97 158
61 97 160
62 97 159
62 99 168
62 98 161
60 96 155
61 97 160
60 96 155
62 98 164
61 98 166
61 97 161
62 98 166
61 97 162
63 99 164
60 96 155
62 98 164
61 98 163
62 97 158
62 98 159
62 98 165
62 99 165
61 97 165
62 98 163
61 97 155
62 98 159
62 98 167
61 98 164
61 98 164
61 97 162
61 97 159
62 97 158
60 96 152
62 98 165
62 98 158
61 98 164
61 97 152
62 98 160
62 98 165
62 98 163
62 98 164
61 97 161
62 98 161
62 98 167
62 99 166
62 99 165
61 97 155
62 97 157
62 98 165
62 99 163
62 98 160
61 97 155
63 99 165
61 97 160
61 97 155
61 97 157
62 98 160
62 98 157
61 97 150
63 99 163
62 98 160
62 98 162
61 96 153
62 98 163
61 97 155
61 97 158
63 99 163
62 98 158
62 98 158
62 98 162
62 97 156
61 98 161
62 98 161
61 97 159
61 97 156
62 98 158
61 97 151
62 98 157
62 97 159
62 98 158
61 96 151
62 98 162
62 98 165
62 98 156
62 97 154
62 98 161
62 98 160
61 97 154
62 97 157
61 97 152
61 97 148
62 98 157
61 97 152
61 97 153
62 97 157
62 98 158
62 98 161
61 96 151
62 98 156
61 96 153
61 96 147
61 96 148
61 96 150
62 97 156
61 97 156
61 96 152
60 94 138
62 97 152
62 97 150
60 95 146
61 96 153
61 95 149
61 95 147
61 96 151
61 95 143
61 96 145
60 94 151
60 94 139
60 93 138
58 92 135
59 93 134
58 91 132
77 95 105
88 94 41
93 96 8
98 95 0
99 98 15
89 89 8
94 94 11
84 82 0
93 91 16
85 83 11
75 73 8
94 90 11
78 76 14
91 88 14
97 94 12
91 88 0
96 94 12
94 91 14
97 94 14
98 97 21
97 96 18
96 94 19
92 89 16
96 94 9
110 106 26
95 92 21
100 97 8
104 101 11
111 107 19
99 97 11
105 103 16
107 105 19
107 104 16
106 103 19
101 100 19
115 113 14
109 107 16
113 111 14
126 122 22
114 112 28
115 112 26
116 113 28
124 121 30
121 118 29
122 117 24
125 121 25
118 114 14
121 118 26
126 122 24
123 120 28
133 129 32
118 113 25
129 124 28
121 118 32
128 123 19
120 117 19
132 128 30
130 125 34
130 125 32
131 126 32
137 132 28
130 127 32
127 122 34
131 127 37
140 135 36
134 128 42
128 124 34
124 120 25
134 130 32
130 125 28
132 128 30
134 130 32
127 122 19
131 127 22
132 127 39
132 127 34
134 130 30
130 126 28
125 120 22
129 125 30
135 128 37
126 122 28
129 124 16
124 118 32
127 123 25
134 129 37
123 118 25
134 127 32
117 111 28
130 126 28
132 128 19
129 127 34
128 127 16
122 121 28
122 123 19
143 146 11
133 133 25
134 136 22
144 148 28
136 142 11
142 147 16
132 136 11
152 162 11
145 154 11
151 163 0
153 164 11
158 171 0
159 171 0
156 169 0
160 174 0
160 173 0
163 177 0
158 173 0
162 175 0
162 177 0
156 169 0
159 174 0
162 178 0
166 179 0
163 178 0
168 186 0
166 183 0
160 176 0
162 180 0
160 177 0
165 182 0
168 188 0
165 183 0
163 177 0
171 188 0
165 183 0
169 186 0
164 183 0
162 176 0
167 185 0
164 181 0
168 186 0
190 210 161
198 217 191
202 220 201
197 216 188
198 216 189
198 218 199
196 215 188
202 221 204
203 221 209
201 220 204
202 220 204
202 221 204
199 217 191
202 221 203
204 222 211
203 221 209
203 222 218
204 222 215
199 219 196
207 225 227
205 223 217
209 226 230
204 222 212
206 224 223
205 223 215
207 225 226
201 220 212
208 226 226
207 225 221
206 225 234
209 227 231
210 227 236
209 226 227
207 225 223
208 225 224
206 224 220
207 225 224
207 225 227
209 227 231
204 222 217
209 227 233
206 224 227
204 222 218
207 225 228
208 226 231
207 225 226
209 226 230
206 224 223
209 226 227
208 225 223
208 226 227
205 223 212
205 223 220
207 225 227
206 224 223
202 220 212
211 228 237
207 225 227
206 224 218
206 224 224
208 226 226
210 228 237
206 224 218
206 224 217
206 225 223
206 224 221
206 223 217
203 222 214
206 224 217
207 225 221
204 222 211
201 219 200
196 215 194
197 216 203
192 210 198
182 201 192
178 197 199
178 198 207
175 194 205
153 174 196
146 167 204
153 174 209
148 169 198
129 152 184
126 149 183
118 143 181
120 144 182
117 141 187
116 140 177
104 130 173
89 118 175
84 113 162
77 109 156
77 109 160
82 113 169
84 115 161
76 108 157
79 111 160
77 108 156
71 104 156
78 109 162
72 104 160
74 106 160
67 102 158
69 102 151
65 99 153
65 100 155
63 98 159
62 97 148
61 97 160
61 97 155
60 96 151
62 97 153
63 98 158
64 99 163
59 94 149
60 96 159
63 97 152
61 97 157
60 96 153
61 98 164
61 97 161
61 97 158
61 97 162
62 98 166
61 97 158
62 98 162
61 97 159
60 96 158
61 97 164
62 98 157
59 95 158
62 98 164
61 97 160
62 99 168
60 97 160
60 96 159
60 96 155
61 97 157
61 97 165
61 97 165
62 98 165
61 96 154
61 96 157
61 97 159
62 97 161
62 98 163
61 97 159
60 96 163
62 98 169
62 98 162
61 98 166
62 98 160
60 96 158
62 99 167
62 98 167
61 97 162
62 98 161
61 98 166
61 98 164
62 98 168
60 96 154
62 98 159
62 99 169
61 98 164
62 98 162
61 97 156
61 97 161
62 98 164
61 96 155
62 97 156
61 97 160
62 98 164
62 97 152
62 98 160
61 97 154
62 98 163
61 97 159
62 98 165
62 98 166
62 98 161
62 98 167
61 97 160
61 97 155
62 98 161
62 98 158
61 97 158
62 98 160
62 99 167
62 98 164
62 98 158
62 98 158
63 99 165
62 99 165
62 99 169
62 99 167
62 98 160
61 97 156
62 98 156
62 98 162
62 99 163
61 97 161
62 98 156
60 96 152
62 98 165
62 98 163
62 98 158
62 98 165
61 97 158
61 97 152
62 98 160
61 97 156
62 98 159
61 96 149
61 97 159
62 98 163
63 99 161
61 97 156
61 97 156
62 98 161
61 96 150
62 98 159
61 97 157
62 98 162
61 97 152
61 97 153
61 96 153
61 97 153
62 98 155
61 97 153
61 97 155
62 97 157
62 98 155
61 96 150
62 97 155
62 98 156
61 96 150
61 97 152
61 97 152
62 98 157
61 97 151
62 97 155
60 96 145
61 96 145
62 98 156
61 97 154
61 96 147
61 97 154
61 96 148
61 97 155
62 98 154
62 97 158
61 95 151
61 96 151
60 95 141
60 95 140
60 95 145
60 94 139
59 94 138
60 94 139
60 94 142
59 92 139
58 91 133
76 88 92
101 103 31
97 100 3
96 99 3
93 91 11
85 87 8
104 101 11
96 94 0
84 80 11
88 87 2
96 93 0
94 91 6
82 80 0
86 85 18
88 83 0
95 91 11
96 93 19
90 88 8
95 94 14
93 90 11
91 88 11
95 92 14
86 84 11
101 100 23
84 83 16
95 93 16
101 97 16
107 104 12
103 100 11
107 104 28
105 101 11
105 102 26
106 102 16
113 110 18
110 106 19
113 109 30
109 107 25
118 115 23
116 112 18
116 112 19
113 110 25
121 117 33
108 105 16
108 105 19
119 115 28
118 113 21
131 127 25
121 118 30
128 124 37
131 125 25
122 118 22
131 127 30
128 122 30
126 121 25
126 122 25
123 120 33
112 109 25
133 129 32
124 121 31
116 113 22
127 123 19
135 129 41
128 123 25
132 127 28
132 126 37
122 116 19
128 123 32
126 121 30
140 134 32
131 127 30
127 121 36
126 123 28
142 136 32
134 128 36
123 117 30
123 118 32
129 124 25
131 126 36
127 122 25
123 119 25
127 123 28
131 126 32
124 119 32
138 132 32
123 118 28
122 117 22
120 115 19
114 109 22
121 116 19
119 116 16
133 130 30
128 126 25
123 122 28
130 132 22
136 137 28
123 122 22
144 146 22
134 139 16
142 147 19
147 154 22
141 150 16
142 148 22
147 158 16
150 159 11
158 169 11
159 172 16
151 165 0
162 178 0
160 174 0
159 172 0
161 176 0
159 170 0
160 173 0
159 176 0
167 186 0
162 177 0
161 176 0
163 179 0
162 180 0
167 185 0
164 179 0
165 180 0
165 182 0
166 184 0
163 181 0
166 183 0
163 181 0
164 181 0
164 181 0
164 183 0
166 183 0
166 184 0
168 185 0
166 184 0
166 184 0
169 186 0
167 185 0
196 216 191
198 218 198
200 219 203
200 220 201
202 221 214
201 220 204
202 221 209
197 216 184
199 218 196
202 220 211
202 221 211
203 221 209
200 219 206
205 223 218
204 222 214
204 223 218
205 223 220
205 223 217
200 219 203
206 225 227
205 223 217
207 225 227
207 225 223
205 223 223
208 226 230
210 227 238
207 225 224
203 221 211
207 225 224
206 224 218
205 223 218
205 223 218
208 226 231
210 227 230
209 226 227
211 228 240
207 225 221
206 224 218
207 225 224
208 225 224
209 226 227
208 225 227
208 226 224
207 224 223
209 227 227
210 227 231
207 224 223
203 221 211
204 223 217
205 223 215
205 223 218
208 225 223
209 226 227
206 224 220
211 228 234
209 226 228
209 226 231
206 224 215
207 224 224
208 226 224
206 224 218
207 224 218
208 226 226
204 222 212
205 223 215
203 222 214
203 221 211
205 223 215
204 222 215
204 222 209
199 217 196
206 224 218
201 219 207
198 216 211
189 208 206
196 214 220
179 198 203
175 194 214
176 195 218
164 184 209
155 176 204
158 178 214
150 170 203
113 138 182
132 155 191
136 158 196
133 155 184
107 133 180
89 117 167
105 131 179
101 128 172
99 126 174
82 113 166
92 120 166
74 107 155
76 108 163
81 111 163
80 111 158
75 107 161
66 101 166
67 101 157
76 108 154
74 106 162
73 105 164
63 98 162
60 96 148
70 103 155
63 98 157
61 97 159
63 99 157
63 98 161
62 97 153
60 95 153
60 95 151
61 97 161
61 97 160
60 96 152
61 97 160
63 99 160
60 96 155
61 97 157
61 96 153
61 97 163
60 96 154
60 96 163
61 97 158
62 98 165
61 96 158
60 96 158
61 98 162
61 98 162
61 97 164
62 98 162
60 96 159
61 97 163
61 97 158
60 96 156
61 98 163
62 98 164
62 99 168
61 97 157
62 98 164
61 97 162
62 98 163
61 97 161
60 96 160
61 97 162
62 99 169
61 97 159
62 98 164
61 97 159
63 99 165
61 98 167
62 98 164
62 98 162
62 98 165
62 98 166
61 97 159
61 97 153
62 98 162
61 97 156
61 96 155
62 99 167
62 98 164
61 97 158
62 98 161
61 97 155
61 97 159
62 98 159
62 98 158
61 98 159
62 98 161
62 98 165
61 98 164
60 96 154
62 98 162
62 98 161
62 98 162
62 98 164
62 97 157
61 97 160
62 98 158
62 98 164
61 97 155
61 97 158
62 98 158
62 98 158
62 98 169
62 98 158
61 97 159
62 98 159
61 97 158
62 98 156
62 97 150
62 99 168
62 98 160
62 98 156
61 97 153
63 99 162
62 98 161
62 97 159
62 97 158
62 98 164
62 97 157
60 96 149
63 98 162
61 97 160
62 98 156
61 97 159
62 98 163
62 98 160
62 98 164
61 97 156
61 96 153
61 97 156
61 97 155
62 98 156
61 97 154
61 97 153
62 98 155
61 97 152
61 96 151
62 98 154
61 97 152
62 98 157
61 97 149
61 97 155
62 98 155
61 97 153
61 97 151
63 98 158
61 97 152
62 98 158
61 96 153
62 98 155
62 97 156
62 97 154
60 96 148
60 95 145
61 97 152
62 98 158
62 97 154
61 97 149
61 96 147
61 96 149
61 97 153
62 97 150
61 96 146
60 95 152
60 95 144
62 97 150
62 97 152
60 95 145
60 94 140
60 94 146
61 95 146
60 95 144
59 93 139
59 94 144
58 92 137
59 92 126
58 91 124
63 92 125
86 95 73
109 112 31
113 115 16
103 101 14
80 81 11
93 92 11
103 101 16
89 87 11
93 88 0
91 90 0
95 91 11
99 97 0
91 89 12
90 86 11
74 74 14
87 84 0
92 90 8
93 91 0
98 96 3
95 93 8
86 84 11
94 92 16
97 95 14
101 97 16
104 102 14
103 100 11
104 102 0
110 106 19
108 105 18
94 90 11
99 97 18
116 112 19
108 105 29
110 106 18
122 118 18
115 112 16
116 113 25
108 105 16
113 110 23
117 112 26
108 105 16
115 111 24
119 115 21
121 115 35
121 115 29
114 111 31
116 113 28
123 119 25
118 115 21
122 117 34
117 113 21
119 115 26
113 111 25
125 119 22
130 125 29
126 121 22
122 118 29
125 121 30
126 122 19
127 120 25
131 126 25
122 120 28
125 121 22
124 120 28
126 123 28
126 123 19
132 128 25
129 125 28
128 123 28
126 121 32
130 125 30
115 111 22
119 114 32
123 118 19
126 120 22
121 116 25
126 121 25
129 123 32
132 126 39
127 121 32
128 121 32
127 122 30
121 116 25
121 116 28
130 124 25
114 110 30
115 111 19
125 123 32
132 130 30
125 122 19
133 133 28
132 130 16
136 134 36
121 120 16
140 141 25
130 132 22
136 138 16
145 153 11
143 150 11
147 156 22
146 153 11
151 159 16
152 161 19
151 160 11
157 169 0
158 171 0
153 165 11
156 170 11
165 179 0
162 176 0
163 174 0
155 166 0
163 178 0
162 177 0
158 172 0
163 177 0
165 182 0
156 172 0
168 185 0
163 178 0
163 180 0
165 182 0
164 181 0
162 180 0
165 182 0
162 179 0
169 185 0
168 186 0
165 183 0
165 183 0
167 184 0
167 185 0
167 185 0
161 178 0
168 186 0
168 186 0
167 188 0
199 218 194
199 218 201
194 214 182
204 222 215
199 218 203
201 220 203
203 221 206
199 219 201
205 223 212
203 221 214
201 220 204
205 223 218
206 224 223
205 223 217
206 224 221
205 223 212
209 226 228
210 228 237
206 224 220
204 223 215
209 226 228
206 225 228
207 225 223
208 226 234
207 224 220
202 221 211
207 224 223
205 223 218
208 226 233
207 225 226
207 225 221
210 228 238
207 224 220
207 225 230
207 225 227
206 223 223
208 225 228
211 228 238
210 227 233
206 224 218
204 222 221
207 225 228
207 225 227
207 225 224
208 225 228
208 225 226
204 222 211
203 221 214
207 226 230
211 228 233
207 225 226
209 226 224
208 226 226
208 225 227
207 225 220
208 226 227
208 226 228
205 223 217
207 224 221
207 224 217
209 226 227
205 223 217
207 225 226
206 224 224
208 226 230
208 225 226
201 220 201
205 223 217
208 225 223
203 222 214
205 222 212
206 223 217
205 223 218
198 216 222
189 208 211
188 206 218
185 203 223
166 185 210
177 196 220
160 180 209
157 177 211
154 175 211
139 161 199
142 164 202
138 161 199
116 141 191
115 140 185
113 138 184
114 139 188
100 127 175
103 129 171
98 125 175
84 114 167
105 132 175
90 120 176
89 118 162
87 117 166
72 105 157
81 111 160
75 107 165
68 101 159
66 101 161
71 104 155
73 106 153
73 105 162
72 105 160
74 106 160
66 101 162
63 99 162
60 95 160
60 96 159
61 97 160
62 98 156
60 96 156
63 99 163
60 95 155
60 96 159
61 97 157
60 95 155
59 95 154
63 99 161
62 98 153
60 96 159
62 98 164
60 96 155
62 97 158
61 98 159
61 96 155
62 98 166
61 97 159
61 97 161
63 99 166
61 97 163
62 98 166
61 98 162
61 97 162
61 98 166
61 97 162
61 97 156
61 97 161
62 98 167
61 97 158
62 98 166
61 97 160
62 98 166
62 98 167
61 97 156
61 97 160
61 97 160
61 97 161
61 97 161
61 97 160
62 98 163
62 98 161
61 97 157
62 98 164
61 96 153
61 96 157
61 96 158
61 98 158
62 98 165
61 97 154
62 98 162
62 98 164
61 97 164
62 98 161
61 97 154
61 97 152
61 97 159
61 97 158
61 97 152
62 98 162
62 98 156
61 97 161
62 98 164
61 97 151
61 97 158
62 98 161
62 98 162
61 96 152
62 97 154
62 98 162
62 97 156
62 99 168
62 98 160
61 97 158
61 97 152
62 97 156
62 98 161
63 99 164
62 98 160
62 98 163
62 98 162
62 98 160
61 96 154
63 99 161
61 97 159
61 97 156
62 98 161
61 97 158
62 98 159
62 98 161
62 98 158
61 97 154
62 98 161
62 98 161
61 97 153
62 99 166
62 98 164
62 98 161
63 99 161
62 99 163
62 98 161
62 98 159
62 97 153
61 97 158
62 98 159
61 97 154
61 97 150
61 96 155
62 98 157
61 97 156
62 98 157
61 97 157
61 97 156
60 96 144
61 97 152
62 98 157
62 98 161
61 96 145
61 97 152
62 97 152
62 97 149
61 97 154
62 98 161
62 98 157
61 97 157
62 98 157
61 97 149
62 97 153
61 97 152
61 96 148
60 96 151
61 96 153
61 97 154
62 97 143
61 96 151
61 96 155
62 97 150
60 95 142
59 94 144
59 94 136
60 95 143
60 95 148
59 93 138
60 94 137
61 96 148
59 93 140
60 94 133
60 94 142
59 93 136
60 93 137
67 94 114
111 116 52
111 115 14
91 92 16
99 99 11
97 98 0
100 99 19
88 86 8
94 92 11
76 76 0
93 89 11
87 86 0
93 90 16
97 93 0
96 92 11
98 92 0
84 79 14
91 88 16
86 83 11
98 95 8
87 86 8
89 86 0
92 89 0
89 87 5
91 86 8
101 97 11
101 100 11
98 94 8
106 104 8
102 98 18
121 116 28
97 94 0
107 102 8
108 104 14
99 96 8
107 104 21
114 111 16
108 104 16
110 106 19
107 104 0
118 112 28
110 106 18
113 110 25
116 111 21
119 115 22
123 118 19
124 120 31
119 115 22
119 115 22
118 114 25
128 124 30
118 115 16
125 123 25
120 117 18
120 116 24
118 114 28
128 122 19
123 117 25
124 119 25
127 123 28
120 116 16
130 126 28
117 114 25
126 122 32
126 120 28
125 120 36
135 131 32
125 119 28
129 125 34
127 123 22
120 117 25
119 114 16
126 123 19
126 121 22
126 121 28
116 112 22
121 117 19
129 123 32
121 117 19
129 124 30
114 110 16
126 120 32
129 124 30
124 118 11
125 118 36
121 117 28
128 124 34
126 122 19
117 112 25
122 118 11
131 130 0
123 122 22
128 127 19
134 135 19
132 137 11
136 136 32
130 134 19
139 143 19
144 147 16
145 150 11
152 162 25
147 155 0
150 160 16
157 167 11
153 165 0
157 169 0
159 173 0
165 179 0
161 176 0
163 179 0
161 174 0
158 173 0
158 170 0
163 180 0
156 170 0
164 182 0
164 180 0
165 182 0
164 181 0
159 175 0
162 177 0
160 173 0
166 183 0
161 176 0
166 182 0
166 183 0
163 179 0
163 181 0
164 181 0
167 185 0
167 187 0
170 188 0
165 181 0
165 182 0
165 183 0
165 185 0
166 183 0
168 186 0
199 218 199
200 218 191
201 220 203
201 220 207
201 220 201
200 219 199
203 222 218
202 221 212
204 222 212
204 222 209
206 224 223
198 217 189
206 224 218
206 224 224
206 224 220
208 226 231
208 226 231
206 224 220
209 227 234
208 226 230
208 226 227
207 225 224
208 226 230
207 225 221
205 224 227
206 224 224
209 227 233
207 225 227
205 223 220
203 221 215
208 225 226
203 222 212
203 222 218
207 225 224
202 220 212
205 223 221
208 225 224
208 225 224
206 225 224
205 223 220
204 222 217
208 225 227
206 224 226
207 225 220
205 223 218
205 223 220
205 223 220
205 223 215
208 225 224
203 221 217
206 224 220
209 226 230
206 223 215
205 223 224
206 223 214
203 221 212
203 221 212
205 223 218
205 222 221
203 222 218
206 224 217
202 220 212
206 223 223
207 225 221
204 222 214
207 225 224
209 225 224
205 223 220
208 225 220
208 225 221
205 223 217
209 226 224
206 224 223
197 215 209
190 208 212
185 204 212
168 188 210
169 189 214
159 179 207
170 189 220
160 180 214
140 161 201
153 174 211
140 162 203
130 152 190
135 157 199
120 144 195
123 147 190
108 134 179
113 138 183
100 127 174
109 134 187
92 121 176
92 121 168
92 121 170
78 109 165
85 115 169
73 105 160
77 108 164
72 105 167
72 106 167
66 100 157
79 110 164
71 104 161
62 98 164
69 102 158
64 99 161
62 98 160
64 99 159
64 100 161
63 99 164
62 97 158
63 99 158
61 97 159
64 100 166
65 99 156
62 97 149
60 96 153
61 97 158
60 96 152
61 96 155
61 97 158
61 97 160
61 97 161
60 96 155
61 96 157
62 98 161
61 97 157
61 97 158
62 98 158
62 97 164
61 97 163
61 97 157
61 97 163
61 98 163
61 96 158
62 97 157
60 96 157
61 97 160
61 97 167
61 96 156
61 97 161
62 98 161
62 98 170
61 97 164
61 97 160
62 98 162
62 98 158
62 98 165
61 97 154
61 97 164
62 98 162
61 97 158
61 97 161
60 96 156
61 97 163
62 98 163
62 98 167
61 97 164
61 97 161
61 96 154
61 97 152
62 99 165
60 96 157
61 98 165
61 97 160
61 97 162
60 96 150
62 98 163
61 97 161
62 98 166
61 97 155
62 98 167
62 98 161
61 97 157
62 97 156
62 99 170
61 97 156
62 98 162
62 98 162
61 97 153
62 98 159
62 98 156
61 97 153
62 98 161
61 97 158
62 97 152
62 98 164
62 98 162
62 98 160
63 99 165
62 98 167
62 97 155
61 97 157
62 98 161
61 97 159
62 98 164
62 97 151
61 97 154
61 97 154
61 97 154
62 98 155
61 98 161
61 97 156
61 96 154
62 99 168
62 98 159
62 97 152
62 98 157
62 98 159
61 96 149
62 98 164
63 98 159
60 96 150
62 98 159
62 98 164
61 97 155
61 97 147
61 97 153
62 97 156
61 97 158
61 97 152
62 97 149
61 97 155
62 98 163
62 98 163
62 97 154
62 98 155
61 96 152
62 98 158
62 97 151
62 97 155
61 97 147
62 98 154
62 98 154
62 98 154
62 98 159
62 98 156
61 96 153
61 97 148
61 96 148
61 96 149
61 96 150
61 97 154
61 96 150
62 97 158
59 94 138
61 96 142
61 96 152
61 95 145
61 96 150
60 95 148
60 94 138
60 95 141
60 94 139
60 95 142
61 95 147
60 93 128
61 95 145
60 94 136
60 94 142
59 92 131
69 92 110
99 108 57
99 100 21
98 99 0
90 92 0
106 108 19
106 107 11
91 93 0
101 99 11
88 87 8
94 92 0
103 102 11
91 91 3
92 89 16
83 83 0
89 85 0
95 92 0
94 89 8
87 83 8
95 91 8
89 87 8
93 89 0
88 86 3
95 91 14
91 88 11
100 96 8
86 83 8
96 92 0
88 86 8
98 95 0
90 90 11
99 96 11
103 100 18
102 98 14
112 108 11
106 103 11
107 104 8
107 103 16
107 103 14
114 111 25
119 114 16
112 108 14
106 103 11
114 111 16
108 105 11
110 106 19
110 108 11
116 112 8
117 113 22
119 116 11
119 115 16
120 116 25
117 113 22
114 110 16
116 113 14
129 124 22
122 118 18
118 114 19
120 115 25
123 119 25
127 122 31
117 112 22
127 121 32
126 121 22
125 119 34
127 121 25
127 121 19
124 119 22
118 114 22
131 125 25
117 111 19
120 116 19
121 115 16
122 115 32
130 124 22
128 123 22
123 117 30
128 122 19
119 114 22
121 116 25
127 122 19
107 103 22
119 114 30
125 120 19
123 119 22
122 120 25
126 122 16
124 120 30
121 117 22
120 120 16
128 130 19
136 139 11
127 127 28
135 133 22
139 145 19
140 144 11
135 135 22
143 153 0
140 147 16
144 153 0
147 156 16
155 166 11
154 167 11
149 158 11
156 168 0
157 171 0
159 173 0
165 180 0
158 170 0
162 174 0
156 172 0
155 166 0
159 173 0
160 173 0
162 174 0
167 184 0
167 183 0
163 179 0
162 179 0
163 180 0
165 181 0
158 176 0
165 181 0
162 181 0
166 184 0
158 175 0
166 186 0
164 182 0
162 179 0
167 185 0
166 184 0
164 180 0
168 184 0
168 186 0
168 182 0
165 182 0
169 187 0
169 188 0
204 222 209
199 218 201
202 220 204
204 222 209
202 221 214
206 224 217
206 223 217
204 223 214
207 225 224
207 225 221
205 223 218
204 222 217
207 225 224
209 226 228
209 227 233
204 222 217
208 225 228
207 225 223
205 223 220
209 227 234
209 227 228
207 224 227
208 225 227
204 222 218
206 224 220
204 222 223
205 224 218
206 224 224
208 225 223
203 222 214
205 223 221
205 223 220
205 223 218
204 222 217
210 227 231
208 225 228
204 223 214
205 223 211
205 223 217
204 222 211
202 220 209
208 225 224
206 225 226
207 225 227
210 227 234
203 221 209
206 224 218
204 223 215
203 222 218
205 223 215
209 227 230
204 222 218
203 221 207
207 225 223
202 221 211
202 220 206
206 223 215
206 224 220
204 222 215
202 220 215
206 223 217
203 221 209
204 222 214
207 224 227
205 223 215
205 223 215
205 223 217
205 223 220
205 223 217
207 224 217
203 221 209
206 224 215
203 220 215
191 209 201
176 195 210
191 209 221
187 205 223
166 186 212
163 182 214
169 188 215
149 170 204
163 183 221
137 159 198
122 145 193
137 160 201
121 144 186
116 141 188
130 153 199
105 131 184
125 148 196
118 142 181
102 128 181
100 127 177
95 123 176
87 116 171
85 115 174
78 110 161
86 116 160
76 108 168
70 104 157
77 109 162
69 102 162
72 105 157
67 102 167
72 105 167
63 98 156
63 99 161
74 106 164
63 98 160
64 98 159
62 98 159
63 98 158
60 95 153
63 99 158
60 95 154
61 96 155
61 97 156
63 98 150
61 97 159
65 100 158
60 96 156
60 96 160
61 97 158
60 96 153
60 95 149
60 96 153
61 97 158
60 96 150
60 96 157
60 95 154
61 97 160
60 96 149
61 97 159
60 96 157
60 96 159
60 96 161
60 95 157
61 96 154
62 98 165
61 97 160
61 97 165
61 97 154
61 97 162
60 96 158
61 97 154
62 98 160
63 99 162
61 96 157
62 97 159
61 96 151
62 98 159
61 98 161
61 97 155
62 98 160
62 98 166
62 98 159
61 97 156
61 97 160
61 96 156
62 98 166
61 97 153
60 95 156
61 97 155
61 98 159
62 98 160
62 97 158
62 98 162
60 97 157
62 98 167
62 98 162
62 98 160
62 98 162
61 97 162
61 97 159
62 98 162
62 98 162
61 97 156
62 98 169
60 96 156
61 97 157
63 99 164
62 98 164
62 98 164
61 97 160
62 97 158
61 97 158
61 97 160
61 97 153
61 97 154
62 98 159
62 98 160
61 96 149
62 98 161
61 97 156
62 98 155
62 98 161
61 97 158
62 97 154
61 97 153
62 98 163
61 97 154
62 98 161
62 98 157
62 98 158
62 98 160
61 96 153
63 99 163
61 96 153
62 97 155
63 98 159
61 97 154
63 98 161
62 97 156
61 97 155
62 98 154
63 99 162
61 96 147
61 97 157
62 98 159
62 98 156
62 98 159
61 97 154
62 98 155
62 98 153
61 96 150
61 97 148
61 96 144
62 98 159
61 97 154
61 96 147
60 96 145
61 97 150
63 99 162
61 97 148
61 97 150
61 97 151
61 97 151
62 98 158
62 97 151
62 97 156
61 96 150
61 96 153
60 96 149
60 95 147
61 96 150
61 96 139
62 97 148
60 95 142
61 96 148
60 96 145
61 96 149
61 97 141
60 95 139
59 93 137
59 92 132
60 94 146
60 94 140
59 93 133
59 93 137
58 90 125
59 93 138
58 92 132
71 92 104
98 108 54
98 99 0
107 107 16
119 123 16
109 109 11
93 91 0
106 105 0
107 108 16
97 100 8
98 97 8
90 88 11
89 87 6
85 85 0
107 104 11
99 97 11
88 86 0
85 81 0
92 90 4
94 91 8
90 87 2
88 85 2
94 91 0
94 89 11
96 91 8
101 97 0
92 88 8
85 82 14
102 100 14
84 80 11
96 90 0
90 88 8
103 100 8
103 101 18
105 100 14
109 105 11
105 102 14
107 104 11
109 104 16
98 95 16
101 100 0
108 104 8
108 105 16
102 99 3
113 109 11
113 109 19
108 104 11
119 117 11
115 112 18
119 114 19
124 119 28
111 108 19
123 118 22
116 111 19
117 114 19
127 121 19
114 110 25
126 119 22
127 122 22
117 112 16
125 120 33
121 116 25
123 118 11
128 124 25
124 120 32
123 118 25
127 123 19
126 121 25
123 119 25
117 112 11
129 124 32
131 125 25
119 115 16
123 117 22
123 118 22
119 112 30
116 111 32
118 114 16
132 125 32
124 118 19
113 109 25
116 112 22
115 111 11
116 112 22
124 122 19
122 118 19
124 123 19
123 121 16
125 125 19
125 124 22
133 133 19
126 127 11
137 141 19
137 141 19
125 128 16
136 141 16
137 144 0
145 150 16
146 153 11
149 160 11
150 160 22
150 164 0
160 171 0
150 162 0
158 171 0
162 176 0
159 173 0
161 175 0
158 171 0
160 172 0
155 167 0
162 176 0
160 173 0
163 178 0
164 182 0
166 181 0
161 177 0
161 175 0
164 181 0
162 177 0
162 179 0
155 165 0
163 180 0
167 184 0
162 178 0
166 185 0
165 181 0
166 181 0
168 187 0
168 186 0
164 182 0
166 186 0
164 183 0
167 186 0
160 176 0
165 182 0
164 182 0
167 185 0
204 222 212
205 223 220
199 218 201
204 223 211
206 224 221
203 221 207
205 223 220
209 226 230
207 225 226
206 224 218
206 223 218
207 225 227
207 225 223
206 223 221
210 227 233
204 222 217
208 226 228
209 226 228
208 225 227
206 223 230
209 226 234
206 224 226
206 223 221
200 217 214
206 223 220
206 224 220
202 220 207
206 223 226
205 223 218
200 218 206
202 221 211
207 225 226
204 222 220
205 223 218
204 222 217
207 225 224
204 222 217
202 220 203
203 221 212
202 221 211
198 217 198
202 220 206
202 221 212
203 221 204
197 217 191
198 217 193
204 223 215
202 221 214
205 223 218
200 219 206
200 218 199
198 217 193
202 220 206
199 218 196
205 223 215
201 220 201
206 223 215
205 222 214
201 220 207
206 224 220
208 226 226
205 222 218
201 219 204
205 223 215
204 221 217
205 223 218
206 224 221
209 226 228
201 219 201
207 225 221
203 220 206
205 221 228
201 219 215
192 210 215
191 209 218
177 196 216
171 191 216
173 192 222
174 193 219
151 172 208
148 169 205
141 162 194
152 173 207
137 160 196
146 167 203
124 148 193
134 156 199
125 148 196
110 135 188
120 144 191
118 142 192
106 132 188
110 136 181
107 133 185
94 122 176
105 131 178
77 109 169
83 114 173
91 119 168
68 102 163
78 110 169
68 102 161
70 103 162
66 101 158
76 107 159
67 102 170
64 99 161
68 101 157
68 101 160
74 106 165
64 99 154
62 97 154
67 101 162
61 97 161
64 99 154
61 98 167
65 100 162
61 97 162
60 96 155
61 97 158
61 96 162
63 97 153
61 96 151
61 97 153
61 97 164
60 96 155
61 97 161
62 97 164
60 96 156
61 97 158
61 96 155
60 96 158
61 97 161
61 97 158
60 96 161
61 97 158
61 97 160
61 98 165
60 95 147
61 97 158
61 97 160
62 98 165
61 97 160
61 97 159
61 97 157
61 97 160
61 97 157
62 98 159
62 98 166
61 97 156
63 99 169
61 97 166
60 96 160
62 98 160
62 98 167
60 96 158
62 98 163
60 96 153
62 98 167
62 99 167
61 97 158
61 97 160
62 98 170
61 97 156
61 96 155
62 98 166
60 96 154
62 97 161
62 97 159
61 97 155
62 98 161
62 98 161
62 98 160
61 97 160
62 98 157
62 98 157
62 98 163
62 98 160
61 97 160
62 98 161
61 97 153
62 98 162
62 98 160
61 97 152
62 97 159
61 97 156
62 98 158
61 96 152
63 99 164
61 96 153
62 98 163
61 97 153
62 98 158
62 98 158
62 98 160
61 97 158
61 97 158
62 98 162
61 97 153
62 98 164
61 96 152
62 97 154
62 98 161
62 98 155
62 98 156
62 99 164
62 97 149
61 97 163
61 98 161
62 98 155
62 98 157
61 97 151
62 98 159
62 98 159
61 97 156
61 97 150
61 97 156
62 98 156
61 97 154
61 97 154
62 98 154
61 96 150
63 98 161
62 97 155
62 98 159
61 97 153
61 97 151
61 96 152
62 97 147
61 97 153
62 98 159
62 98 156
61 97 154
62 98 157
63 98 165
62 98 156
60 95 142
62 97 157
62 97 153
62 97 153
61 97 149
61 96 142
62 97 151
60 95 150
61 96 154
60 95 146
61 96 145
61 96 145
60 95 150
59 94 139
60 94 134
61 96 146
61 96 148
61 95 148
60 95 141
60 94 135
61 96 151
59 93 139
60 94 143
58 92 132
59 93 139
59 93 129
82 97 97
111 116 33
117 122 0
115 117 0
97 99 0
100 100 0
101 104 0
113 112 0
103 103 0
102 102 0
89 87 8
89 91 11
95 91 11
93 94 8
102 99 11
95 93 0
91 87 0
91 89 11
88 87 0
96 91 8
89 85 0
87 85 3
99 95 14
93 86 0
79 78 11
88 86 0
85 83 0
105 100 0
92 89 8
106 103 0
104 100 8
97 92 0
103 99 0
111 106 14
108 105 14
104 98 0
108 103 16
100 95 16
101 99 18
115 111 0
108 104 21
119 114 16
108 106 0
105 102 0
114 110 18
105 102 8
107 104 18
111 108 11
119 115 0
126 121 11
120 116 16
111 107 11
122 117 11
116 111 8
119 115 19
115 111 22
109 106 22
119 116 11
116 111 19
120 115 19
131 125 25
119 116 22
126 122 19
115 111 22
117 112 11
125 120 22
121 116 22
127 122 22
121 117 19
121 116 11
121 115 30
117 112 22
116 111 19
115 110 19
113 107 30
113 108 19
114 110 11
116 110 28
117 111 19
124 120 25
119 116 25
116 111 32
118 115 16
123 122 0
124 123 11
127 125 25
134 131 11
131 132 22
126 126 22
134 135 22
140 140 30
128 131 19
134 137 11
140 144 16
141 147 16
143 149 11
145 152 11
144 152 11
145 154 0
154 167 0
151 161 11
155 165 0
152 162 0
159 170 0
156 168 0
154 165 0
161 175 0
156 169 0
158 171 0
158 170 0
158 170 0
160 172 0
166 180 0
160 173 0
163 176 0
164 181 0
158 172 0
162 178 0
164 179 0
161 176 0
161 176 0
162 178 0
164 180 0
160 176 0
159 175 0
164 182 0
159 175 0
171 190 0
168 184 0
165 182 0
164 181 0
165 183 0
165 183 0
166 184 0
167 186 0
169 187 0
167 184 0
169 188 0
202 221 207
204 223 221
204 223 217
207 225 226
209 226 223
207 225 224
203 222 214
208 226 227
201 220 206
206 224 221
204 222 223
208 226 226
204 222 217
202 220 207
208 225 230
201 220 214
205 223 214
202 221 217
203 222 214
204 222 217
203 222 217
205 223 220
199 218 207
203 221 211
204 221 212
202 221 211
204 223 217
202 220 206
207 225 221
201 219 201
199 218 198
201 220 209
203 222 209
197 217 194
201 220 207
196 215 189
196 215 189
200 219 201
194 213 182
202 220 207
202 220 207
203 221 212
205 224 218
197 216 193
202 220 201
196 216 194
196 216 196
197 217 194
198 217 198
201 220 206
197 216 193
200 219 212
193 213 175
199 218 189
203 222 209
201 220 203
199 218 193
202 220 204
200 219 201
198 217 198
203 222 211
203 221 207
198 217 193
204 222 217
203 221 209
204 222 214
202 220 209
204 222 209
206 224 223
204 222 211
203 221 221
201 219 217
197 215 216
189 207 217
179 198 211
186 203 218
174 193 215
165 184 203
170 189 221
142 164 200
157 177 208
157 177 206
156 176 209
141 163 197
131 154 199
117 142 188
125 148 189
119 143 192
125 148 196
113 138 190
104 131 184
112 137 188
100 127 182
96 124 182
92 120 178
89 118 177
72 105 170
89 118 173
82 113 166
73 106 166
71 104 164
75 107 166
74 106 163
75 106 159
70 103 155
69 103 159
75 107 162
68 102 153
71 104 160
69 102 156
68 102 163
64 99 158
69 103 161
62 96 147
63 98 159
61 96 155
62 98 156
61 96 160
61 96 146
61 96 157
60 96 158
60 95 154
61 96 158
63 98 154
61 97 154
60 96 157
62 98 164
61 97 161
61 97 155
61 96 161
61 97 161
61 96 159
61 97 154
60 96 156
61 98 159
60 96 154
61 96 158
60 96 157
60 95 154
61 97 161
61 98 170
61 96 155
61 97 159
61 97 159
61 97 161
60 96 153
62 97 158
61 97 158
61 97 158
61 97 155
61 97 157
62 98 163
62 98 165
61 97 157
61 97 164
62 98 161
61 97 156
62 98 165
60 96 158
61 97 156
61 96 148
62 98 160
62 98 161
61 98 163
62 98 155
61 96 148
62 98 161
62 98 162
62 98 159
61 97 165
62 98 162
62 98 162
62 98 162
61 97 161
62 97 161
62 98 163
62 98 157
61 96 157
61 96 155
60 96 151
61 97 162
62 97 149
61 97 154
61 97 154
62 98 166
62 98 160
62 98 160
62 98 158
62 98 161
61 97 154
61 97 159
62 98 157
61 98 159
62 97 150
61 97 153
63 99 160
63 99 164
61 97 154
61 97 157
61 96 152
62 97 158
61 97 157
62 97 157
62 98 155
61 97 154
62 98 157
63 99 167
62 98 161
62 97 155
62 98 159
61 96 144
61 97 157
62 98 159
61 97 155
61 97 154
61 96 147
61 97 153
61 96 150
62 97 152
62 97 153
61 97 154
60 96 147
62 98 162
61 96 150
62 98 150
61 96 145
62 98 157
62 97 150
61 97 155
61 97 151
61 96 150
62 98 161
62 98 154
61 97 153
62 97 149
60 96 147
61 97 153
61 96 147
62 97 151
60 95 140
63 99 161
61 96 147
60 95 144
60 95 141
60 95 140
62 98 155
62 96 149
62 98 151
60 95 138
60 95 135
60 94 143
61 96 143
62 96 147
60 95 150
60 95 139
60 95 141
60 95 141
60 94 142
60 93 129
61 95 149
61 95 146
60 91 126
98 110 78
108 115 40
119 122 16
115 118 0
105 108 8
112 115 11
91 90 0
103 105 0
90 93 11
108 109 0
104 104 0
107 106 0
100 99 11
94 91 11
85 83 0
95 94 0
96 95 3
91 88 3
86 82 0
85 83 0
89 88 8
85 83 8
93 89 0
92 88 3
94 92 0
96 92 0
104 99 0
104 98 11
101 97 11
101 96 14
94 90 0
100 96 18
107 100 0
107 102 0
105 101 0
104 100 0
111 107 11
98 95 14
108 102 11
109 104 11
104 100 11
113 108 16
112 108 16
117 114 18
112 109 18
118 112 19
108 104 0
115 111 16
118 112 16
114 110 16
114 108 16
120 116 18
116 111 16
112 108 0
117 113 11
125 120 19
112 110 0
114 110 16
117 113 0
114 108 16
111 106 19
119 114 19
119 114 16
118 113 16
112 105 16
121 115 25
115 112 11
121 116 22
119 114 19
114 109 16
123 118 16
111 108 11
113 107 11
116 110 11
116 110 25
118 114 19
106 102 11
122 117 19
130 126 11
115 110 16
119 116 22
113 109 0
122 120 11
126 123 19
123 122 25
125 125 11
129 133 11
133 135 19
128 130 0
130 132 22
133 136 16
133 135 11
138 142 11
153 158 19
144 152 11
142 148 0
151 160 0
151 159 16
150 157 0
153 161 0
150 161 0
157 166 0
154 166 11
154 166 0
158 173 0
159 172 0
157 172 0
160 174 0
158 170 0
156 170 0
162 175 0
157 169 0
164 180 0
160 173 0
165 180 0
159 173 0
166 182 0
165 181 0
159 176 0
157 173 0
166 180 0
166 182 0
163 180 0
163 180 0
160 176 0
166 181 0
167 184 0
165 181 0
163 181 0
166 183 0
167 183 0
165 181 0
169 188 0
164 182 0
165 185 0
160 176 0
169 186 0
171 189 0
206 224 217
208 226 224
206 224 214
205 223 215
206 224 218
204 222 214
206 224 220
207 225 221
207 225 226
209 226 227
199 218 196
205 223 221
206 224 221
205 224 218
202 221 206
207 225 226
208 225 230
201 220 199
205 223 220
204 222 220
200 218 214
204 222 212
204 222 218
200 219 206
201 219 207
198 218 198
197 216 198
200 219 198
202 221 212
202 221 204
199 217 194
196 216 191
202 220 207
196 215 188
195 215 186
197 217 191
197 216 196
197 216 193
200 219 194
200 219 203
196 215 191
201 220 203
197 216 186
194 213 177
198 217 198
193 213 179
189 210 169
194 214 175
192 212 169
194 214 171
198 217 184
199 217 194
196 216 186
197 216 186
198 218 196
200 219 206
196 216 191
200 219 199
201 219 199
196 215 175
203 221 209
198 217 193
201 219 199
203 221 207
205 222 215
203 222 206
203 221 212
203 221 209
204 223 217
203 220 214
201 219 210
197 216 207
190 209 213
191 209 217
174 193 211
165 184 203
173 192 220
157 178 206
155 175 203
155 176 208
147 169 199
159 179 207
135 157 196
159 179 216
132 154 199
124 148 199
138 160 205
115 140 189
126 149 197
124 147 195
115 141 189
121 145 191
94 122 177
100 127 185
92 120 178
82 113 174
96 123 175
84 115 170
79 110 171
71 104 162
79 110 161
80 111 160
81 111 171
66 100 161
64 99 161
70 104 168
62 96 156
67 101 159
65 100 166
70 103 161
64 99 162
61 97 157
71 103 160
68 101 156
63 98 157
61 97 155
63 99 161
61 97 159
62 98 159
62 98 155
60 95 148
61 96 156
61 96 156
61 97 158
62 97 154
60 96 155
61 97 161
62 98 163
61 96 155
60 96 150
61 96 156
61 96 156
61 97 159
61 96 165
60 96 155
62 98 162
62 98 163
60 96 155
61 97 159
60 96 157
60 95 150
61 97 155
60 95 157
62 98 156
61 98 165
61 97 160
62 98 165
61 97 160
60 96 152
60 96 156
61 97 161
61 98 161
62 98 159
60 96 156
60 97 156
61 96 155
61 97 151
61 98 159
62 98 162
61 97 160
60 96 150
62 98 157
61 97 156
62 98 163
62 98 164
62 98 165
61 97 158
62 98 163
61 97 159
61 97 160
61 97 156
62 98 157
62 99 167
61 97 156
62 98 157
62 98 156
61 96 152
62 98 164
61 97 154
61 97 155
61 97 149
62 98 161
61 98 160
61 97 158
62 98 164
62 98 161
62 98 156
62 98 161
61 96 152
62 98 159
61 97 153
62 98 160
60 96 151
61 97 151
62 97 157
61 97 156
61 98 160
61 97 155
61 97 152
60 96 153
60 96 153
62 98 158
61 97 154
62 98 157
61 97 156
61 97 154
61 97 151
61 97 151
61 96 154
62 97 155
63 98 159
61 96 150
62 97 151
61 97 152
62 98 154
61 97 156
61 97 157
61 96 151
62 97 153
62 98 160
61 96 149
61 97 153
61 97 152
61 97 151
61 96 148
62 98 158
61 96 151
61 97 153
62 97 151
62 97 150
61 96 145
61 96 143
61 97 152
61 97 153
61 96 147
60 95 139
61 97 148
61 96 145
60 96 143
61 96 148
61 96 150
61 96 151
60 96 142
61 96 149
62 97 147
61 96 147
61 96 143
61 96 146
61 96 148
62 97 150
62 97 153
60 95 136
60 95 144
60 95 139
59 93 138
59 94 140
60 95 141
59 93 128
60 94 141
59 92 132
60 93 139
61 92 125
100 113 90
112 119 25
105 109 0
116 118 0
91 96 0
105 110 0
108 111 0
98 101 0
100 102 0
116 117 0
99 100 11
95 94 0
105 103 11
92 91 0
92 90 0
96 91 0
85 83 0
91 91 0
101 98 0
101 96 0
90 85 0
102 98 0
89 85 0
91 86 8
90 86 8
96 95 3
98 93 0
88 82 0
89 86 3
90 87 0
106 101 0
97 94 0
104 99 0
102 97 0
89 85 11
106 99 11
98 92 0
103 100 18
103 100 8
109 104 0
111 107 0
97 94 0
111 108 11
112 108 16
111 106 16
113 106 11
106 101 0
117 112 16
103 98 0
108 103 11
105 101 8
112 106 0
103 100 0
115 111 11
117 110 11
109 104 16
115 109 19
110 105 16
127 122 19
109 105 11
120 115 25
108 102 11
113 110 11
116 111 16
110 105 16
117 113 16
113 109 22
119 114 16
120 114 11
116 111 16
114 110 22
118 113 22
119 114 22
113 108 16
117 112 19
116 112 25
123 118 16
119 114 0
115 111 19
128 126 16
123 121 19
128 126 22
115 112 16
131 131 19
131 132 25
127 125 0
140 143 19
130 129 16
138 139 16
137 140 16
131 133 16
127 132 11
143 152 11
144 149 16
142 149 16
141 149 0
148 157 11
156 165 16
150 160 0
149 157 0
153 163 0
159 172 0
154 163 0
157 166 0
155 166 0
159 171 0
156 171 0
161 173 0
163 178 0
158 170 0
160 174 0
157 168 0
161 174 0
165 181 0
158 171 0
165 181 0
157 172 0
160 174 0
165 179 0
162 177 0
160 176 0
160 176 0
159 175 0
163 180 0
165 183 0
162 176 0
162 178 0
164 181 0
165 181 0
167 187 0
166 184 0
162 179 0
166 185 0
167 185 0
163 180 0
167 185 0
164 182 0
168 186 0
207 225 223
207 224 218
204 222 215
207 225 223
202 220 206
211 227 230
207 224 218
203 221 214
209 226 227
206 224 218
203 222 212
205 223 214
202 221 211
202 221 207
205 223 220
200 219 207
203 221 214
203 221 214
201 219 206
200 219 206
201 219 207
204 222 217
203 222 215
202 221 211
195 215 186
196 216 191
197 216 191
199 218 194
196 215 184
199 219 196
195 215 181
193 213 177
196 215 184
195 215 184
195 215 182
196 215 184
194 214 179
193 214 171
196 216 196
196 216 188
188 209 165
194 214 181
194 214 173
192 212 171
196 215 186
190 211 171
188 209 157
193 214 171
193 213 177
193 213 173
192 213 169
190 210 171
200 219 198
194 214 175
197 216 186
194 214 184
190 210 167
195 214 177
195 215 181
197 216 191
197 217 188
197 216 198
198 217 188
197 216 193
199 218 194
199 218 206
200 219 199
198 216 189
202 220 206
198 216 202
194 212 203
190 209 202
195 212 217
185 204 219
174 192 211
169 189 216
171 190 217
161 181 211
160 179 207
159 179 213
143 165 195
144 165 207
150 172 207
142 164 203
121 145 194
122 146 197
123 147 193
136 159 203
131 154 199
132 154 197
117 141 197
106 132 185
126 149 189
107 133 188
105 131 183
98 125 185
91 119 173
73 105 165
87 116 171
72 106 174
81 112 173
63 99 163
75 107 172
74 106 173
66 101 163
77 109 165
71 104 163
66 100 163
72 104 158
67 101 156
67 101 162
64 99 161
65 100 159
60 95 152
64 99 160
63 97 155
64 99 159
59 95 151
64 99 154
63 99 164
59 95 149
63 98 163
61 97 157
60 96 158
62 98 162
61 97 160
61 97 164
61 97 154
60 96 159
60 96 157
61 97 158
60 96 157
61 97 163
61 97 157
60 95 149
60 96 159
61 97 160
61 97 153
60 96 157
61 97 163
60 95 155
61 96 158
60 96 157
60 96 151
62 97 156
60 96 157
60 95 148
61 97 160
61 97 157
61 97 159
60 96 160
62 98 161
60 96 158
61 97 157
61 97 153
60 96 155
61 96 154
61 97 158
61 96 154
62 98 161
61 97 159
61 97 155
61 98 159
62 97 156
61 97 165
61 97 151
61 97 158
61 97 155
61 97 150
61 96 157
62 98 158
61 97 155
61 97 158
61 97 160
61 97 158
62 98 160
61 97 159
62 98 162
62 97 151
61 97 152
60 95 148
61 97 157
62 98 160
62 98 159
62 97 148
61 97 154
62 98 156
62 98 158
62 98 158
61 97 153
62 97 153
62 98 162
61 97 153
62 97 158
61 97 147
62 98 156
61 97 159
61 97 154
62 98 155
62 97 153
62 97 155
60 96 149
61 97 156
61 96 154
62 98 161
61 97 155
62 98 155
61 96 150
62 98 161
62 98 159
63 98 160
60 96 145
61 97 150
61 96 147
62 97 154
61 97 151
62 97 159
62 98 160
61 96 149
61 96 151
62 98 159
62 97 158
61 97 157
61 96 153
62 98 155
62 97 156
61 97 149
61 96 147
61 96 142
61 97 160
60 95 141
62 98 152
62 97 154
61 96 141
60 94 141
61 96 145
61 96 149
61 96 148
61 96 141
61 96 142
60 95 145
62 98 156
61 97 143
61 96 149
62 97 147
62 97 147
61 95 147
60 94 134
61 95 142
59 92 134
60 95 132
59 94 132
60 95 137
61 95 141
62 97 155
59 92 135
59 93 126
59 93 132
59 93 137
59 92 128
60 93 137
71 96 119
104 113 60
109 113 21
113 118 0
116 119 0
110 114 0
113 117 0
116 119 11
102 102 0
102 105 11
107 110 0
107 106 0
104 105 0
107 107 0
101 102 0
98 94 0
89 86 0
94 92 0
91 89 0
98 97 0
99 98 0
89 85 0
94 91 0
99 92 14
102 95 0
88 85 0
103 100 0
74 73 0
91 88 8
93 88 0
89 87 0
96 93 0
82 82 0
101 95 0
97 92 8
90 87 0
99 94 0
98 95 0
106 101 8
108 104 11
114 109 0
109 106 18
111 107 0
110 106 11
99 96 11
114 108 11
110 107 0
109 105 0
101 99 0
117 111 0
112 107 16
110 107 22
112 107 11
117 112 19
117 112 0
125 121 0
107 102 11
108 105 0
113 108 16
108 104 16
115 109 11
120 114 22
111 107 11
118 112 25
109 104 11
105 101 19
118 111 22
110 104 16
122 116 19
120 116 16
124 118 22
115 108 25
115 110 16
114 111 0
115 110 11
119 116 11
119 116 19
134 130 19
134 132 11
125 123 0
124 121 22
119 117 11
130 130 19
128 128 11
135 133 19
134 136 11
134 135 16
124 127 16
125 128 16
137 142 0
133 136 11
139 143 11
136 141 11
142 150 0
145 155 16
153 159 11
149 158 16
151 159 0
152 160 0
152 162 0
152 163 0
152 163 0
155 164 0
159 170 0
162 173 0
155 166 0
164 179 0
155 167 0
158 170 0
160 174 0
156 169 0
155 168 0
154 165 0
160 173 0
162 179 0
168 184 0
163 177 0
161 176 0
165 180 0
158 172 0
164 180 0
164 180 0
162 176 0
159 175 0
158 173 0
164 181 0
164 177 0
167 184 0
164 181 0
168 185 0
167 187 0
162 178 0
164 183 0
161 177 0
164 182 0
165 184 0
162 180 0
169 189 0
167 186 0
206 224 223
206 224 218
209 227 233
208 225 223
208 226 228
206 224 220
205 224 220
202 220 209
204 223 217
206 224 218
204 222 211
203 221 211
206 224 220
205 223 215
203 220 211
203 221 209
201 220 203
201 220 204
201 219 206
201 219 198
203 221 212
194 213 182
194 214 188
197 217 193
195 215 179
192 212 173
191 211 169
191 212 167
194 214 171
193 213 177
195 215 181
194 214 175
196 215 181
190 210 167
190 210 165
193 213 181
193 213 171
193 213 177
186 208 153
190 211 163
189 210 161
190 211 161
190 211 157
191 211 159
188 209 165
193 213 171
193 211 169
190 211 171
190 211 159
192 213 169
188 208 157
190 211 155
191 212 167
191 212 161
192 212 173
194 213 169
188 209 161
192 212 165
194 214 177
194 213 177
194 214 175
194 214 181
198 218 193
195 214 181
196 215 186
195 215 189
194 213 177
198 217 197
193 212 178
193 212 196
185 205 182
189 207 199
190 208 214
177 196 211
170 190 203
172 191 217
147 168 198
164 183 211
157 177 207
152 173 201
151 171 207
144 165 205
127 151 195
128 151 197
127 150 194
134 157 201
130 153 195
116 141 194
116 141 191
98 125 181
117 141 189
104 130 190
118 142 188
117 142 193
103 129 185
106 132 188
100 126 176
105 132 190
98 125 179
82 113 174
76 108 167
77 108 163
73 106 166
68 102 165
73 106 159
70 103 167
74 105 166
75 107 155
71 104 156
74 107 165
63 99 161
67 101 160
68 101 160
69 102 156
64 99 154
62 97 159
60 95 150
62 97 159
61 97 159
61 97 155
65 100 155
61 96 151
59 94 150
64 99 160
60 95 152
60 96 159
60 95 156
60 96 159
61 96 159
60 96 151
60 96 155
62 97 160
60 95 153
61 97 158
60 96 161
61 97 158
61 96 151
61 97 154
61 97 164
60 96 156
60 96 156
61 97 155
62 98 162
60 96 156
59 95 155
62 98 161
61 97 160
60 96 151
62 98 164
61 97 156
61 97 155
61 98 163
62 98 165
62 98 167
61 97 158
62 98 169
61 97 163
62 98 165
61 97 154
61 97 155
62 98 163
62 98 164
62 98 159
61 97 153
62 98 160
62 98 164
61 97 158
62 97 155
62 98 165
61 96 147
62 98 161
60 96 151
62 98 159
63 99 164
60 96 145
62 98 164
61 97 156
62 98 163
61 97 157
61 97 157
61 97 157
62 98 160
62 98 157
62 98 159
60 96 151
61 97 156
62 98 160
61 97 150
62 98 160
62 98 159
62 98 158
61 97 150
61 97 158
62 97 154
62 98 158
61 97 156
61 97 154
62 97 152
62 97 155
62 97 152
62 98 160
62 98 162
62 98 156
62 98 158
61 96 149
62 98 158
61 97 155
61 97 154
62 98 157
62 97 158
61 96 147
61 96 147
62 98 155
61 97 156
62 98 158
59 95 149
62 98 153
62 97 154
62 98 157
62 98 160
61 96 152
61 97 152
61 97 149
60 95 144
61 97 150
61 96 152
61 96 148
61 96 150
62 98 154
62 97 156
61 97 155
62 98 158
61 97 154
60 95 135
61 96 137
61 96 144
60 96 137
61 97 145
62 97 155
61 96 152
61 96 148
60 95 140
61 96 143
63 98 149
61 97 148
61 97 148
60 95 145
61 96 147
61 97 152
60 95 143
60 94 129
60 95 143
59 93 141
59 93 138
59 93 126
60 94 134
59 93 134
60 94 128
59 93 129
58 91 126
58 91 132
77 99 96
104 113 36
118 122 0
115 120 0
116 118 0
110 115 0
102 103 0
111 112 0
101 105 11
96 99 0
111 113 0
102 101 0
97 96 8
108 108 0
95 92 0
88 86 8
108 109 0
97 95 0
109 109 8
94 93 11
92 89 0
98 97 0
96 94 0
98 96 0
96 96 0
91 89 0
90 87 0
92 89 0
99 96 0
105 101 0
102 98 0
98 94 0
109 105 0
103 98 3
91 86 0
93 89 0
102 99 0
97 94 0
104 100 16
100 95 0
100 97 0
108 104 11
108 104 0
100 95 11
105 99 0
91 88 0
105 100 0
101 97 0
105 101 0
92 87 11
115 111 16
103 100 0
113 106 11
107 103 16
115 111 16
118 113 11
115 111 0
106 101 11
101 96 11
108 102 16
110 105 0
105 101 11
114 109 16
109 104 0
107 104 16
108 103 11
114 108 0
113 107 19
117 112 11
125 118 19
103 98 11
113 111 0
118 112 16
113 109 16
116 111 11
123 118 16
122 118 19
120 116 16
126 123 11
127 124 16
124 127 11
118 118 11
126 126 19
119 117 16
124 125 16
126 127 16
127 129 0
133 135 0
124 128 0
137 140 16
134 135 0
137 142 16
143 148 0
147 153 0
137 141 0
137 144 0
153 162 0
153 164 0
152 162 0
155 167 0
150 161 0
156 169 0
158 171 0
159 169 0
153 162 0
162 172 0
158 172 0
161 173 0
157 170 0
155 168 0
156 170 0
162 175 0
161 175 0
154 167 0
158 171 0
161 176 0
163 179 0
162 177 0
163 179 0
165 181 0
168 186 0
163 179 0
157 171 0
162 177 0
165 183 0
166 183 0
165 182 0
167 183 0
165 183 0
164 181 0
165 183 0
164 181 0
164 182 0
165 183 0
168 187 0
168 185 0
164 182 0
165 184 0
166 184 0
206 224 220
210 227 231
206 224 221
207 225 221
206 224 218
207 225 224
206 224 218
202 221 207
205 223 220
205 222 214
205 223 221
208 226 226
201 220 209
203 222 207
202 221 206
198 217 193
197 217 196
201 220 207
202 220 203
193 213 182
198 218 199
197 216 186
197 216 186
198 217 196
193 214 177
192 213 186
192 213 173
189 210 159
193 213 167
192 212 165
193 213 169
193 212 171
187 208 155
188 209 159
189 210 159
185 206 149
187 208 149
185 207 144
184 206 142
184 205 144
185 206 133
187 208 147
192 213 169
185 207 137
187 209 149
189 210 153
186 208 151
189 210 151
182 205 137
192 212 165
187 208 149
190 210 155
190 211 157
187 209 149
184 205 135
191 211 169
190 210 161
189 210 163
191 211 171
192 211 171
191 211 163
194 214 177
190 211 161
188 209 159
193 213 181
191 211 165
189 209 165
192 212 177
190 209 178
189 208 192
187 206 204
181 200 184
183 202 205
175 195 208
166 186 199
164 184 205
153 173 203
136 158 192
161 181 199
153 174 205
149 170 204
148 169 199
145 166 199
117 142 192
127 150 199
129 152 197
118 143 194
123 147 191
125 149 196
118 143 194
134 156 197
114 140 194
114 139 192
101 128 179
101 128 184
94 122 182
97 124 179
95 123 177
90 118 176
89 118 183
79 110 171
81 112 173
68 102 165
72 105 160
62 99 169
72 104 161
72 105 167
78 110 167
76 108 163
78 110 162
72 105 156
73 105 154
65 99 155
66 100 165
68 100 158
63 98 159
60 96 159
61 97 159
66 99 152
64 99 155
60 96 155
61 97 156
60 95 148
66 100 158
61 97 158
60 95 153
60 95 157
61 97 164
61 97 162
60 95 148
61 97 164
61 97 157
61 97 156
62 98 163
61 97 158
61 96 156
60 95 156
62 98 161
61 97 159
61 97 153
62 98 166
62 98 163
61 97 152
61 97 153
61 97 161
62 98 164
59 95 144
61 98 162
61 96 152
60 96 154
60 95 152
61 97 158
62 98 158
61 97 157
60 96 156
62 97 157
61 97 158
61 96 157
61 97 161
61 97 154
60 96 153
62 98 167
62 97 153
62 98 159
61 97 153
60 95 147
61 97 155
61 97 159
61 97 156
61 97 157
61 97 159
62 98 160
62 98 161
62 97 159
61 97 150
61 97 156
61 96 147
62 98 157
62 98 161
61 97 152
61 97 161
62 98 161
61 97 155
61 97 151
61 97 153
61 97 153
62 98 160
61 97 157
62 98 163
60 96 147
61 97 156
60 96 151
61 97 156
62 98 163
61 97 152
60 96 149
60 96 152
61 97 160
62 98 160
61 97 155
61 97 154
61 97 149
62 97 155
62 98 159
61 97 156
62 98 159
61 97 151
61 96 149
61 97 156
61 97 153
61 97 150
61 97 152
61 97 155
62 97 154
61 97 156
61 97 151
61 96 142
61 96 151
61 97 151
62 98 156
62 98 159
62 98 160
62 98 156
61 96 145
62 98 159
61 97 151
59 94 134
62 97 152
61 96 152
61 96 143
60 95 148
61 96 142
61 96 150
62 97 150
61 96 148
61 96 144
62 98 156
61 97 150
61 96 152
62 98 154
61 97 150
60 95 137
61 96 147
61 96 144
60 95 142
61 95 144
60 95 139
61 96 143
60 95 142
60 95 141
60 95 141
61 96 144
60 95 140
60 94 143
59 92 130
59 94 134
58 92 131
60 94 139
59 92 134
59 93 133
63 93 122
87 100 77
120 128 8
95 102 0
123 130 0
116 121 0
105 108 0
109 114 0
114 118 0
103 104 0
100 101 0
99 100 0
108 112 3
111 113 0
109 112 0
99 100 0
93 92 3
96 95 0
99 101 0
96 96 0
97 96 0
98 95 0
96 97 11
94 89 0
91 88 0
99 97 8
97 92 0
102 102 0
93 91 0
97 92 0
102 96 0
107 102 0
105 101 0
100 98 0
91 86 0
95 90 0
92 89 0
99 94 0
96 91 0
106 101 0
97 93 0
114 110 0
107 101 0
104 99 0
102 95 0
107 103 11
101 96 11
103 100 11
112 109 0
95 91 0
112 106 11
106 103 8
110 105 0
110 104 16
111 107 11
108 103 11
109 103 11
108 102 0
105 102 11
111 108 16
112 107 0
111 104 16
111 106 11
114 108 11
116 109 22
112 106 11
118 114 11
118 112 11
111 107 16
120 116 0
115 112 0
116 115 0
130 126 22
122 118 11
104 103 0
120 118 16
122 120 0
126 126 16
125 125 0
123 119 11
134 131 11
124 124 0
133 131 19
122 121 11
131 136 19
134 136 0
129 132 11
132 136 11
140 143 0
144 151 11
141 141 0
149 157 0
139 142 11
142 148 0
148 156 11
150 156 11
156 166 0
149 156 0
152 159 0
145 154 0
154 164 0
159 168 0
150 158 0
152 163 0
155 165 0
161 170 0
157 171 0
160 173 0
154 168 0
160 174 0
156 168 0
164 178 0
157 168 0
166 181 0
160 173 0
160 173 0
156 171 0
159 173 0
163 177 0
158 172 0
163 177 0
160 175 0
164 179 0
159 175 0
159 172 0
165 180 0
162 179 0
165 181 0
164 178 0
166 184 0
162 180 0
167 185 0
166 182 0
169 186 0
168 185 0
168 187 0
165 182 0
160 175 0
164 181 0
163 180 0
203 221 211
205 223 215
206 224 218
205 223 212
207 225 221
204 223 221
205 223 215
201 220 206
204 222 211
201 220 207
203 221 214
198 217 194
201 219 199
196 215 189
198 217 189
197 216 186
198 217 188
194 214 177
193 213 179
195 214 177
191 211 173
195 215 179
194 214 169
191 211 163
190 211 165
189 209 161
188 209 155
192 213 173
188 209 147
187 209 159
189 210 153
185 206 140
188 209 159
184 205 137
182 204 140
187 208 147
186 207 151
187 208 155
187 209 147
182 203 130
182 204 135
184 206 142
183 205 128
184 205 140
184 205 135
186 208 149
184 205 142
187 208 155
185 207 147
181 203 137
181 202 122
181 203 130
188 208 147
184 206 149
181 203 120
185 206 151
187 209 159
184 206 147
186 207 142
187 209 159
185 206 147
189 209 153
184 205 142
187 209 155
187 207 149
190 210 161
193 213 171
191 211 183
189 209 169
183 204 176
172 193 166
170 190 180
171 191 194
167 187 194
152 173 200
157 177 200
146 167 197
145 168 189
150 171 194
129 152 188
143 165 195
141 162 199
137 159 193
135 157 194
136 158 199
133 155 192
121 145 193
113 138 188
103 130 181
131 155 201
111 136 186
116 141 188
108 134 189
104 131 185
94 122 181
104 131 186
101 128 183
91 119 173
88 117 174
91 120 175
91 120 180
77 109 175
73 106 171
80 111 166
63 98 159
76 108 168
69 103 170
64 100 170
70 104 169
65 100 165
65 100 162
64 99 161
60 96 150
69 102 161
68 101 154
65 99 159
67 101 162
60 96 153
63 99 157
59 95 152
62 98 163
62 97 158
60 96 150
63 98 159
62 98 159
60 96 157
60 96 151
65 99 151
60 95 156
61 96 146
60 96 155
61 97 159
61 97 160
62 97 158
60 95 149
61 96 158
60 95 148
60 96 154
62 98 165
61 97 155
62 98 164
61 97 157
60 96 153
60 96 150
60 96 155
60 95 149
60 96 160
61 98 162
60 95 155
61 97 157
62 98 158
61 97 157
61 97 161
61 97 159
61 97 157
60 96 154
61 97 161
59 95 152
61 97 158
60 96 153
61 97 158
62 98 159
62 97 157
61 97 160
61 96 152
62 98 157
61 97 155
61 97 148
61 97 154
62 98 161
62 98 157
62 98 158
62 98 159
61 97 157
61 97 154
62 98 159
61 97 152
61 97 157
62 98 158
62 97 157
61 97 151
61 97 159
60 95 144
62 98 161
61 97 159
62 98 155
61 97 150
61 96 152
62 98 156
62 97 158
61 96 151
62 98 160
61 97 151
61 97 154
62 98 161
62 98 160
61 97 157
61 97 153
62 98 162
61 96 150
61 97 154
61 97 155
61 97 161
61 97 157
62 98 162
63 99 167
62 98 161
62 98 152
62 98 159
61 97 152
61 97 151
61 97 150
62 98 157
61 97 154
62 97 150
61 97 152
61 97 155
62 97 156
62 98 158
61 97 156
61 96 150
61 96 145
61 96 147
61 97 154
61 97 145
62 97 152
61 96 149
62 97 152
61 97 152
61 96 149
61 97 153
61 96 153
61 96 145
61 97 149
61 96 153
62 97 154
61 96 149
60 96 142
61 97 148
62 97 151
61 96 143
61 95 143
61 96 151
61 96 143
59 93 140
61 95 140
61 96 152
60 94 142
60 94 139
59 93 132
61 96 144
59 94 131
61 96 145
60 94 131
59 92 128
60 94 134
58 91 128
57 90 126
59 93 125
58 90 126
62 92 122
104 115 57
114 119 19
120 124 0
108 111 0
123 129 0
108 112 0
107 111 0
105 109 0
118 122 0
90 91 0
109 112 0
103 105 0
96 97 11
104 108 0
96 97 0
113 114 0
105 107 0
110 109 0
87 87 0
93 89 11
87 87 0
102 103 0
99 94 0
104 102 0
96 93 0
91 87 0
96 93 0
85 84 0
84 82 8
109 106 0
93 88 0
96 92 0
86 82 8
97 93 0
90 86 0
90 88 0
102 97 0
101 98 11
104 98 0
97 92 0
95 90 0
109 106 0
100 97 0
109 103 0
101 96 0
104 98 0
102 97 0
113 106 0
86 82 0
103 100 0
112 107 0
103 99 0
113 108 11
100 96 0
115 110 11
121 116 11
106 101 16
109 102 16
105 99 0
109 104 0
109 103 0
119 112 19
108 103 16
117 112 16
114 108 19
115 110 0
129 125 16
117 114 11
120 117 11
124 121 19
121 118 11
123 118 11
113 108 11
111 111 11
127 127 19
124 123 16
131 131 16
121 121 11
134 134 11
123 122 11
129 130 11
129 128 0
130 128 11
131 135 16
133 137 0
134 136 11
136 137 11
134 138 11
144 149 0
143 149 16
138 145 0
144 152 11
145 150 11
151 157 0
147 156 0
146 152 0
156 165 0
156 163 0
160 168 0
157 169 0
152 163 0
159 170 0
157 169 0
154 167 0
158 171 0
151 162 0
160 173 0
156 166 0
162 175 0
156 169 0
160 173 0
158 169 0
160 175 0
159 170 0
161 176 0
160 175 0
164 182 0
162 178 0
162 179 0
157 171 0
163 179 0
162 177 0
163 179 0
163 179 0
160 174 0
162 177 0
159 174 0
164 181 0
164 179 0
162 179 0
168 186 0
161 177 0
167 185 0
167 185 0
163 179 0
167 186 0
164 181 0
162 180 0
168 188 0
203 222 212
206 224 218
204 222 211
205 223 211
204 222 217
204 222 214
201 220 204
196 215 188
198 217 199
198 217 196
194 213 188
198 217 194
201 220 204
201 220 201
202 220 203
193 213 184
194 213 177
195 214 189
197 216 188
193 213 173
189 210 163
189 210 161
192 212 169
190 211 163
191 211 167
186 207 135
181 204 114
189 210 161
183 206 135
186 208 151
185 207 147
183 205 144
182 203 122
182 204 137
182 205 144
186 207 135
184 205 122
182 204 130
183 205 133
185 206 133
179 202 105
183 204 128
177 200 102
180 202 117
184 205 128
182 204 122
182 204 111
176 199 95
177 200 102
185 206 133
181 202 125
182 204 120
181 202 125
183 206 133
185 206 140
179 202 125
186 207 130
187 208 142
183 204 125
185 206 144
186 207 140
188 208 151
185 207 149
184 207 147
181 202 133
185 206 147
184 205 142
186 207 168
176 197 145
186 207 161
176 196 172
173 193 176
161 181 179
162 182 190
149 170 191
147 168 185
148 169 187
146 168 196
137 159 190
130 153 181
133 156 190
111 137 187
135 157 184
132 155 194
125 149 190
129 153 191
122 146 194
124 148 189
118 142 185
115 139 191
105 131 181
104 130 183
113 138 193
99 126 188
94 123 180
99 127 184
94 123 181
104 130 186
84 115 182
89 118 174
86 116 166
88 118 180
83 113 168
82 113 174
74 106 170
65 100 168
67 101 159
74 106 160
73 106 161
70 103 161
60 96 151
69 102 161
65 99 161
65 100 160
66 100 151
69 103 166
67 101 154
69 103 157
64 98 154
62 97 155
61 97 160
60 95 152
61 96 159
60 96 155
65 100 158
60 95 147
60 96 155
61 96 163
60 95 151
61 97 155
63 98 153
60 96 156
60 96 153
60 96 149
61 97 158
60 96 155
61 96 156
60 96 159
61 96 154
61 96 155
61 97 157
62 98 162
61 97 150
61 97 156
61 97 157
62 97 158
61 97 162
61 96 151
60 96 154
62 98 157
62 97 162
61 97 157
61 97 158
61 97 160
61 96 149
61 97 149
62 98 161
62 97 158
61 97 160
61 97 157
61 97 158
61 97 156
61 97 162
60 96 149
62 98 163
62 98 161
62 97 156
60 96 154
60 96 140
61 97 158
61 97 154
61 97 153
62 97 153
60 96 147
62 98 159
63 99 163
62 97 152
61 96 152
61 97 156
61 97 154
60 96 152
62 98 157
62 98 156
61 97 150
60 96 161
61 96 155
61 96 145
62 98 160
60 96 151
62 98 157
61 97 154
61 97 153
62 97 155
60 96 145
60 96 144
62 98 163
62 98 158
62 98 164
61 97 151
60 96 151
63 98 157
61 97 155
62 98 161
62 98 159
60 96 145
61 97 154
62 97 155
62 97 152
61 97 150
62 97 151
61 97 149
62 97 154
61 97 154
60 95 137
61 97 153
61 97 149
61 97 155
60 96 145
61 97 152
61 96 150
60 96 149
60 96 148
61 97 150
62 97 158
61 97 155
60 95 145
60 96 145
61 97 152
61 96 151
60 96 154
62 97 149
62 97 150
61 96 142
61 96 149
61 97 149
61 96 144
60 95 144
61 97 151
61 96 142
59 93 131
61 96 151
61 97 148
61 96 150
61 95 143
60 95 140
60 96 143
61 96 149
59 94 142
60 95 139
59 93 138
60 95 140
60 95 140
60 94 131
59 94 136
60 94 139
57 89 127
58 91 118
58 92 133
59 92 132
58 91 127
72 94 109
105 116 62
114 119 0
113 117 0
114 121 0
104 110 0
114 115 0
113 118 0
107 112 0
104 107 0
111 114 0
111 117 11
112 113 0
97 99 0
108 110 0
106 108 0
92 95 0
107 108 0
99 100 8
97 97 0
100 99 11
87 83 0
91 90 0
97 95 0
106 106 0
84 80 0
101 99 0
96 94 0
108 104 0
92 90 11
94 93 0
95 92 8
94 88 0
90 83 0
91 87 0
101 97 0
94 90 0
97 95 0
101 95 8
94 87 0
95 92 11
96 94 8
92 88 11
111 109 0
103 99 0
110 104 0
101 95 0
101 95 0
103 98 0
93 88 0
111 106 0
109 104 0
107 100 0
106 100 0
110 105 0
104 99 0
102 100 0
105 100 11
110 105 0
118 113 11
103 99 0
107 101 0
107 99 11
118 112 0
117 113 19
115 110 11
117 112 11
115 111 16
115 111 11
111 110 11
111 104 16
114 112 11
112 110 0
118 112 0
128 128 16
126 125 16
128 125 0
125 124 11
121 119 11
138 144 11
122 122 11
123 122 0
131 131 11
133 135 16
127 127 16
129 131 0
136 141 11
133 136 0
138 143 0
148 152 0
142 146 19
147 155 0
154 162 0
149 160 0
148 156 0
151 160 0
151 158 0
158 170 0
151 159 0
150 159 0
158 168 0
156 166 0
159 171 0
148 157 0
159 171 0
157 168 0
160 172 0
161 175 0
142 152 0
152 162 0
160 175 0
159 172 0
157 172 0
161 176 0
157 171 0
159 175 0
159 173 0
164 178 0
163 175 0
159 175 0
164 179 0
161 178 0
161 174 0
165 180 0
160 176 0
162 179 0
166 182 0
158 173 0
163 178 0
164 182 0
163 178 0
164 182 0
162 181 0
165 183 0
166 182 0
165 183 0
165 182 0
163 180 0
167 183 0
164 180 0
204 222 209
205 223 217
204 222 215
204 222 209
204 222 215
200 219 203
202 221 203
198 217 199
199 218 194
198 217 193
198 217 199
194 214 173
194 214 175
193 212 177
196 216 188
197 216 182
186 207 153
190 211 161
188 209 151
190 211 169
188 210 151
186 207 153
188 210 157
181 202 140
186 208 140
187 208 151
190 210 151
181 203 117
186 207 128
184 205 140
185 207 140
182 204 122
177 200 99
180 202 99
177 200 111
181 204 120
183 204 125
184 205 128
180 202 111
180 202 102
178 201 99
178 200 102
178 200 111
179 201 114
179 202 105
181 203 122
181 203 108
180 203 102
176 199 92
179 202 111
181 203 108
181 202 114
184 206 135
179 202 108
180 202 114
180 201 122
182 204 128
175 199 108
178 200 108
183 206 125
180 202 108
183 205 130
181 203 125
182 205 135
181 203 135
182 203 140
182 203 131
177 200 137
181 203 150
170 193 142
174 196 160
162 183 163
150 172 178
142 165 179
158 178 192
137 159 186
134 156 189
148 170 200
137 159 188
134 157 186
134 157 192
124 148 181
136 158 199
127 150 188
122 147 192
128 151 193
123 147 190
111 138 181
108 134 180
113 138 179
116 141 189
102 129 181
111 137 193
99 126 185
97 125 184
94 122 177
99 126 181
88 117 176
79 110 175
93 121 179
90 119 181
76 108 168
85 115 179
74 106 168
76 108 170
75 107 170
74 106 168
67 102 169
77 109 168
63 97 163
63 98 153
68 102 164
73 106 158
64 99 158
61 97 162
66 101 163
60 95 151
68 102 163
61 95 149
60 95 150
60 96 153
63 98 155
61 97 159
59 95 149
60 95 147
62 96 145
60 95 149
62 97 153
59 95 150
61 96 155
61 97 160
59 95 148
61 97 159
60 95 152
61 97 155
59 94 151
60 96 153
60 95 150
59 95 150
60 96 151
61 97 156
60 96 152
60 95 149
61 96 151
61 96 157
62 98 161
62 98 164
62 98 160
60 95 151
62 98 160
60 96 152
61 97 157
61 97 152
61 96 151
61 97 156
60 96 153
61 97 156
60 96 151
61 97 154
62 98 158
61 97 152
62 98 156
60 96 154
60 96 148
61 96 148
60 96 156
61 96 157
61 97 151
61 97 153
61 96 156
62 97 148
61 97 157
61 97 155
62 98 163
62 97 155
61 96 153
62 98 154
61 97 158
62 98 163
62 98 156
62 98 159
62 98 159
62 98 157
62 98 162
62 98 155
61 96 142
61 97 157
62 98 162
62 98 156
62 98 157
60 96 152
62 98 159
62 98 161
60 96 155
60 96 143
61 97 154
62 98 159
62 98 156
61 96 148
62 98 157
62 98 159
63 98 159
60 95 152
62 98 155
62 98 152
61 97 155
61 97 161
62 98 159
62 98 157
61 97 154
61 97 151
62 98 160
62 98 157
62 98 154
62 98 158
61 97 153
62 97 153
61 96 148
62 97 155
62 98 153
62 97 155
61 97 153
61 97 151
61 97 151
62 98 158
61 96 148
62 97 147
61 96 147
61 96 156
60 96 144
61 96 149
60 96 147
61 97 152
61 97 147
61 96 142
60 96 147
59 94 141
61 97 149
62 98 157
61 96 140
61 96 150
60 95 148
61 96 148
60 95 139
61 96 142
60 95 145
60 94 139
60 94 135
60 95 141
59 94 138
61 96 142
60 94 138
59 93 135
61 96 139
59 93 127
60 94 136
60 94 133
62 96 143
58 91 121
58 91 119
78 97 89
102 109 40
131 141 0
116 122 0
120 129 0
97 100 0
110 114 0
119 124 0
111 116 0
115 118 0
99 101 0
112 115 0
101 105 0
113 118 0
109 112 0
98 101 0
92 91 0
95 97 0
95 92 0
91 91 0
94 91 0
101 99 0
105 104 0
101 103 0
96 95 0
90 87 0
96 95 11
95 96 0
90 89 0
104 100 0
101 98 8
105 105 0
98 95 0
90 87 0
97 96 0
106 103 0
96 94 0
100 98 0
100 97 0
98 93 8
112 109 0
108 104 0
93 87 0
92 88 0
97 91 0
108 105 0
102 99 0
109 107 0
105 99 0
99 94 0
110 103 0
98 95 0
109 106 0
108 105 0
102 96 0
102 96 0
104 101 0
103 97 0
102 96 11
106 103 0
112 109 0
109 105 0
117 113 0
110 109 0
114 111 0
124 119 16
110 103 11
117 115 0
119 118 16
123 120 16
126 128 11
129 126 0
125 124 19
121 119 0
129 130 0
132 132 11
129 129 19
132 129 11
122 124 11
131 129 11
128 131 0
127 127 11
127 126 0
127 129 0
138 145 11
149 154 11
137 140 0
140 147 0
140 145 0
146 152 0
146 154 0
148 157 0
150 155 11
152 163 0
154 161 0
153 163 0
149 159 0
150 159 0
145 155 0
155 165 0
154 164 0
156 167 0
152 160 0
153 163 0
161 172 0
159 171 0
152 163 0
161 176 0
153 164 0
160 174 0
159 171 0
157 170 0
156 172 0
162 177 0
165 180 0
163 177 0
164 177 0
159 176 0
162 174 0
158 171 0
161 177 0
161 176 0
162 180 0
157 172 0
161 179 0
162 178 0
161 178 0
165 182 0
162 178 0
166 184 0
160 177 0
167 185 0
166 182 0
161 179 0
161 176 0
167 186 0
166 184 0
162 180 0
163 181 0
163 181 0
204 223 212
202 220 204
200 218 198
199 218 193
201 220 203
202 221 206
196 216 188
196 215 188
193 213 169
198 217 193
193 213 171
195 214 182
194 214 175
192 213 173
188 208 163
193 213 177
188 209 159
186 207 151
185 207 144
190 211 153
185 206 140
184 206 130
188 209 142
185 206 147
185 206 135
183 206 140
183 204 133
180 202 128
177 200 111
184 206 133
181 203 122
181 204 111
178 200 99
180 203 117
179 202 105
177 200 95
181 204 130
179 203 102
178 200 108
176 199 84
181 203 111
177 200 102
174 197 84
175 198 80
175 198 95
175 198 80
176 199 76
180 202 95
179 201 99
179 201 92
174 197 80
175 198 80
177 200 95
173 195 99
175 198 99
177 199 95
180 203 114
175 198 92
182 204 108
175 197 76
182 203 128
180 202 111
176 199 108
181 203 122
181 203 122
183 205 122
179 201 131
181 201 156
174 196 140
176 198 145
172 193 160
158 180 167
163 184 172
158 179 191
150 171 186
136 158 181
143 165 186
137 160 180
130 153 175
130 153 186
116 140 181
125 148 186
117 142 183
111 137 182
111 137 178
132 155 193
116 141 185
123 147 181
113 138 185
117 141 184
92 121 176
95 123 181
107 133 175
94 122 181
93 121 178
94 123 177
92 121 172
89 118 180
100 127 185
101 128 184
85 115 178
97 124 177
89 118 179
81 112 168
83 113 171
77 109 174
68 102 169
69 104 167
78 110 167
68 102 167
66 100 152
70 103 164
65 100 167
65 99 160
75 107 162
68 102 159
64 99 158
63 98 158
63 97 154
60 95 155
59 94 147
62 97 154
63 98 149
59 95 150
62 97 150
63 98 156
58 93 145
60 95 154
60 96 154
61 96 154
60 96 157
61 97 159
61 97 159
60 95 148
61 96 151
59 94 143
61 97 151
60 96 157
60 96 157
60 96 150
61 97 154
60 96 148
60 96 155
62 97 161
62 98 166
60 96 158
61 97 158
61 96 152
60 96 147
61 97 159
61 97 154
61 96 158
61 97 154
62 98 161
61 97 150
62 98 160
62 98 161
61 96 153
62 98 160
61 97 152
62 98 158
63 99 164
62 98 158
61 97 160
61 96 152
61 97 155
61 97 160
62 98 161
62 97 148
61 97 151
61 97 154
61 96 152
61 97 154
62 98 158
62 98 156
61 97 154
61 96 148
60 96 144
61 97 155
61 96 154
62 98 158
62 97 153
61 97 155
62 97 157
62 98 155
61 97 150
62 98 157
61 96 152
61 96 154
61 96 149
62 98 159
62 98 163
62 97 154
61 97 150
62 97 156
60 95 142
61 97 156
62 98 155
61 97 159
61 97 155
60 96 145
62 98 157
61 97 149
62 97 151
62 97 154
61 97 154
61 97 153
61 97 155
62 97 152
61 96 153
61 97 152
60 95 143
62 97 154
61 97 151
62 97 153
62 98 158
61 97 151
61 97 150
62 96 142
62 97 154
61 97 152
61 97 152
61 97 149
60 96 145
60 96 142
61 96 151
62 97 145
61 96 148
61 96 147
62 98 154
60 95 149
61 97 153
61 97 147
63 98 154
61 96 147
61 96 146
61 96 140
62 98 151
61 97 151
61 97 149
62 97 154
61 97 144
60 96 145
61 97 151
60 95 143
60 94 136
60 94 133
61 96 147
60 94 139
62 97 150
60 95 147
60 95 140
59 93 131
62 97 146
59 93 127
59 93 122
59 92 139
59 93 140
57 90 122
66 95 118
102 115 65
107 113 19
119 126 0
123 132 0
118 122 0
112 119 0
122 126 0
108 116 0
114 119 0
115 119 0
107 110 0
108 112 0
105 107 0
116 119 0
115 119 11
97 99 0
104 105 0
101 101 0
93 95 0
109 110 0
98 96 0
100 101 0
97 101 0
92 90 0
94 95 0
94 95 0
90 90 0
109 106 0
97 93 0
100 98 0
109 110 0
105 100 0
102 98 0
92 91 0
108 107 0
98 96 0
102 97 0
100 94 0
99 97 0
95 93 0
101 93 0
100 96 0
102 99 0
114 110 0
102 97 0
98 93 0
101 99 0
99 96 0
103 98 0
109 106 0
111 107 11
118 114 11
104 100 0
108 103 0
110 104 11
107 105 0
116 114 0
117 113 0
107 105 0
106 101 0
103 100 0
123 120 11
116 112 0
118 113 0
115 112 0
120 117 0
124 119 19
116 114 0
118 117 0
117 113 16
125 125 16
124 123 0
119 118 11
117 115 11
122 120 11
126 129 11
133 134 0
121 120 0
126 128 0
130 129 0
134 138 11
130 133 0
142 146 0
132 137 0
144 147 0
141 144 11
142 147 11
145 152 11
144 150 0
147 155 0
145 151 0
151 157 0
149 158 0
153 162 0
161 173 0
156 168 0
151 158 0
150 157 0
155 166 0
152 160 0
156 168 0
156 164 0
154 165 0
147 157 0
157 170 0
150 164 0
157 171 0
154 166 0
154 166 0
159 173 0
164 180 0
158 171 0
160 175 0
153 167 0
151 166 0
155 169 0
163 178 0
157 171 0
164 179 0
157 170 0
160 175 0
158 172 0
156 172 0
167 185 0
159 175 0
157 174 0
163 179 0
165 181 0
162 178 0
168 186 0
158 175 0
160 176 0
163 177 0
164 181 0
164 182 0
165 181 0
162 179 0
165 181 0
165 181 0
162 181 0
204 222 207
199 218 201
199 218 196
200 219 201
200 218 203
197 218 199
189 210 157
198 217 194
194 214 188
191 212 163
194 214 173
192 212 163
194 214 186
189 210 153
188 209 161
190 210 142
185 206 142
187 209 153
187 208 135
185 207 147
182 204 128
181 203 120
178 200 120
180 202 117
181 203 108
176 199 114
178 200 105
179 201 105
180 201 102
179 202 114
179 202 99
176 199 92
177 200 108
174 198 102
178 201 95
177 200 88
172 196 62
176 198 80
176 199 88
177 200 95
176 199 80
176 199 84
178 201 99
172 195 72
168 192 80
169 193 80
175 198 84
177 201 80
173 197 72
177 200 72
173 196 92
171 194 51
176 198 88
173 197 80
172 196 57
176 199 88
174 196 80
175 198 72
179 202 95
178 202 102
178 200 102
176 199 99
182 204 111
179 202 99
175 198 92
179 201 108
176 199 110
175 197 99
176 198 126
166 189 118
160 183 137
153 175 159
150 173 163
148 170 178
126 149 176
130 154 181
134 157 178
128 152 164
123 147 171
130 154 178
123 147 169
123 147 181
114 139 186
122 146 173
114 139 183
116 142 186
117 143 184
111 136 180
94 123 177
116 142 181
111 137 181
105 132 189
116 141 188
97 125 179
107 134 183
101 128 174
107 133 191
95 123 180
98 126 183
93 121 182
79 110 172
78 109 170
84 114 176
82 112 171
79 110 176
88 117 176
74 107 173
81 112 168
72 105 163
68 103 168
63 99 164
74 106 164
63 98 156
76 108 163
71 105 172
71 103 162
71 103 161
63 97 153
66 101 162
60 96 155
63 97 154
62 97 153
61 97 157
58 93 144
61 96 150
61 96 151
61 97 155
61 97 157
63 98 158
60 96 155
59 94 144
60 95 152
60 96 151
59 94 146
60 96 154
61 97 164
60 95 148
61 97 159
61 97 162
60 96 153
60 95 145
61 97 152
60 95 153
62 98 164
61 97 158
61 96 157
62 98 159
61 97 150
60 95 144
60 95 147
60 96 151
59 95 150
61 97 158
62 98 162
61 97 162
61 96 154
62 98 160
61 97 151
62 98 162
61 97 156
61 97 157
61 97 158
61 97 155
62 97 160
61 97 159
61 97 155
60 96 153
61 97 158
62 97 155
60 96 149
62 98 158
61 97 155
61 97 152
61 98 159
61 97 154
61 96 150
62 98 159
62 97 154
62 98 161
61 97 157
61 97 152
62 97 158
61 97 153
61 97 155
62 98 154
61 96 150
62 98 157
61 97 155
61 97 154
60 96 148
62 98 159
61 97 153
61 96 144
61 97 155
61 96 150
62 97 151
62 97 155
61 96 143
61 97 155
61 96 152
61 97 156
61 96 147
61 97 154
61 96 154
62 98 156
60 95 149
61 97 152
62 98 157
61 97 147
61 97 151
62 98 155
61 96 149
60 96 147
62 97 156
62 97 151
61 97 151
60 95 141
61 96 154
62 97 155
61 96 140
61 97 151
62 97 152
61 97 148
61 96 148
61 97 151
61 96 147
62 98 152
61 96 147
60 95 133
61 96 149
60 96 147
61 97 153
59 94 137
61 97 150
60 94 142
61 97 151
61 95 141
61 97 147
61 97 150
60 94 139
60 95 145
61 96 144
61 96 148
60 95 139
61 96 142
61 96 145
62 97 148
60 95 137
58 93 128
60 94 134
60 95 144
61 96 141
61 96 144
59 93 128
61 95 142
60 94 136
60 93 132
60 93 139
59 92 130
79 102 113
112 124 68
118 123 0
116 124 0
118 125 0
110 115 0
103 108 0
109 113 0
105 109 0
109 112 0
107 109 0
108 112 0
108 112 0
110 114 0
110 114 0
106 108 0
112 116 0
113 118 0
109 110 0
114 116 0
101 103 0
99 102 0
103 103 0
111 113 0
97 99 0
98 97 0
93 95 11
106 109 0
103 101 0
101 99 0
88 84 0
99 95 0
84 82 3
107 102 0
104 102 0
90 88 0
99 98 0
108 101 0
95 99 0
88 84 0
106 102 0
109 107 0
101 95 0
88 84 0
103 101 0
108 108 0
107 103 0
104 100 0
112 107 0
110 106 0
103 98 0
112 109 0
114 112 11
106 102 0
96 91 0
106 103 11
111 109 0
112 108 11
114 109 0
113 111 0
112 111 0
121 120 0
118 118 16
104 100 11
108 107 0
117 114 0
109 105 0
129 125 11
114 112 11
130 128 0
124 122 0
111 106 0
108 107 0
123 122 11
127 126 0
127 128 11
125 124 0
138 142 0
127 125 11
131 132 0
134 137 0
124 126 0
131 136 0
142 147 0
138 142 11
144 149 0
148 152 0
149 154 0
150 155 0
142 147 0
149 155 0
150 153 0
143 150 0
150 157 0
150 158 0
153 161 0
153 164 0
156 165 0
156 166 0
153 164 0
153 161 0
155 165 0
152 162 0
157 166 0
155 168 0
157 169 0
159 172 0
154 165 0
156 166 0
156 168 0
157 169 0
157 169 0
165 180 0
157 168 0
160 174 0
162 179 0
163 175 0
157 169 0
165 180 0
156 170 0
160 176 0
155 171 0
157 172 0
165 182 0
162 176 0
154 168 0
159 177 0
164 180 0
165 183 0
163 181 0
163 179 0
166 185 0
163 179 0
161 175 0
168 186 0
164 183 0
166 182 0
163 183 0
169 187 0
163 182 0
166 185 0
203 221 204
201 219 201
197 217 189
197 217 191
194 213 173
195 215 179
192 212 173
190 211 159
191 211 169
190 210 155
185 206 137
184 205 133
187 207 147
186 207 144
187 208 151
188 208 151
187 208 140
182 204 133
180 202 108
181 204 122
182 204 130
185 206 142
181 204 128
178 201 99
178 201 99
179 201 99
178 200 99
175 198 95
179 202 105
175 198 92
176 199 84
174 198 92
174 197 62
170 194 80
177 200 95
175 199 88
175 199 80
172 196 76
174 196 67
173 197 80
177 200 88
176 199 76
173 196 76
173 196 67
175 199 92
173 196 80
174 198 92
173 197 72
176 200 92
173 196 72
173 197 84
174 197 57
171 194 51
174 197 67
177 200 99
175 199 80
176 199 84
176 199 88
176 198 67
175 198 80
174 197 84
173 197 88
177 200 84
175 198 72
175 199 80
175 199 99
170 192 88
175 198 105
163 186 111
168 189 118
157 180 133
148 171 142
142 164 145
130 154 157
118 143 156
138 160 177
117 142 176
117 141 162
130 153 183
117 142 169
111 137 169
112 138 174
124 148 185
119 143 176
107 133 167
114 140 181
102 130 173
114 139 182
109 135 175
99 127 185
93 122 173
92 121 183
96 124 172
105 131 171
92 121 179
90 119 180
107 134 181
98 126 184
86 116 171
95 122 171
84 115 177
91 120 183
80 112 183
73 106 172
85 115 177
87 117 178
82 113 177
79 110 172
77 109 171
75 108 170
79 110 170
78 109 165
81 111 162
64 98 156
69 102 164
68 102 167
66 100 159
62 97 158
64 98 154
68 101 156
65 99 166
67 101 154
60 95 156
65 99 151
60 96 151
66 100 155
62 98 157
62 97 151
61 96 154
60 96 154
61 96 155
59 94 150
60 95 150
61 97 158
59 95 147
60 96 152
61 96 151
61 97 157
61 97 158
60 96 143
60 96 151
61 97 158
60 96 149
61 96 152
61 96 149
60 95 153
61 96 151
61 96 156
61 96 155
59 94 148
61 97 160
61 96 151
61 96 157
62 98 161
60 96 152
61 97 156
60 95 148
62 97 153
61 96 153
61 97 153
62 97 159
60 95 149
61 97 149
61 97 159
59 95 144
61 97 150
61 97 153
61 97 153
61 97 150
62 98 154
61 97 155
62 97 151
62 98 159
62 98 159
61 97 154
61 97 154
61 97 152
62 98 160
62 98 156
60 96 149
62 98 156
60 96 150
62 98 161
61 97 153
61 96 147
60 96 145
61 96 148
61 96 152
61 97 149
62 98 158
61 97 153
61 97 153
62 97 160
61 97 154
62 98 156
61 97 153
61 96 143
61 96 147
61 97 157
61 97 153
61 97 151
62 98 156
61 97 150
61 96 147
62 97 154
60 95 143
60 96 151
62 97 154
61 97 149
61 96 148
60 96 148
62 97 153
62 97 154
61 97 152
61 96 148
63 98 159
62 98 155
62 97 155
60 95 143
61 97 153
61 97 145
61 96 144
61 96 150
61 97 145
60 96 139
61 96 142
61 96 152
61 96 151
61 96 145
62 98 148
62 97 156
60 95 139
62 97 149
62 97 145
62 98 153
61 97 145
61 96 148
61 96 143
61 97 145
61 97 143
60 95 139
60 95 142
61 96 140
61 96 144
60 95 141
60 95 143
59 94 136
62 96 142
60 94 136
59 93 128
60 94 129
59 93 133
59 92 141
59 93 134
60 94 133
59 93 131
60 95 129
56 89 115
58 91 127
81 100 96
99 110 40
117 124 0
122 130 0
112 117 0
122 128 0
111 115 0
111 116 0
116 122 0
117 126 0
109 112 0
112 117 0
108 112 0
116 121 0
109 114 0
120 122 0
121 126 0
117 122 0
116 118 0
108 111 0
111 113 0
97 102 0
103 108 0
108 110 11
93 93 0
106 107 0
101 103 0
102 102 0
111 113 0
106 108 0
93 96 0
104 103 0
102 99 11
99 97 0
98 94 0
96 98 0
97 94 0
94 91 0
90 87 0
94 94 0
94 93 0
109 110 0
101 101 0
105 106 0
102 99 0
109 105 0
101 98 0
108 102 0
107 107 0
98 92 0
106 102 0
106 101 11
107 104 0
106 104 0
101 98 0
112 109 11
103 98 0
115 112 0
113 112 0
111 108 11
103 101 0
114 114 11
103 99 0
104 101 0
115 114 0
119 117 0
119 117 0
116 116 11
126 126 0
117 115 11
116 115 0
128 128 0
132 135 11
125 124 0
134 136 0
128 133 0
132 131 0
121 120 0
137 143 0
130 130 11
138 142 0
132 134 11
138 141 0
137 139 11
142 147 11
144 152 0
139 144 0
148 156 0
140 146 0
146 154 0
150 157 0
148 155 0
148 156 0
155 163 0
152 161 0
153 163 0
152 162 0
148 160 0
158 168 0
157 167 0
155 168 0
148 158 0
156 170 0
148 158 0
157 167 0
155 168 0
152 163 0
161 173 0
161 174 0
152 164 0
159 172 0
161 174 0
155 166 0
162 175 0
161 174 0
163 178 0
155 169 0
161 175 0
163 177 0
159 173 0
164 179 0
158 170 0
163 180 0
162 175 0
168 184 0
161 177 0
164 180 0
166 184 0
163 179 0
166 183 0
164 180 0
159 176 0
167 180 0
163 178 0
161 179 0
163 180 0
162 178 0
161 178 0
165 182 0
161 178 0
166 184 0
194 213 184
197 216 193
195 215 182
195 214 181
193 213 181
194 214 177
194 215 177
184 206 137
184 206 157
187 208 157
188 208 147
184 206 147
183 205 130
186 208 151
185 206 130
185 206 130
183 205 122
176 199 117
178 201 95
180 203 105
178 200 84
178 201 99
177 200 95
174 197 105
178 201 99
175 198 76
173 196 80
172 195 67
176 199 76
174 197 72
174 198 99
177 200 84
170 194 72
171 195 57
174 197 76
174 198 80
173 197 92
173 196 51
175 198 62
174 199 67
175 199 80
175 197 44
174 198 84
176 199 67
170 194 51
172 196 72
168 192 44
169 192 57
175 198 67
170 194 72
172 196 80
175 198 84
172 197 72
176 200 88
175 197 72
176 200 92
172 196 51
173 197 84
175 198 92
174 197 67
176 200 92
173 195 72
172 195 72
178 200 88
172 195 57
175 199 76
173 196 94
170 193 92
162 186 110
168 191 92
156 180 117
139 164 130
128 152 136
128 153 145
116 142 168
115 141 157
139 161 176
102 129 163
115 140 164
126 151 184
126 150 172
108 135 178
112 137 169
109 135 176
116 141 166
118 143 176
106 134 158
115 140 167
113 138 173
112 137 171
109 135 181
112 138 181
108 135 178
89 118 174
101 128 181
86 115 169
93 121 180
82 113 170
97 125 184
97 125 173
87 117 174
86 116 172
74 106 172
91 119 174
75 107 169
79 111 174
74 106 171
75 107 171
71 105 173
73 105 168
61 97 163
61 97 160
71 104 164
71 104 159
70 103 155
65 98 157
61 97 162
64 98 154
66 100 153
69 103 161
62 99 167
62 97 150
61 97 161
62 97 157
61 97 157
60 96 154
62 97 153
61 97 157
61 97 153
60 96 153
60 95 151
61 97 155
61 96 155
59 94 139
63 97 147
60 95 143
60 95 150
61 96 153
60 95 143
59 95 145
59 94 146
59 94 146
62 98 159
60 96 149
61 96 154
61 97 153
62 98 158
60 96 159
61 97 151
61 96 158
61 96 152
60 95 151
61 97 153
60 96 153
61 96 157
61 97 152
61 97 156
62 98 154
61 96 159
59 95 142
62 98 158
60 96 151
61 97 153
61 97 153
61 97 152
62 98 158
59 95 145
62 98 161
60 96 149
61 97 152
61 97 154
62 98 162
61 97 153
61 97 150
61 97 152
62 98 162
61 96 152
62 97 153
61 97 155
61 97 156
60 96 155
62 97 156
61 97 154
62 98 162
61 97 149
62 98 156
62 97 156
61 97 152
61 97 152
62 98 157
62 98 159
61 96 147
62 98 159
62 98 161
61 96 141
61 97 156
62 98 159
61 97 152
60 95 142
62 98 157
62 97 156
62 97 158
61 96 148
61 97 152
61 97 156
61 97 145
62 97 151
61 96 145
62 97 156
62 97 156
62 97 151
61 97 153
61 97 152
61 97 148
62 98 154
61 96 149
62 98 160
61 96 147
60 95 149
61 96 141
60 96 144
62 98 157
62 97 151
60 96 145
61 96 145
62 97 150
63 99 158
60 95 143
60 95 137
60 95 145
61 96 144
61 96 143
61 96 140
60 95 134
61 96 150
61 96 142
60 96 134
61 96 147
61 96 148
60 95 139
61 96 142
61 96 144
59 93 131
59 94 136
61 95 142
60 95 139
60 94 133
60 95 141
61 96 140
59 93 137
60 95 140
59 94 142
60 94 138
57 90 125
60 94 136
58 92 126
58 93 125
58 92 131
64 94 120
95 109 69
113 121 0
111 118 0
115 122 0
108 116 0
125 134 0
120 126 0
107 112 0
118 127 0
122 127 0
111 117 0
113 118 0
112 118 0
114 118 0
105 106 0
103 107 0
116 121 0
111 116 0
101 105 0
103 105 0
107 109 0
101 104 0
118 121 0
99 100 0
98 102 0
110 112 0
101 102 0
90 91 0
105 104 0
111 112 0
90 93 0
102 103 0
96 97 0
101 100 0
96 97 0
101 99 0
105 106 0
107 105 0
99 96 0
112 110 0
98 96 0
104 101 0
109 106 0
112 109 0
100 100 0
101 101 0
100 95 0
115 113 0
110 103 0
116 117 0
111 107 0
105 102 0
114 110 0
116 114 0
108 108 0
107 107 0
112 112 0
113 111 11
113 115 0
109 107 0
112 109 0
113 114 0
115 113 0
119 115 0
116 113 11
118 117 11
123 123 0
116 120 0
115 115 0
130 133 0
124 123 0
119 119 0
127 129 11
128 129 0
130 130 0
133 137 0
132 134 0
135 133 0
137 138 11
139 145 0
138 138 0
142 147 0
136 139 0
138 142 0
142 148 0
139 142 0
145 152 0
142 151 0
148 155 0
146 155 0
153 162 0
146 153 0
144 154 0
147 156 0
151 160 0
154 162 0
144 151 0
153 163 0
152 163 0
155 164 0
159 169 0
153 162 0
152 165 0
149 159 0
155 167 0
162 176 0
161 174 0
155 167 0
157 168 0
160 173 0
161 174 0
155 167 0
156 168 0
159 174 0
158 169 0
158 172 0
160 175 0
157 170 0
159 172 0
160 174 0
160 173 0
160 174 0
159 173 0
164 178 0
163 179 0
165 181 0
164 180 0
160 178 0
163 181 0
163 179 0
168 184 0
165 182 0
164 181 0
162 177 0
160 175 0
165 183 0
164 179 0
162 178 0
162 180 0
161 179 0
162 181 0
191 211 161
196 217 189
190 210 171
193 213 173
193 213 167
193 214 175
185 206 149
191 211 155
191 212 165
184 206 125
182 204 130
185 207 135
180 202 114
185 207 140
185 206 130
180 202 111
181 203 99
177 200 92
176 200 76
177 200 84
178 201 105
177 199 92
177 199 84
176 199 84
175 198 105
173 196 62
175 198 76
169 194 72
177 200 92
172 196 76
175 199 72
174 198 80
173 196 72
175 199 62
174 197 62
176 199 80
175 198 72
170 194 62
170 193 62
171 194 67
174 198 92
170 193 44
172 196 62
172 195 44
175 198 95
173 196 67
173 197 80
172 197 76
172 195 51
172 196 76
174 199 88
172 196 72
172 196 57
171 194 84
174 198 67
170 193 76
172 196 80
172 196 84
173 196 72
173 196 76
170 193 44
173 196 72
173 197 84
174 198 57
173 197 76
172 195 72
176 198 88
169 192 100
167 190 108
163 187 113
150 174 110
143 168 122
130 155 139
114 140 148
104 131 158
103 130 156
122 147 170
104 131 160
114 139 160
122 146 169
114 139 173
108 134 161
104 131 167
103 130 168
114 139 175
113 139 173
109 136 167
104 131 171
92 121 161
95 124 173
101 129 170
97 125 174
91 120 178
95 123 170
96 125 169
82 113 169
96 124 172
90 120 175
79 111 176
94 123 182
85 115 178
88 118 169
87 116 177
91 120 176
89 118 180
70 103 168
91 119 175
64 99 166
88 117 173
71 104 166
67 102 166
67 101 159
78 109 172
67 102 164
67 102 167
69 102 157
73 105 153
70 103 153
65 101 170
63 97 153
61 97 161
63 98 157
61 97 149
64 98 151
59 95 150
60 96 154
63 98 149
61 96 150
60 95 153
59 94 147
60 94 139
60 95 145
62 97 156
61 96 154
61 96 154
61 97 151
60 96 148
61 97 165
61 96 159
61 96 154
61 96 155
60 96 156
62 97 157
60 95 150
61 97 157
60 96 151
61 96 158
61 97 155
59 95 145
61 97 157
60 95 148
62 97 159
60 96 153
62 98 160
61 96 151
60 96 156
62 98 157
62 97 151
62 97 157
60 96 143
61 96 148
61 97 154
61 97 156
60 96 151
62 98 160
61 97 159
61 96 149
61 97 150
62 98 158
60 95 148
60 95 150
60 95 137
62 97 151
61 97 155
61 96 150
61 96 147
62 98 164
62 98 157
61 97 150
62 98 156
62 98 155
61 97 157
61 97 158
61 96 148
60 96 148
61 96 150
61 97 156
61 97 156
62 97 149
62 98 152
62 98 156
61 96 150
61 96 148
61 97 154
62 97 148
61 97 152
60 96 151
61 97 153
60 95 141
61 97 150
62 97 148
61 96 151
61 97 151
61 97 156
61 96 148
61 96 151
60 95 141
62 97 155
61 96 151
60 95 141
62 97 152
61 96 145
62 97 153
61 97 149
62 97 153
61 97 145
61 96 147
61 97 154
60 95 144
61 97 154
59 94 137
61 96 144
62 97 150
61 96 143
60 95 139
60 95 135
60 95 139
60 95 139
61 96 148
61 96 151
61 97 147
60 95 141
61 96 141
62 97 149
61 96 139
60 95 141
60 95 141
59 94 128
60 95 140
61 97 147
60 94 137
61 96 141
62 97 150
61 96 148
61 96 147
60 94 136
60 95 142
60 94 136
60 94 134
60 94 140
59 93 136
59 93 124
59 93 138
59 93 134
59 93 120
58 93 126
60 93 137
59 92 132
75 100 115
103 113 31
123 133 0
116 123 0
120 128 0
113 120 0
115 123 0
111 118 0
115 119 0
116 123 0
115 120 0
115 122 0
117 121 0
95 98 0
105 109 0
123 130 0
106 111 0
105 109 0
110 116 0
117 122 0
110 112 0
113 118 0
108 109 0
98 99 0
101 104 0
111 113 0
102 102 0
110 112 0
107 110 0
97 100 0
105 104 0
102 102 0
107 108 0
105 106 0
90 88 0
117 116 0
113 112 0
111 111 0
100 98 0
111 110 0
114 115 0
108 109 0
108 105 0
108 106 0
105 104 0
104 99 0
118 117 0
115 110 0
108 106 0
113 113 0
114 112 0
96 92 0
106 105 0
115 116 0
110 108 0
105 100 0
100 98 0
119 116 0
124 125 0
110 108 0
114 114 0
122 123 0
112 113 0
114 112 0
118 117 0
123 123 0
122 122 0
114 115 0
129 131 0
120 118 0
120 121 11
127 128 0
124 122 11
133 137 0
133 136 0
134 137 0
126 128 0
140 143 11
134 134 0
133 134 0
134 137 0
140 146 0
141 144 0
145 147 11
132 136 0
139 145 0
145 152 0
143 150 0
139 146 0
142 149 0
151 161 0
150 157 0
148 154 0
152 160 0
153 162 0
157 165 0
150 161 0
150 157 0
150 160 0
150 161 0
154 168 0
157 166 0
157 167 0
156 164 0
156 166 0
159 172 0
153 165 0
155 164 0
160 174 0
163 178 0
154 167 0
157 167 0
163 177 0
165 178 0
153 166 0
157 170 0
160 174 0
159 172 0
162 178 0
164 180 0
157 171 0
156 168 0
163 176 0
158 172 0
162 178 0
162 176 0
163 180 0
166 184 0
165 182 0
166 183 0
163 180 0
170 188 0
161 176 0
163 180 0
165 180 0
165 183 0
164 180 0
166 183 0
163 181 0
165 182 0
163 179 0
168 185 0
190 211 171
192 213 167
187 209 159
194 214 177
191 211 163
187 208 142
186 207 147
184 206 137
182 204 120
183 204 117
181 203 125
181 204 122
180 202 128
180 203 111
181 203 117
176 200 99
180 203 114
176 199 84
176 199 88
177 201 102
175 199 67
173 196 84
172 195 62
176 199 80
176 199 84
172 196 62
174 198 76
175 198 72
174 199 67
173 196 51
175 198 76
170 193 76
172 196 72
172 196 67
172 197 76
176 199 57
176 200 80
172 195 84
173 197 76
173 198 76
174 198 72
173 197 76
174 197 67
173 197 76
171 196 57
172 196 67
170 193 72
173 196 72
168 191 67
174 199 67
174 198 92
169 193 80
173 197 72
173 197 80
175 198 76
169 193 67
173 197 51
173 196 80
173 196 67
174 198 72
174 197 76
173 196 57
175 197 67
174 197 67
168 192 57
174 198 67
171 194 76
170 193 88
159 183 102
152 176 94
151 175 117
124 150 134
133 158 134
117 143 148
106 133 161
100 128 153
105 132 158
108 134 169
115 140 151
114 140 168
102 129 157
111 137 167
110 137 176
113 138 167
102 130 161
104 131 169
95 123 162
100 128 164
91 120 172
97 125 168
86 117 167
99 127 181
103 130 169
94 122 164
80 112 158
83 114 171
86 117 173
83 114 176
92 121 175
81 112 175
96 124 173
86 116 179
69 103 167
87 117 179
72 106 170
89 118 178
81 112 170
71 104 166
76 108 169
71 104 164
71 105 170
77 108 167
67 102 167
68 102 166
63 98 159
79 110 169
66 100 154
75 107 169
64 100 165
70 102 151
68 102 160
62 97 159
62 98 161
60 95 151
60 96 154
69 102 155
62 98 162
60 95 145
59 94 149
61 96 156
59 94 150
60 95 141
61 95 139
59 95 143
61 96 148
61 96 156
60 95 148
61 97 148
61 96 151
60 95 147
60 95 142
60 96 153
61 96 154
61 96 156
62 97 151
61 97 155
61 96 154
60 95 146
61 96 152
61 96 157
61 97 160
60 96 157
60 95 141
60 96 149
61 96 149
62 97 154
61 96 153
61 97 153
61 96 149
61 97 154
61 96 144
62 97 154
61 97 153
61 96 151
61 96 143
61 97 155
62 98 160
59 94 143
61 96 155
61 97 154
60 95 150
61 97 153
61 96 151
61 97 155
62 97 156
61 97 156
61 97 158
62 97 159
62 97 152
61 97 157
62 98 162
62 98 154
61 97 148
61 96 148
62 98 155
61 96 146
61 96 149
60 95 139
62 97 155
62 97 149
61 96 148
61 97 150
59 94 141
62 97 157
61 97 155
63 98 155
61 97 151
61 96 151
60 95 134
61 96 148
62 98 154
61 97 151
61 97 156
62 97 150
60 96 147
62 97 153
61 96 149
61 96 145
60 95 142
61 97 152
61 97 153
62 97 148
61 96 150
61 96 148
61 96 147
60 96 149
61 96 145
60 95 136
60 95 145
62 97 150
62 98 151
61 96 144
62 97 154
61 96 143
60 95 145
60 95 139
60 95 137
62 97 149
61 96 145
61 96 142
62 97 151
61 96 147
62 98 153
61 97 148
60 95 139
61 96 141
62 97 151
62 97 144
60 95 142
61 96 148
60 95 140
60 95 141
62 97 148
60 95 139
59 94 140
59 94 131
59 92 139
61 95 142
59 93 128
60 94 136
58 92 126
60 95 140
59 93 125
59 93 126
57 90 118
60 94 131
58 91 121
60 91 119
91 108 85
114 124 31
107 115 0
109 115 0
115 121 0
117 124 0
115 123 0
115 123 0
119 126 0
116 124 0
116 123 0
123 131 0
117 125 0
125 131 0
103 107 0
117 123 0
106 113 0
105 110 0
111 116 0
111 115 0
101 104 0
114 119 0
108 111 0
111 116 0
112 111 0
108 111 0
110 113 0
104 106 0
109 112 0
101 102 0
107 113 0
110 111 0
107 108 0
111 112 0
103 105 0
109 109 0
110 110 0
107 109 0
102 101 0
103 103 0
114 113 0
114 112 0
116 116 0
108 108 0
109 108 0
107 105 0
112 109 0
114 115 0
111 110 11
109 106 0
112 114 0
112 110 0
115 112 0
101 98 0
116 115 0
108 105 0
114 115 0
107 105 0
111 109 0
115 115 0
119 117 11
121 120 0
124 124 0
125 124 0
120 124 0
128 128 0
116 116 0
124 122 0
127 126 0
127 128 11
132 133 0
122 123 0
126 126 0
125 124 0
123 125 0
128 130 0
129 131 0
132 135 0
136 140 0
139 145 0
147 153 11
143 148 0
143 149 0
148 154 0
145 153 0
143 150 0
138 141 0
154 163 0
146 154 0
146 154 0
155 163 0
147 156 0
148 155 0
149 159 0
150 158 0
153 160 0
147 157 0
151 159 0
154 165 0
153 164 0
159 168 0
158 168 0
160 169 0
150 159 0
156 167 0
154 167 0
153 166 0
157 168 0
161 173 0
158 173 0
158 173 0
156 168 0
158 174 0
161 175 0
161 176 0
159 173 0
159 174 0
157 170 0
158 172 0
158 173 0
158 171 0
164 180 0
163 179 0
165 179 0
161 179 0
166 183 0
161 175 0
159 174 0
161 177 0
162 178 0
164 178 0
166 185 0
162 179 0
162 179 0
166 184 0
161 179 0
168 182 0
164 181 0
166 183 0
166 182 0
162 179 0
168 187 0
191 211 171
188 209 153
186 206 157
182 205 125
185 207 153
186 208 149
182 204 137
182 204 105
181 203 108
180 202 122
184 206 122
179 202 111
177 200 88
177 200 102
179 202 99
177 200 95
178 200 102
173 196 67
173 197 72
173 197 88
175 198 76
173 196 84
174 198 76
175 198 88
173 197 76
174 198 80
175 199 84
174 197 84
172 196 80
173 197 95
175 199 72
173 196 67
167 191 62
172 196 67
172 195 51
175 199 92
176 200 84
173 197 76
169 193 76
169 193 72
175 199 88
173 196 62
174 198 62
176 199 95
168 192 72
174 198 84
171 194 44
171 195 76
173 197 76
171 194 62
173 198 99
169 193 72
174 198 84
169 192 57
174 198 67
172 197 80
173 196 72
175 198 84
174 197 76
174 197 80
173 197 67
171 195 72
176 200 76
173 196 62
171 194 76
173 196 67
169 193 78
170 193 65
165 188 90
163 187 97
155 179 110
141 167 130
132 157 143
111 137 141
100 128 149
99 127 152
90 119 145
101 128 162
116 141 162
110 136 155
97 125 157
102 129 159
102 128 157
107 132 164
94 123 162
93 122 162
100 127 160
117 142 181
95 123 168
96 123 165
92 121 162
95 123 164
84 114 161
75 108 168
85 115 166
96 124 182
86 117 170
85 115 164
94 123 174
94 122 167
90 119 174
82 113 179
82 113 171
84 114 167
74 107 167
90 119 176
76 108 173
81 111 173
73 105 166
75 107 170
66 100 162
65 100 169
73 105 164
72 105 164
67 101 162
64 98 157
78 109 168
68 102 160
69 102 159
71 104 156
66 99 155
69 102 154
62 98 156
65 100 155
60 95 156
61 96 159
62 96 149
61 97 155
61 97 156
61 96 152
62 96 147
60 96 148
62 97 151
58 94 143
59 95 154
62 97 151
63 99 155
62 97 156
61 96 151
60 95 148
61 96 155
60 95 152
61 97 158
60 95 144
60 95 149
59 93 136
61 96 150
60 96 144
60 96 153
60 96 156
60 96 151
61 96 154
60 96 149
60 96 151
60 95 145
61 96 150
60 96 147
61 97 160
61 96 148
61 97 155
61 96 149
62 97 157
62 98 160
60 95 141
61 96 151
60 96 152
60 96 142
60 96 144
61 97 148
61 97 149
60 96 149
61 96 150
61 97 152
62 97 150
60 96 153
62 97 156
61 97 152
62 97 156
61 96 145
62 97 153
61 97 151
60 95 147
61 97 154
62 98 157
61 97 150
62 97 151
62 97 151
61 96 147
60 95 144
61 96 154
61 96 148
61 97 154
62 97 156
61 96 143
61 96 145
61 97 153
61 97 148
62 98 153
61 96 142
62 97 150
62 97 151
61 97 148
61 96 141
60 96 144
61 96 153
62 97 152
61 97 149
60 95 142
61 97 150
61 96 147
60 95 143
62 97 147
61 96 144
60 95 141
61 96 148
61 97 154
61 96 147
62 97 152
62 97 148
61 97 150
60 96 143
62 97 151
60 95 139
61 96 142
61 96 142
61 96 147
60 95 133
60 96 139
61 96 141
62 97 156
61 96 141
61 96 148
61 96 144
61 96 140
61 96 143
60 96 135
61 96 150
61 97 145
60 95 131
61 95 150
61 96 144
61 96 145
61 96 144
60 94 142
61 96 144
60 95 140
61 95 136
61 96 150
58 91 135
60 94 143
59 92 136
59 93 133
58 91 124
58 92 130
59 93 129
58 91 119
60 94 136
81 106 104
99 113 63
115 125 26
119 129 0
113 120 0
117 126 0
113 119 0
109 117 0
108 109 0
114 122 0
119 123 0
114 119 0
117 124 0
113 120 0
109 113 0
111 116 0
117 124 0
107 110 0
109 115 0
114 120 0
116 121 0
115 120 0
113 119 0
105 109 0
112 114 0
108 111 0
116 123 0
113 117 0
110 112 0
98 98 0
108 112 0
104 107 11
117 122 0
99 101 0
107 108 0
113 115 0
108 106 0
112 113 0
114 116 0
111 111 0
109 107 0
117 117 0
118 119 0
121 123 0
113 113 0
97 93 11
101 96 0
114 112 0
113 115 0
108 109 0
114 113 0
116 117 0
113 111 0
114 111 0
113 112 0
114 113 0
120 120 0
123 124 0
113 113 0
123 123 0
120 118 0
115 113 0
128 129 0
127 129 0
117 117 0
125 126 0
134 135 0
117 121 0
133 134 0
129 129 0
133 137 0
131 133 0
133 133 0
135 136 0
133 135 0
131 135 0
135 140 0
137 141 0
139 144 0
140 145 0
135 139 0
133 138 0
137 142 0
141 145 0
141 147 0
140 145 0
145 151 0
153 159 0
150 157 0
147 153 0
148 153 0
145 152 0
146 155 0
143 149 0
146 155 0
151 159 0
154 164 0
148 155 0
150 159 0
154 162 0
147 156 0
151 161 0
153 165 0
149 159 0
152 162 0
155 168 0
151 163 0
149 161 0
157 169 0
158 171 0
157 169 0
157 170 0
158 170 0
163 176 0
163 177 0
155 167 0
161 172 0
158 171 0
161 175 0
157 171 0
152 165 0
162 178 0
161 177 0
162 177 0
157 171 0
164 179 0
162 177 0
160 176 0
164 179 0
162 178 0
164 182 0
165 182 0
163 178 0
162 181 0
165 181 0
164 183 0
167 184 0
165 182 0
163 182 0
161 178 0
168 185 0
170 188 0
168 186 0
187 209 149
188 209 153
187 209 151
181 204 128
184 205 130
181 203 105
183 206 135
180 202 105
182 205 120
176 199 95
177 200 105
178 201 95
172 196 72
173 196 76
172 195 84
174 197 76
175 198 76
173 197 76
174 198 76
172 195 72
171 195 62
171 195 76
175 198 72
170 194 76
172 196 57
176 199 72
174 198 76
173 197 67
174 197 44
170 194 57
172 196 72
174 198 67
174 198 62
173 196 36
172 196 57
171 195 62
169 192 80
170 194 67
169 193 76
171 196 62
173 197 92
172 196 72
174 198 62
176 199 88
169 192 76
173 196 62
172 196 62
171 195 84
172 195 57
172 195 57
173 196 62
171 195 76
173 196 84
176 199 76
171 194 67
171 194 57
173 198 72
174 197 84
171 194 72
174 197 84
175 199 72
171 195 67
173 196 62
174 198 67
170 194 88
172 196 67
174 198 84
168 191 76
162 185 78
159 183 88
160 183 95
146 170 108
129 154 131
135 160 144
104 131 149
104 131 148
88 118 159
97 124 156
84 114 154
95 123 153
105 132 159
94 123 153
96 124 160
102 130 160
104 131 158
100 127 155
102 129 158
106 133 166
99 127 164
88 118 166
95 124 166
91 120 164
90 120 158
91 120 165
93 121 172
91 120 174
99 126 165
89 118 171
82 113 171
88 118 169
81 112 173
73 106 165
82 113 168
85 115 164
67 101 165
77 109 170
68 103 171
74 106 166
72 105 163
70 103 164
71 104 172
72 104 163
76 107 166
70 103 168
72 105 164
63 98 157
73 105 163
78 109 168
61 96 149
66 101 159
75 106 159
72 104 158
65 98 150
67 100 156
61 95 147
62 97 156
60 96 151
65 99 148
62 97 146
62 98 160
61 96 152
60 95 148
61 95 145
61 96 152
59 94 144
59 94 150
60 96 153
61 96 159
61 97 157
60 95 146
60 95 147
60 96 153
59 95 145
61 97 160
61 97 149
61 97 158
59 95 150
61 97 159
61 96 144
60 96 149
60 96 144
60 96 149
62 98 162
60 96 150
59 95 145
61 96 149
60 96 160
62 97 158
60 95 148
60 95 145
60 96 150
60 96 155
61 97 154
61 97 150
61 96 150
60 95 150
61 97 150
61 96 151
61 97 151
62 97 154
61 97 154
61 96 147
60 96 153
61 97 155
62 97 149
61 96 152
61 96 151
60 96 144
61 96 140
61 96 154
61 96 147
61 97 152
61 97 149
61 97 151
62 97 151
61 97 151
62 98 154
61 97 145
62 98 157
61 97 154
63 98 158
61 96 147
61 97 156
60 96 145
61 97 151
61 97 157
61 97 154
60 95 144
61 96 151
62 98 159
60 96 149
61 97 154
61 97 153
62 97 154
60 95 143
61 97 153
60 96 149
61 96 150
61 96 149
62 97 154
61 96 143
62 97 153
61 96 149
61 96 144
59 94 133
61 96 144
61 96 153
61 96 147
60 95 145
60 96 140
61 96 142
60 96 140
60 96 144
62 97 145
61 96 148
60 95 137
61 96 145
60 95 142
62 97 145
61 96 147
61 96 147
61 97 145
62 97 148
61 96 137
61 96 145
61 95 139
60 95 139
60 95 130
62 97 151
60 95 141
59 94 124
60 95 137
62 97 147
60 94 128
60 95 136
60 95 135
59 94 133
60 95 135
59 94 133
60 95 136
61 96 138
59 92 136
59 92 116
59 93 133
58 91 131
58 91 125
57 89 121
73 96 95
106 118 62
111 120 0
112 123 0
117 124 0
105 115 0
127 134 0
110 117 0
113 122 0
116 127 0
101 108 0
111 118 0
114 120 0
108 116 0
112 116 0
102 106 0
105 110 0
104 109 0
123 128 0
115 120 0
109 113 0
119 121 0
104 104 0
108 113 0
108 111 0
107 109 0
114 119 0
109 113 0
115 116 0
110 110 0
115 123 0
116 119 0
114 118 0
114 115 0
109 110 0
111 114 0
110 111 0
103 106 0
115 118 0
108 108 0
118 119 0
108 109 0
112 113 0
115 117 0
117 121 0
99 98 0
116 118 0
120 123 0
111 111 0
117 120 0
116 113 0
115 115 0
119 117 0
114 114 0
116 118 0
110 110 0
122 124 0
118 116 0
115 117 0
132 135 0
111 112 0
124 126 0
108 107 0
118 116 0
119 120 0
127 129 0
118 119 0
128 128 0
134 136 0
127 127 0
131 132 0
136 140 0
118 120 0
134 137 0
137 142 0
130 133 0
127 129 0
134 137 0
139 142 0
140 146 0
135 138 0
138 141 0
141 147 0
146 153 0
141 145 0
143 149 0
139 145 0
136 141 0
149 159 0
143 151 0
146 154 0
148 155 0
147 154 0
149 159 0
149 157 0
150 160 0
150 160 0
153 162 0
153 164 0
154 166 0
153 163 0
153 162 0
156 166 0
154 162 0
157 168 0
159 172 0
154 166 0
152 162 0
152 162 0
144 155 0
153 165 0
161 173 0
156 168 0
158 170 0
153 166 0
161 176 0
160 173 0
161 177 0
165 181 0
159 173 0
166 181 0
160 177 0
160 173 0
159 177 0
165 181 0
161 175 0
162 178 0
160 176 0
167 184 0
164 180 0
165 183 0
164 180 0
164 179 0
165 184 0
163 179 0
163 182 0
162 177 0
162 179 0
164 180 0
166 185 0
163 179 0
165 181 0
164 180 0
184 206 142
184 205 137
180 202 102
182 204 130
185 206 144
178 200 95
175 199 95
180 202 114
177 200 92
176 199 88
177 200 72
177 199 92
177 199 80
171 194 62
173 197 76
174 198 92
174 198 67
174 198 72
174 196 80
173 197 62
172 195 44
172 196 76
171 196 67
171 195 76
173 197 92
174 197 84
171 195 62
175 199 72
172 196 80
168 191 67
172 195 62
173 197 84
174 197 84
173 197 72
173 196 62
171 195 76
172 197 67
174 198 80
172 195 76
174 198 67
172 196 72
173 196 80
169 193 67
171 194 84
172 195 84
172 194 57
169 193 84
174 197 72
171 195 76
175 198 72
172 195 57
172 196 67
173 196 67
173 197 76
172 196 95
171 194 57
174 198 76
172 196 62
167 190 44
172 196 67
172 195 84
172 195 57
169 192 76
170 193 67
171 193 57
167 190 51
171 194 92
170 195 86
170 193 76
156 180 92
153 176 94
149 173 96
134 159 118
118 143 122
108 135 150
100 128 156
95 123 151
94 123 162
92 120 150
99 126 160
90 119 150
94 122 153
86 115 157
97 126 165
101 129 154
104 131 169
113 140 174
99 127 147
104 131 171
90 119 159
91 120 160
101 128 172
92 120 165
98 126 166
98 126 169
81 113 173
91 120 163
86 116 166
93 121 166
107 134 178
79 111 162
89 118 167
86 116 178
75 107 168
90 119 181
79 111 172
79 111 168
80 111 171
75 107 164
82 113 179
71 104 167
74 106 169
75 107 168
76 108 164
66 100 167
64 99 159
76 108 166
66 100 161
68 101 159
62 97 153
71 104 159
68 102 164
65 99 156
59 94 144
66 99 157
62 96 147
60 96 157
64 99 152
62 97 149
59 94 146
59 94 144
64 98 148
62 97 137
60 95 148
61 96 149
62 97 144
62 97 145
60 95 150
61 96 148
63 98 149
63 98 160
59 94 137
59 95 141
61 96 146
61 96 151
60 96 159
61 96 149
60 95 146
61 96 147
61 96 163
61 96 150
61 97 148
61 96 152
59 95 144
59 95 147
59 94 145
60 96 151
61 96 149
61 96 149
61 96 152
60 95 146
61 96 150
60 95 147
61 96 148
62 98 156
61 97 151
61 96 145
61 96 150
61 97 157
61 97 157
60 95 151
61 96 143
62 98 155
62 97 157
61 96 148
60 95 146
62 98 155
61 96 150
60 95 141
61 97 150
61 97 153
60 95 140
61 97 153
61 96 143
62 98 153
62 97 156
60 95 145
61 96 150
62 98 154
60 95 152
61 96 145
63 98 158
61 96 153
61 96 145
62 97 156
61 97 152
61 96 147
61 97 153
60 95 142
61 96 148
61 96 144
62 97 153
62 97 153
60 96 148
61 96 148
61 96 144
61 96 148
60 96 143
63 99 160
61 96 148
62 97 152
61 97 144
61 97 145
62 97 157
61 96 150
61 96 152
61 96 140
61 97 151
62 97 148
61 96 148
61 97 143
60 95 143
62 97 154
61 97 153
60 95 137
62 97 148
61 96 153
62 97 148
59 94 136
60 95 134
61 97 144
60 95 140
60 95 139
61 96 142
62 98 152
60 95 135
60 95 133
60 94 136
61 96 149
60 95 140
61 95 142
61 96 144
59 94 140
61 96 147
60 95 133
59 94 137
58 92 128
60 94 133
59 93 138
61 95 140
60 95 145
60 93 137
58 92 124
59 92 131
58 91 117
57 89 117
65 95 113
83 100 84
113 121 32
109 118 0
116 124 0
109 119 0
124 133 0
115 124 0
117 124 0
104 112 0
110 118 0
106 113 0
111 118 0
110 114 0
113 119 0
115 121 0
103 111 0
118 125 0
114 120 0
121 127 0
126 132 0
117 122 0
114 121 0
123 128 0
111 116 0
118 123 0
107 112 0
117 120 0
96 98 0
112 114 0
109 110 0
103 108 0
120 124 0
106 110 0
116 118 0
109 114 0
119 120 0
117 120 0
122 124 0
110 113 0
113 114 0
122 122 0
107 105 0
115 117 0
117 118 0
119 123 0
118 123 0
108 111 0
115 117 0
118 120 0
113 110 0
111 110 0
119 121 0
122 122 0
123 127 0
126 128 0
129 131 0
129 134 0
120 121 0
120 121 0
118 118 0
119 119 0
118 120 0
126 128 0
131 133 0
129 129 0
131 133 0
123 123 0
135 138 0
131 133 0
130 135 0
139 142 0
141 144 0
127 132 0
139 144 0
137 142 0
131 135 0
142 145 0
129 134 0
139 144 0
142 149 0
145 154 0
134 138 0
141 147 0
136 141 0
138 141 0
152 158 0
143 150 0
143 150 0
144 150 0
152 160 0
147 155 0
146 153 0
147 155 0
149 158 0
152 164 0
152 163 0
148 158 0
155 166 0
153 163 0
151 161 0
152 165 0
150 160 0
157 169 0
154 167 0
157 168 0
155 166 0
154 164 0
159 170 0
153 167 0
152 164 0
164 178 0
152 165 0
158 170 0
154 164 0
158 171 0
157 171 0
156 172 0
163 175 0
156 169 0
159 173 0
157 171 0
163 177 0
157 171 0
160 175 0
160 174 0
162 178 0
162 177 0
157 175 0
160 176 0
157 171 0
164 182 0
166 184 0
159 175 0
165 183 0
161 178 0
163 180 0
159 176 0
165 183 0
164 182 0
164 184 0
166 185 0
165 182 0
160 176 0
188 208 153
177 199 102
184 206 128
183 205 137
181 203 111
178 201 108
179 202 117
173 196 76
178 200 62
175 198 62
171 195 92
172 196 67
176 200 95
174 198 88
173 197 62
174 198 72
174 197 44
172 196 72
173 196 62
174 198 80
172 196 57
175 199 72
171 196 67
172 196 72
174 198 51
172 196 51
172 196 57
171 194 51
170 194 72
174 199 95
172 197 92
174 197 67
172 196 72
171 195 80
173 198 76
173 197 67
173 197 92
173 197 84
175 198 72
171 195 62
173 196 84
172 196 80
172 195 72
173 197 67
168 192 44
172 196 67
172 195 88
171 194 67
169 192 67
170 193 51
171 195 88
171 195 57
174 198 72
171 194 72
173 196 80
168 193 57
172 195 62
172 194 62
169 193 62
171 194 51
172 195 57
173 197 76
170 194 76
172 194 72
174 198 92
169 192 57
172 196 84
168 192 76
167 192 67
164 189 92
156 180 114
148 172 113
139 164 129
131 156 134
117 143 124
108 134 147
86 116 149
92 120 146
92 121 150
99 128 155
89 118 156
94 122 154
90 119 159
101 127 151
100 128 161
96 124 153
95 123 157
97 125 162
102 130 160
91 119 148
88 118 160
95 122 159
101 128 163
85 116 161
95 123 155
104 132 177
92 121 170
88 118 161
91 121 171
83 114 166
87 116 165
85 115 176
78 109 172
81 112 179
87 117 177
75 108 170
79 110 166
89 118 181
81 111 164
79 110 166
76 108 167
78 109 165
73 106 169
72 105 161
79 110 169
73 105 164
64 99 165
68 102 159
67 101 163
61 96 151
73 105 162
68 100 153
67 100 156
68 101 158
65 100 162
59 94 148
61 96 160
63 98 155
65 99 156
60 94 148
60 95 150
60 95 155
62 97 148
59 94 139
61 96 151
58 93 148
60 95 147
60 95 154
60 95 144
60 95 145
57 92 140
60 95 151
59 94 143
60 95 148
61 97 154
60 95 150
60 95 146
61 96 146
60 96 150
60 95 136
59 95 139
60 96 142
60 95 147
61 97 157
60 95 146
61 97 154
62 98 155
59 95 146
60 95 144
61 97 150
61 97 156
61 96 150
60 95 147
62 97 159
62 97 156
58 93 139
61 96 153
61 96 148
62 98 154
62 98 156
61 95 149
61 97 154
61 97 154
61 97 159
62 97 163
60 94 143
60 96 152
60 96 145
60 94 145
61 96 148
60 95 143
61 97 152
60 96 154
61 97 153
62 98 157
61 96 150
61 97 156
60 96 141
62 97 151
62 97 143
61 97 151
60 96 142
60 95 148
61 96 140
62 97 155
61 97 152
61 97 153
61 95 143
62 97 147
59 94 137
61 96 143
62 97 148
61 96 149
60 96 143
60 95 141
61 96 148
61 96 148
61 97 149
61 96 149
61 96 145
61 97 145
61 96 147
62 98 157
62 97 153
61 97 150
61 95 145
62 97 150
61 97 148
61 97 150
62 97 148
60 95 148
62 97 154
62 97 152
61 96 143
60 95 139
62 97 149
60 95 142
61 96 149
62 97 149
60 95 141
61 96 142
61 97 152
60 95 142
60 94 139
60 94 137
60 95 140
60 95 140
59 93 134
59 93 129
61 96 142
59 94 126
60 93 126
61 95 139
61 96 143
60 95 135
60 94 136
60 95 136
58 92 128
60 95 135
61 95 142
57 91 115
59 94 134
59 93 132
60 94 132
59 93 128
59 92 128
83 106 116
107 120 71
118 128 18
128 138 0
115 125 0
125 134 0
124 133 0
112 118 0
111 118 0
123 131 0
117 125 0
109 116 0
124 133 0
126 133 0
108 112 0
114 123 0
122 128 0
111 117 0
123 131 0
118 125 0
100 106 0
112 118 0
115 122 0
114 121 0
118 121 0
109 115 0
114 120 0
119 126 0
115 120 0
107 113 0
112 119 0
109 114 0
117 120 0
111 113 0
116 119 0
110 113 0
105 105 0
109 109 0
116 120 0
120 123 0
127 133 0
118 121 0
112 113 0
120 121 0
124 128 0
117 121 0
111 112 0
122 124 0
128 132 0
111 115 0
113 115 0
115 119 0
113 114 0
125 128 0
117 121 0
125 127 0
132 135 0
121 125 0
119 120 0
120 119 0
125 128 0
129 133 0
119 120 0
133 137 0
131 133 11
129 130 0
127 129 0
131 133 0
137 142 0
126 131 0
140 144 0
137 142 0
136 141 0
137 143 0
129 135 0
138 145 0
141 145 0
150 158 0
143 148 0
147 155 0
147 153 0
145 152 0
145 152 0
142 148 0
147 154 0
142 147 0
148 155 0
140 145 0
143 149 0
149 155 0
146 153 0
150 156 0
153 164 0
150 162 0
148 154 0
152 162 0
152 160 0
155 164 0
150 159 0
154 165 0
152 163 0
152 163 0
154 165 0
155 162 0
153 167 0
153 163 0
162 175 0
157 167 0
160 172 0
156 167 0
158 170 0
160 173 0
157 174 0
157 171 0
161 176 0
164 178 0
161 175 0
162 176 0
156 171 0
158 172 0
161 175 0
160 177 0
160 173 0
158 170 0
163 177 0
161 176 0
148 163 0
165 180 0
160 174 0
162 176 0
166 180 0
161 179 0
162 180 0
164 179 0
165 183 0
164 181 0
163 181 0
159 178 0
164 182 0
166 184 0
161 177 0
165 182 0
167 185 0
168 189 0
181 203 120
182 203 125
182 204 117
179 202 102
177 200 102
177 199 92
175 199 80
177 201 88
177 199 76
174 197 72
172 196 67
174 198 76
172 196 80
174 198 84
173 197 76
174 196 72
174 198 76
168 192 62
175 198 76
173 197 62
173 197 72
174 197 80
172 196 36
174 198 76
172 195 51
175 198 72
172 196 67
173 197 76
170 193 44
172 195 76
171 195 67
174 198 67
169 192 62
171 195 67
174 197 62
173 197 57
171 196 88
171 194 80
170 193 67
170 194 57
170 194 72
174 198 80
172 196 72
172 195 76
174 198 67
173 197 62
172 196 72
172 197 95
170 193 72
172 196 80
171 195 76
171 194 72
175 199 105
171 195 88
175 198 62
173 196 76
173 197 88
171 194 80
168 192 80
169 193 76
175 198 88
173 196 84
171 195 92
171 195 62
174 197 72
171 194 67
170 194 67
175 198 72
170 194 67
171 194 80
161 184 70
155 179 97
147 170 102
132 157 111
122 147 133
105 132 133
94 123 149
87 116 149
101 128 150
103 130 169
100 127 148
90 118 140
100 127 151
96 124 151
91 120 140
101 128 141
104 131 151
97 125 153
93 121 158
90 118 161
103 130 158
90 119 167
96 124 162
92 120 167
92 121 162
96 124 157
87 117 164
94 123 170
90 119 161
90 119 171
96 123 166
78 109 156
86 116 166
79 110 162
81 112 166
78 110 172
88 117 166
84 114 173
77 109 166
86 116 172
75 107 167
73 106 166
69 103 165
81 112 175
61 97 165
71 104 155
64 99 156
64 99 160
63 98 157
66 100 161
68 101 153
74 106 161
67 101 163
60 96 150
71 103 157
66 101 156
59 94 146
61 96 154
64 98 145
61 97 155
60 95 148
62 96 142
61 96 154
63 96 138
61 96 144
61 95 137
60 96 155
60 95 144
59 94 145
60 96 147
61 96 156
60 95 153
60 96 150
60 95 149
60 95 150
60 95 145
61 97 151
61 96 149
59 94 140
61 96 157
61 96 152
60 95 149
61 97 152
61 97 151
61 96 155
61 97 154
60 95 145
60 95 145
60 95 153
61 96 161
61 97 151
59 95 143
61 97 147
61 97 153
62 98 160
61 97 152
61 97 149
62 97 156
61 97 151
61 96 151
61 97 154
60 95 145
61 96 148
61 96 148
61 97 150
60 96 151
61 97 151
60 95 150
61 96 145
61 96 149
60 95 144
60 95 145
62 97 149
60 95 144
60 95 147
60 95 145
62 97 150
60 95 144
60 95 144
61 96 143
61 97 151
60 96 149
61 97 149
61 97 147
61 97 149
61 97 151
61 96 145
61 96 142
60 96 144
61 96 141
61 97 149
62 97 144
60 95 142
61 96 149
61 97 150
61 97 156
61 97 149
61 97 154
60 95 143
62 97 154
61 96 145
60 95 144
61 96 143
61 96 144
61 97 148
61 96 144
60 96 143
62 98 152
62 97 148
61 95 142
61 96 149
61 96 142
60 95 143
60 96 136
61 96 144
61 96 135
61 97 148
61 96 145
60 95 141
61 96 142
61 96 141
60 95 137
61 95 139
61 96 140
60 95 135
60 95 142
61 96 142
61 95 147
61 96 145
60 95 140
60 95 141
60 95 144
61 95 140
59 94 126
59 94 128
58 91 131
60 94 136
59 93 134
60 95 134
60 94 136
58 91 118
60 94 131
58 92 128
58 92 121
59 92 129
60 90 112
95 111 83
109 121 36
112 122 0
117 127 0
108 114 0
112 120 0
113 123 0
117 123 0
117 122 0
129 138 0
113 122 0
118 124 0
107 117 0
125 134 0
106 111 0
119 125 0
109 111 0
119 129 0
113 117 0
115 119 0
114 122 0
120 127 0
116 122 0
119 123 0
105 112 0
121 128 0
116 121 0
110 110 0
120 126 0
116 118 0
113 116 0
111 116 0
105 109 0
116 120 0
124 130 0
108 110 0
111 114 0
115 116 0
106 111 0
113 114 0
122 125 0
111 115 0
113 115 0
120 125 0
115 117 0
120 127 0
119 123 0
118 122 0
114 113 0
115 116 0
128 130 0
124 127 0
122 124 0
124 127 0
113 113 0
120 124 0
121 122 0
129 132 0
129 136 0
125 127 0
132 138 0
125 126 0
137 139 0
119 122 0
135 139 0
124 126 0
133 135 0
128 130 0
122 122 0
131 136 0
136 142 0
140 142 0
135 140 0
122 123 0
138 144 0
143 152 0
137 143 0
135 141 0
139 144 0
143 150 0
133 139 0
135 139 0
152 157 0
132 137 0
149 155 0
141 150 0
150 158 0
147 155 0
148 156 0
144 152 0
144 152 0
146 157 0
148 155 0
146 155 0
150 159 0
151 159 0
155 165 0
147 157 0
152 160 0
144 155 0
151 159 0
147 157 0
152 161 0
155 167 0
157 169 0
151 163 0
157 169 0
158 171 0
155 165 0
153 162 0
155 168 0
160 172 0
156 171 0
158 171 0
155 170 0
158 174 0
159 171 0
161 176 0
160 175 0
163 180 0
159 173 0
163 180 0
162 180 0
162 178 0
156 172 0
164 179 0
159 173 0
164 180 0
160 175 0
162 176 0
165 182 0
165 183 0
164 182 0
163 178 0
167 184 0
160 176 0
166 186 0
162 179 0
167 184 0
166 186 0
166 185 0
168 186 0
162 178 0
165 183 0
178 200 99
179 200 111
175 198 92
177 200 105
176 199 95
174 198 76
179 203 108
174 197 76
172 196 88
175 199 84
174 198 76
172 196 62
175 199 80
173 197 76
174 197 51
172 196 72
173 197 62
170 194 72
173 197 76
172 196 72
173 196 80
173 197 80
175 199 80
174 198 72
170 194 67
171 194 76
174 198 76
170 193 76
177 200 84
171 195 67
173 197 57
173 196 72
171 195 80
174 198 88
173 196 67
173 196 72
169 194 88
172 197 80
173 197 76
173 197 76
173 197 80
167 191 72
169 193 67
172 196 72
172 195 72
172 196 76
171 195 84
170 194 57
171 194 62
172 197 80
169 192 67
171 194 67
173 197 57
172 195 88
172 196 80
167 191 76
172 195 88
172 196 84
171 195 57
165 189 72
172 196 62
168 192 72
170 193 84
166 189 62
172 196 80
169 193 67
171 195 80
171 195 57
168 192 72
169 192 78
161 184 88
156 180 105
144 169 113
140 164 117
125 150 125
109 135 135
102 129 131
91 119 143
95 123 155
86 115 144
97 126 162
90 118 156
97 125 148
92 120 143
94 122 141
97 125 145
87 117 150
99 126 153
101 128 165
94 122 143
100 128 160
84 114 154
89 119 153
88 117 150
98 126 172
83 113 150
85 114 158
92 121 164
100 128 168
91 120 167
101 128 157
98 127 177
86 116 167
86 116 167
71 104 166
91 120 168
78 109 166
81 113 168
75 107 163
74 106 163
75 106 157
72 105 165
67 101 166
70 104 163
67 101 165
68 102 170
71 104 167
71 105 173
66 100 155
62 97 158
70 103 164
68 100 152
71 104 160
65 99 152
63 97 149
66 99 144
65 98 150
59 95 151
60 95 145
62 96 147
62 97 145
61 96 150
60 95 153
63 98 152
62 97 153
62 97 150
58 93 133
58 93 140
60 95 146
60 95 141
61 97 152
61 97 154
60 96 150
59 94 138
60 95 139
60 95 143
60 96 151
60 96 148
60 95 142
60 96 153
61 97 150
61 97 150
62 97 148
61 96 153
62 97 156
61 96 152
61 96 153
60 96 149
60 95 144
60 96 148
61 96 153
61 97 154
59 94 144
59 95 145
61 96 147
60 95 140
61 96 144
61 96 150
60 95 139
60 95 146
61 97 148
61 97 154
60 96 151
60 96 151
61 97 152
59 95 144
60 95 145
60 95 147
61 97 150
61 96 151
61 96 147
61 96 149
61 96 151
61 97 148
61 96 145
60 96 144
59 94 136
62 97 144
62 98 157
60 96 144
61 97 150
61 96 144
60 95 143
61 96 147
62 97 157
60 95 144
60 96 152
62 98 151
62 97 155
60 96 142
61 97 147
63 99 161
61 96 148
61 96 145
61 96 143
60 95 142
61 97 151
61 96 142
60 96 148
61 96 143
61 97 150
62 97 147
61 96 147
61 96 142
60 96 143
59 94 131
61 96 147
62 97 151
61 97 144
61 97 147
62 97 153
61 97 150
60 95 148
62 97 151
60 95 136
61 96 142
60 95 130
60 94 134
61 96 140
61 96 148
61 96 153
61 96 144
61 95 134
60 95 141
61 96 142
61 96 147
60 95 139
60 95 135
60 95 136
59 94 136
59 93 134
61 96 149
61 96 142
62 97 150
60 94 134
60 94 139
60 94 133
60 94 133
59 92 135
59 92 134
59 93 129
58 92 121
58 91 117
59 93 133
57 89 113
77 101 101
103 118 68
111 120 18
121 133 0
109 117 0
121 132 0
122 132 0
111 122 0
117 128 0
115 121 0
110 118 0
122 129 0
120 130 0
114 121 0
120 129 0
114 121 0
115 124 0
115 119 0
107 114 0
114 121 0
116 123 0
111 116 0
110 116 0
121 128 0
113 120 0
127 133 0
114 120 0
106 111 0
106 112 0
119 123 0
117 121 0
120 124 0
125 131 0
122 127 0
111 113 0
113 118 0
120 124 0
116 119 0
108 111 0
111 115 0
125 129 0
105 110 0
132 141 0
121 124 0
116 119 0
114 114 0
118 122 0
133 136 0
119 120 0
120 121 0
128 130 0
120 125 0
114 115 0
122 124 0
126 133 0
121 122 0
122 123 0
115 118 0
130 133 0
121 121 0
129 128 0
122 126 0
126 129 0
125 127 0
138 140 0
127 131 0
129 130 0
131 135 0
134 138 0
131 136 0
142 148 0
131 135 0
136 139 0
136 144 0
136 142 0
135 140 0
140 143 0
141 147 0
131 137 0
147 154 0
133 138 0
144 150 0
136 140 0
145 152 0
145 154 0
143 149 0
149 156 0
143 151 0
146 154 0
147 158 0
147 155 0
151 160 0
148 156 0
143 150 0
149 159 0
148 157 0
148 155 0
150 162 0
150 160 0
153 160 0
151 160 0
151 162 0
153 165 0
150 162 0
153 165 0
149 158 0
155 166 0
154 164 0
155 167 0
149 160 0
156 169 0
159 173 0
158 170 0
156 170 0
156 168 0
155 167 0
152 164 0
152 166 0
159 173 0
157 171 0
158 171 0
160 174 0
154 169 0
159 173 0
163 180 0
161 179 0
158 172 0
164 180 0
163 179 0
164 182 0
160 177 0
165 183 0
162 177 0
164 180 0
162 178 0
163 181 0
167 184 0
163 180 0
165 183 0
163 182 0
164 182 0
165 183 0
163 180 0
168 187 0
160 178 0
174 198 102
178 201 111
176 199 111
177 200 80
172 195 76
171 195 62
177 200 76
173 197 76
175 199 72
172 196 76
173 196 51
177 200 76
172 196 67
172 196 80
174 198 88
173 197 62
173 197 84
175 199 92
172 196 62
173 198 80
172 197 80
173 197 80
170 194 57
173 198 72
174 198 76
171 195 76
173 197 80
169 192 72
170 194 57
172 196 62
174 198 95
172 197 84
170 193 72
173 198 62
169 192 44
169 192 76
168 192 62
173 197 88
167 191 72
171 195 62
174 198 76
171 195 84
170 193 99
173 196 72
173 197 72
168 191 44
173 196 84
173 197 62
173 196 62
169 193 80
169 192 57
171 194 57
170 193 51
167 192 44
169 194 84
169 192 62
172 196 67
173 196 67
175 199 92
174 198 80
169 192 80
169 193 76
169 193 88
170 194 84
171 195 76
172 196 80
173 197 80
167 191 80
169 192 92
169 193 86
165 188 90
157 182 99
146 170 105
136 161 108
131 155 126
115 140 125
93 122 150
102 128 151
89 117 143
95 123 154
97 125 149
105 132 147
93 120 137
95 124 155
96 123 145
89 118 153
92 120 153
94 121 135
93 122 159
91 119 146
93 121 147
94 122 150
82 112 148
90 119 146
91 120 141
84 115 160
92 121 159
92 120 156
88 118 163
91 121 164
86 116 164
95 123 169
100 128 173
88 117 169
84 114 166
92 121 164
88 117 170
87 116 167
75 108 166
74 107 163
82 113 178
78 109 168
73 105 169
72 104 162
71 105 173
69 103 171
73 105 160
76 108 166
67 101 157
61 95 150
60 95 153
65 99 155
69 103 163
64 98 156
63 97 152
64 98 149
66 99 151
63 97 150
61 96 153
63 98 150
64 98 145
60 96 155
60 96 153
61 97 159
61 97 155
64 98 143
64 98 146
59 94 140
58 92 129
58 93 135
59 95 153
59 94 142
61 96 151
59 94 140
62 98 158
59 94 139
60 95 148
60 95 146
60 96 155
61 96 153
60 95 144
60 96 144
60 95 145
61 97 151
61 97 151
59 94 141
61 96 158
61 95 144
60 95 142
62 97 154
59 94 140
61 96 155
60 95 134
61 96 144
61 96 143
62 98 160
61 96 149
61 97 149
61 96 149
61 96 143
61 96 141
62 97 152
61 96 150
61 97 147
60 96 142
61 97 153
61 96 148
61 97 151
60 95 145
60 96 145
61 96 145
62 97 149
61 97 151
60 96 148
61 97 150
60 95 141
61 96 147
62 97 148
62 97 152
60 95 134
61 96 147
62 98 158
60 95 144
62 97 151
60 94 137
61 96 145
60 95 144
61 97 151
60 95 145
62 98 153
61 97 149
61 96 143
59 94 137
61 96 149
60 95 146
62 97 143
60 95 148
61 96 144
61 96 144
60 95 140
62 97 151
61 96 151
60 95 137
61 97 151
60 95 140
61 97 153
60 96 147
60 95 140
61 96 142
61 96 148
61 97 144
61 97 149
59 94 133
59 93 136
61 97 149
60 95 139
60 95 137
61 95 139
59 93 128
59 93 133
61 96 143
60 95 140
61 96 140
61 97 150
60 94 135
60 94 137
59 94 126
60 95 143
60 95 134
60 94 134
60 94 134
60 95 141
59 93 131
58 92 126
61 96 137
59 93 129
60 94 133
58 92 122
59 93 131
59 93 130
58 92 123
58 90 118
58 91 128
60 94 131
62 91 104
94 114 96
111 124 40
108 117 0
112 122 0
130 138 0
127 139 0
118 128 0
116 126 0
105 114 0
128 138 0
124 131 0
119 128 0
115 123 0
124 135 0
121 130 0
124 132 0
118 124 0
131 141 0
119 127 0
123 130 0
129 138 0
120 127 0
113 123 0
115 119 0
125 131 0
115 122 0
112 118 0
121 125 0
110 116 0
113 121 0
116 122 0
119 125 0
111 113 0
117 123 0
116 117 0
110 115 0
117 122 0
117 122 0
124 131 0
122 126 0
111 115 0
129 136 0
124 129 0
129 137 0
117 122 0
115 120 0
112 117 0
136 140 0
122 125 0
129 133 0
121 123 0
115 117 0
119 121 0
121 123 0
125 130 0
129 134 0
131 136 0
132 135 0
121 122 0
131 138 0
130 132 0
128 132 0
134 139 0
131 133 0
138 144 0
131 133 0
133 141 0
139 149 0
130 134 0
132 136 0
137 139 0
139 144 0
144 148 0
143 149 0
144 150 0
146 153 0
137 142 0
143 149 0
150 159 0
139 147 0
145 151 0
142 148 0
141 145 0
141 148 0
143 150 0
151 161 0
144 154 0
142 149 0
148 156 0
143 152 0
140 146 0
148 157 0
149 159 0
146 152 0
152 161 0
138 147 0
150 160 0
151 159 0
147 159 0
155 166 0
157 167 0
150 160 0
155 168 0
158 172 0
153 164 0
151 164 0
159 170 0
156 165 0
158 170 0
154 165 0
151 165 0
157 169 0
154 169 0
159 171 0
150 162 0
159 174 0
152 165 0
163 178 0
157 173 0
162 177 0
160 175 0
164 180 0
164 181 0
162 178 0
162 178 0
157 172 0
161 176 0
160 177 0
157 173 0
158 172 0
162 176 0
160 175 0
163 179 0
161 177 0
165 182 0
165 181 0
161 178 0
168 184 0
164 181 0
164 183 0
162 178 0
163 180 0
166 186 0
162 178 0
167 187 0
174 197 80
176 199 92
172 196 80
178 201 99
172 196 62
173 197 62
173 197 102
177 200 84
176 199 84
175 198 72
175 199 80
175 198 67
173 198 80
174 198 76
173 197 57
172 196 72
172 195 80
175 199 84
173 197 72
173 197 80
173 196 67
175 198 62
176 199 62
174 197 62
172 195 62
173 197 88
172 196 84
174 197 62
170 193 80
172 196 76
173 197 80
168 191 57
173 196 44
172 195 72
173 197 80
172 197 84
172 196 62
171 194 51
171 194 62
173 197 72
169 193 51
166 190 62
171 195 80
169 192 80
172 196 67
170 194 84
171 194 62
171 195 88
172 196 76
169 193 72
169 193 92
169 193 76
166 189 76
167 190 72
173 195 44
172 195 76
168 191 62
168 191 57
171 194 62
168 192 72
167 191 57
175 198 95
166 190 72
168 192 57
175 198 72
170 194 80
169 193 84
172 196 76
166 187 76
170 194 74
162 185 62
156 179 97
149 172 94
147 170 110
136 161 124
123 148 118
103 131 159
83 112 137
107 134 145
90 119 150
97 126 155
91 119 129
93 122 158
88 117 155
100 127 154
92 121 153
103 130 160
106 133 152
105 132 166
102 129 149
94 121 157
99 126 159
95 123 155
99 126 153
99 126 167
97 125 158
99 127 167
83 113 159
91 120 160
96 123 147
79 111 161
103 130 169
89 118 166
102 129 171
93 121 165
79 110 158
87 117 176
94 122 169
78 110 160
81 112 167
83 114 167
81 112 164
72 105 167
74 107 172
71 105 163
73 106 166
68 102 161
70 103 162
73 105 163
68 103 166
63 97 151
64 99 163
64 98 155
64 99 154
65 99 162
67 101 160
67 100 151
60 96 150
60 95 150
60 96 150
60 95 146
60 95 144
59 95 142
64 98 144
59 94 145
62 96 145
60 95 144
60 95 149
61 96 149
59 94 140
62 95 140
58 94 144
59 94 143
61 97 148
61 96 143
61 96 147
59 94 140
60 95 153
62 97 156
60 96 154
61 96 150
61 96 150
61 97 151
60 95 140
60 95 147
61 96 149
60 95 145
60 95 148
60 96 148
62 97 151
61 97 155
60 95 142
60 96 150
62 97 148
61 97 151
60 95 147
62 97 151
60 96 147
61 96 151
61 97 152
61 97 159
62 97 153
60 96 150
61 96 150
61 96 145
60 96 144
61 97 148
60 94 133
61 97 150
61 96 143
62 97 155
61 97 148
61 96 150
61 96 144
62 98 156
62 98 155
61 97 150
61 96 141
61 96 147
61 96 137
61 96 143
60 96 149
61 96 150
61 96 144
61 96 150
61 96 147
61 96 140
60 95 139
60 95 140
60 95 144
61 96 142
61 96 150
60 96 144
61 96 149
61 96 149
61 96 142
61 97 152
61 96 142
61 97 145
61 97 152
60 95 141
62 97 148
62 98 150
61 96 145
61 96 136
62 97 148
62 97 152
60 95 143
60 95 140
61 96 143
62 98 155
61 96 148
59 94 137
60 95 135
62 97 150
61 97 147
61 96 145
60 95 140
60 95 141
61 97 141
60 95 137
59 94 136
61 96 143
60 95 139
61 96 139
60 95 145
59 94 137
61 96 142
59 93 130
60 94 133
59 93 135
61 96 143
59 93 129
60 94 134
59 93 129
60 94 120
59 93 130
59 93 128
60 94 129
59 92 134
59 94 133
58 92 125
58 92 125
57 89 118
75 103 120
103 119 48
114 123 25
113 123 0
114 124 0
113 122 0
128 139 0
119 130 0
126 134 0
114 124 0
126 135 0
116 125 0
114 124 0
113 123 0
103 111 0
119 127 0
115 124 0
114 122 0
122 130 0
122 130 0
117 124 0
109 115 0
112 119 0
119 127 0
119 127 0
114 123 0
122 130 0
116 123 0
117 125 0
110 115 0
126 135 0
116 123 0
116 122 0
126 132 0
114 119 0
116 124 0
125 132 0
113 117 0
121 126 0
117 122 0
113 117 0
105 107 0
114 119 0
108 112 0
112 118 0
123 131 0
116 120 0
119 125 0
121 126 0
127 134 0
130 136 0
124 129 0
126 130 0
125 130 0
120 121 0
112 117 0
136 140 0
121 125 0
126 130 0
119 124 0
121 125 0
136 139 0
135 141 0
119 122 0
136 140 0
128 134 0
142 148 0
145 150 0
131 137 0
140 145 0
128 134 0
144 149 0
141 145 0
134 138 0
135 140 0
135 138 0
134 141 0
138 145 0
140 147 0
146 153 0
145 155 0
139 145 0
140 149 0
144 151 0
140 146 0
144 154 0
148 155 0
139 149 0
151 161 0
145 154 0
148 156 0
146 155 0
141 149 0
146 155 0
151 162 0
151 163 0
154 162 0
151 159 0
151 164 0
157 169 0
148 157 0
154 167 0
156 169 0
154 164 0
148 156 0
157 171 0
155 168 0
159 171 0
161 175 0
163 179 0
159 175 0
156 170 0
156 170 0
150 161 0
155 165 0
156 169 0
163 178 0
161 175 0
161 176 0
168 185 0
156 169 0
156 171 0
158 172 0
158 172 0
159 177 0
158 173 0
159 175 0
162 178 0
166 184 0
161 177 0
159 174 0
161 178 0
169 188 0
161 177 0
162 178 0
159 175 0
157 173 0
166 184 0
164 183 0
162 179 0
164 182 0
167 183 0
168 184 0
166 185 0
167 185 0
165 185 0
177 200 95
170 194 67
175 199 67
171 194 67
176 200 80
177 200 57
173 197 80
173 196 67
175 198 84
172 196 51
174 198 57
174 197 84
173 197 51
171 196 67
172 195 67
172 195 67
176 199 62
174 197 62
169 192 57
175 199 67
173 196 76
173 197 72
173 198 95
174 197 67
173 196 76
174 196 88
172 195 72
171 195 62
171 195 67
169 192 76
169 192 44
172 197 76
172 197 84
175 198 80
171 195 80
171 194 67
170 194 76
168 192 76
170 194 80
171 195 76
170 194 72
173 197 76
173 196 84
172 196 88
168 192 76
171 195 72
172 197 95
171 194 62
169 193 80
169 193 92
171 194 62
171 196 92
171 194 76
167 191 72
166 189 84
169 192 72
172 196 84
170 194 72
169 192 67
169 192 57
170 194 72
170 194 72
167 191 62
169 192 67
169 193 88
169 193 72
167 190 67
169 193 72
170 193 72
167 190 67
173 197 88
165 188 86
148 171 95
151 175 124
135 160 115
121 147 113
119 145 118
96 124 141
92 122 152
100 128 149
100 128 145
102 130 160
87 116 140
102 129 148
107 134 156
99 126 150
83 112 154
94 122 144
83 114 145
84 113 149
102 128 151
102 129 161
96 125 159
97 125 155
92 120 152
88 117 145
100 127 150
89 118 154
101 128 151
87 117 160
90 118 151
88 118 157
82 112 161
79 110 161
96 124 176
85 115 156
80 110 159
78 110 172
81 112 176
75 107 158
83 114 164
68 102 163
76 107 163
75 107 164
76 108 165
73 105 170
68 102 162
68 102 166
71 104 160
71 103 151
72 104 167
69 102 155
66 99 152
64 99 162
76 107 160
67 100 158
60 95 141
66 100 149
62 97 147
63 97 145
62 97 147
65 99 146
60 95 146
59 94 143
61 96 145
61 96 148
61 96 149
59 93 144
59 94 145
61 97 148
60 95 145
60 95 149
58 93 133
60 95 147
59 94 142
60 95 145
61 96 153
60 95 148
60 96 149
60 95 136
60 96 147
60 95 143
61 96 147
61 96 154
60 95 142
60 95 147
60 96 147
60 96 149
61 97 149
62 98 160
61 96 148
60 96 142
60 95 150
61 97 150
61 97 153
61 96 150
61 97 152
60 95 140
61 96 147
61 97 147
60 96 149
60 96 147
61 97 153
61 97 151
60 95 142
61 96 148
61 96 149
61 97 148
61 97 151
61 96 139
61 96 149
60 96 143
61 96 149
61 96 148
60 96 149
60 96 151
62 97 153
61 97 154
62 97 151
62 97 152
61 97 151
62 97 155
61 96 144
61 96 147
61 96 145
61 96 149
60 96 143
62 97 151
62 98 155
61 97 154
61 96 142
61 96 147
60 95 139
61 96 147
61 97 156
61 96 147
60 94 131
60 95 142
60 95 145
62 97 149
60 95 135
61 95 145
60 96 142
61 97 148
59 93 124
60 94 129
61 96 144
60 96 143
61 96 142
60 95 133
60 95 141
60 95 137
61 95 139
61 97 150
60 95 137
60 94 135
60 95 137
60 95 137
61 96 140
60 94 139
59 93 133
59 94 131
60 94 125
60 95 139
58 92 137
60 94 142
60 94 137
60 95 147
60 93 128
59 93 137
58 92 120
60 95 134
59 94 121
60 94 129
59 93 130
59 94 133
60 94 135
57 90 122
60 94 133
59 92 124
59 93 118
58 92 119
59 92 124
60 90 113
87 108 89
117 131 47
123 134 0
115 126 0
114 126 0
126 134 0
118 126 0
107 119 0
115 124 0
113 123 0
117 126 0
121 131 0
116 125 0
118 130 0
108 117 0
120 128 0
115 124 0
122 130 0
115 125 0
108 115 0
114 122 0
119 125 0
123 130 0
122 132 0
114 121 0
121 127 0
120 126 0
125 132 0
106 115 0
121 130 0
122 130 0
125 133 0
126 131 0
113 121 0
118 123 0
112 121 0
115 118 0
124 132 0
128 136 0
120 126 0
116 120 0
120 124 0
125 133 0
119 126 0
123 127 0
121 126 0
117 120 0
126 131 0
117 120 0
122 130 0
122 125 0
114 119 0
122 124 0
128 134 0
125 130 0
132 137 0
135 140 0
125 129 0
133 140 0
134 140 0
124 130 0
130 132 0
129 134 0
134 141 0
123 127 0
140 146 0
126 130 0
132 138 0
138 145 0
141 146 0
139 143 0
132 137 0
136 143 0
133 139 0
139 144 0
136 142 0
129 134 0
133 139 0
141 146 0
144 155 0
137 143 0
141 149 0
137 147 0
146 154 0
143 151 0
144 146 0
145 153 0
132 137 0
156 167 0
140 149 0
147 156 0
140 150 0
150 160 0
152 161 0
153 164 0
157 169 0
149 156 0
146 156 0
150 161 0
157 171 0
149 159 0
147 158 0
155 166 0
158 170 0
157 171 0
149 161 0
161 175 0
157 170 0
157 170 0
161 174 0
154 166 0
156 168 0
150 161 0
157 169 0
155 168 0
158 175 0
159 174 0
160 176 0
161 178 0
161 175 0
162 177 0
165 179 0
159 175 0
163 179 0
162 177 0
157 173 0
159 174 0
163 178 0
160 174 0
162 176 0
161 177 0
164 181 0
165 182 0
166 182 0
158 173 0
167 184 0
163 179 0
161 176 0
166 183 0
159 175 0
166 186 0
163 181 0
164 183 0
163 181 0
163 180 0
168 186 0
177 200 84
175 199 95
173 196 62
170 194 72
174 198 80
168 192 36
172 197 95
175 199 80
173 196 76
171 195 72
175 199 72
173 197 57
170 193 51
171 194 57
171 195 67
173 198 95
176 199 88
172 196 80
172 197 72
170 194 84
170 195 62
172 196 84
169 193 92
173 196 76
172 196 51
172 196 84
173 197 80
173 197 88
172 196 72
173 197 80
169 192 76
169 193 76
173 196 67
175 198 62
171 195 67
172 196 76
171 195 62
174 198 92
167 190 72
168 192 62
173 197 76
171 195 76
172 196 62
168 191 67
169 193 84
169 193 72
169 193 57
171 195 72
171 195 84
170 193 57
169 193 76
167 190 67
169 193 72
170 194 84
167 191 51
170 194 88
171 195 92
170 193 80
169 193 88
171 196 92
170 194 80
173 196 88
166 190 92
167 191 62
167 190 62
167 190 72
168 193 62
165 188 84
169 192 62
171 194 62
166 190 76
162 186 62
163 187 78
148 171 92
143 168 105
131 156 114
113 140 140
108 135 135
77 108 142
93 121 143
94 122 156
99 126 151
92 120 153
102 130 154
99 126 150
94 122 153
96 124 153
101 129 150
94 122 154
92 120 159
107 134 150
96 124 151
99 127 153
96 123 140
98 125 153
93 122 151
92 119 155
90 119 155
98 125 154
96 123 149
83 114 161
88 116 159
85 115 157
92 121 162
84 115 163
79 111 162
91 119 168
74 107 160
83 114 159
79 110 163
89 118 168
80 112 165
86 116 170
67 101 159
67 101 162
73 105 169
74 106 160
67 101 158
76 108 168
69 103 168
63 98 165
84 114 175
65 100 154
64 98 154
67 100 157
70 103 158
64 97 152
71 103 158
68 101 150
64 97 138
64 98 149
65 100 158
61 95 148
59 94 147
58 92 132
62 97 144
60 96 155
62 97 148
60 96 153
59 93 141
60 96 145
60 95 143
57 92 134
60 96 145
60 95 147
60 94 145
59 93 137
60 95 140
59 93 136
61 97 151
60 95 139
60 95 142
60 96 145
60 95 148
59 94 136
61 96 144
60 95 139
61 97 152
60 96 156
60 95 144
61 97 148
61 97 149
60 95 140
60 95 148
60 95 140
60 95 140
60 96 143
60 96 143
59 94 137
62 98 155
59 94 142
61 96 144
61 97 155
62 97 152
59 94 140
62 97 154
61 96 142
60 96 147
60 96 142
60 95 139
61 97 154
60 95 141
60 95 145
62 97 148
61 96 148
63 98 153
60 95 145
61 96 147
61 97 154
61 97 149
61 96 139
61 97 150
60 95 144
61 96 144
61 96 149
60 95 145
61 95 134
61 96 148
61 95 140
61 97 150
62 97 155
61 96 143
60 95 151
61 96 149
60 94 142
61 97 149
61 97 152
60 95 136
60 95 139
60 95 141
61 96 142
62 98 152
61 96 148
61 96 143
59 94 136
60 95 141
60 95 140
61 97 148
61 96 147
61 96 144
61 97 144
61 96 140
61 96 143
60 94 140
60 95 139
59 93 130
61 96 140
60 95 140
60 95 137
60 95 131
61 96 142
59 93 133
59 93 128
61 96 144
61 96 139
59 93 120
59 93 130
59 94 129
60 95 134
60 94 123
58 92 130
59 94 134
59 94 126
60 94 130
60 94 134
61 95 137
59 93 129
59 93 124
59 93 134
58 91 131
57 91 115
58 91 122
57 90 118
70 94 102
92 108 71
116 128 36
121 132 0
119 132 0
116 123 0
112 123 0
113 123 0
109 119 0
131 140 0
119 129 0
117 127 0
122 130 0
128 140 0
118 131 0
109 119 0
119 129 0
117 126 0
108 115 0
112 121 0
120 129 0
116 126 0
124 132 0
121 129 0
133 142 0
110 115 0
121 128 0
122 126 0
121 128 0
113 122 0
129 140 0
125 136 0
124 133 0
117 122 0
119 122 0
129 136 0
128 135 0
121 127 0
125 132 0
117 126 0
119 124 0
114 118 0
119 120 0
125 131 0
119 124 0
116 120 0
125 130 0
127 133 0
127 133 0
131 138 0
134 142 0
129 138 0
119 124 0
124 129 0
125 129 0
124 130 0
135 141 0
124 127 0
125 131 0
136 145 0
129 136 0
132 139 0
129 133 0
135 143 0
140 145 0
139 145 0
131 134 0
129 133 0
128 135 0
136 142 0
137 140 0
143 152 0
137 142 0
137 141 0
137 143 0
146 152 0
143 150 0
146 151 0
140 147 0
144 150 0
146 155 0
137 146 0
144 152 0
148 155 0
145 155 0
145 154 0
135 142 0
143 153 0
144 153 0
139 147 0
156 165 0
151 163 0
151 161 0
151 160 0
152 162 0
143 151 0
152 164 0
151 161 0
147 156 0
156 167 0
153 167 0
148 158 0
153 164 0
156 167 0
150 160 0
152 165 0
154 167 0
151 161 0
151 163 0
150 161 0
150 162 0
157 168 0
153 167 0
155 166 0
158 171 0
157 170 0
157 172 0
162 175 0
159 174 0
160 175 0
160 175 0
159 174 0
157 173 0
159 174 0
159 174 0
165 181 0
155 171 0
158 174 0
161 175 0
161 175 0
163 179 0
164 180 0
163 182 0
161 178 0
159 176 0
167 185 0
165 181 0
165 182 0
167 183 0
162 182 0
163 180 0
163 181 0
166 183 0
165 182 0
166 186 0
161 177 0
164 182 0
175 198 67
174 197 76
172 195 80
174 198 72
172 196 76
170 194 57
172 195 36
172 195 57
172 196 76
172 196 88
172 195 67
173 197 67
172 196 80
171 195 84
175 200 105
175 199 76
168 191 72
171 195 76
171 195 84
171 195 51
172 196 67
173 197 72
171 195 76
174 199 99
170 194 76
171 195 80
172 195 62
172 195 80
169 192 72
172 195 72
169 193 72
171 195 62
169 192 88
167 192 67
174 197 67
167 191 62
168 193 72
167 191 51
171 195 72
165 189 84
169 193 57
172 197 92
170 194 72
166 190 67
170 194 72
169 192 51
172 196 80
169 193 67
170 193 62
168 192 57
172 196 88
168 192 72
170 194 62
171 194 92
169 193 72
168 192 51
167 190 84
168 192 95
167 191 51
171 195 67
171 195 72
169 193 67
168 192 72
171 195 80
170 194 76
173 196 51
169 192 84
168 192 84
168 192 62
169 192 84
169 193 88
169 192 80
163 186 78
157 180 88
137 161 110
140 164 117
132 157 121
108 134 121
96 124 135
96 124 150
91 119 148
85 114 145
88 118 157
110 137 159
94 121 138
90 117 146
88 117 146
95 123 152
105 132 153
96 123 161
96 125 151
101 128 147
101 128 150
111 137 173
96 123 149
100 128 162
84 114 151
103 130 151
101 127 159
94 123 150
100 127 161
108 134 161
95 123 162
105 132 159
101 128 157
94 122 168
92 120 164
91 120 166
84 114 167
79 110 160
84 114 163
76 108 161
74 106 168
74 106 164
85 114 152
80 110 159
74 106 163
77 108 170
84 114 175
70 102 156
67 101 157
75 106 162
64 98 152
69 102 166
68 101 155
61 96 152
66 99 154
66 100 150
67 100 156
62 98 159
60 95 143
62 97 148
60 95 150
67 99 149
63 98 150
60 95 147
60 95 147
59 94 136
59 94 149
62 96 145
63 97 147
60 95 153
59 93 145
60 95 149
60 96 143
62 96 138
60 95 139
59 94 137
60 96 147
60 95 141
60 95 145
59 93 131
60 96 147
60 96 146
60 96 147
60 95 147
60 95 140
61 96 153
60 95 141
60 95 148
59 94 143
61 96 150
61 96 147
62 97 147
60 95 145
61 97 147
60 95 140
60 95 143
61 95 142
60 95 145
61 96 145
59 94 139
59 95 142
61 96 152
61 97 150
61 97 154
62 97 145
59 93 139
60 95 141
60 96 142
60 95 136
61 97 153
61 96 142
61 96 145
62 98 160
60 95 139
62 98 154
61 96 143
61 96 144
61 96 140
61 96 147
59 94 139
61 96 142
59 94 134
60 95 142
60 95 143
60 95 134
61 96 150
60 95 136
61 96 142
60 95 148
61 96 145
61 97 145
62 97 142
61 97 152
61 96 140
61 95 139
61 96 150
61 96 142
62 97 148
59 94 135
60 95 135
62 97 157
61 96 147
61 96 144
61 96 140
60 95 134
60 95 142
60 95 143
60 95 137
60 95 133
62 97 151
60 95 140
60 96 139
60 95 139
61 96 142
59 94 129
60 95 141
61 95 136
59 93 139
60 94 130
60 95 135
59 94 134
61 95 140
59 94 134
60 95 139
58 92 118
59 94 139
60 94 136
57 91 113
59 93 126
60 94 130
60 94 133
58 92 124
60 95 134
57 91 124
59 94 124
59 93 125
59 92 132
58 91 117
60 94 130
59 92 129
56 89 115
94 113 81
119 132 31
113 122 0
117 128 0
115 126 0
112 122 0
121 133 0
125 137 0
120 130 0
123 133 0
125 137 0
120 129 0
118 130 0
114 124 0
125 135 0
114 123 0
120 130 0
130 141 0
119 130 0
121 132 0
112 120 0
114 125 0
124 134 0
128 137 0
117 125 0
116 122 0
124 135 0
124 134 0
102 107 0
129 138 0
112 120 0
126 132 0
112 121 0
126 133 0
122 130 0
127 137 0
130 139 0
122 128 0
124 130 0
122 128 0
123 129 0
126 136 0
126 132 0
119 127 0
120 125 0
122 127 0
128 134 0
114 121 0
123 132 0
129 135 0
119 127 0
124 127 0
128 132 0
125 132 0
125 131 0
127 133 0
133 140 0
132 135 0
138 145 0
137 146 0
124 130 0
136 143 0
131 138 0
130 137 0
128 133 0
138 144 0
139 147 0
133 137 0
130 136 0
143 150 0
140 145 0
136 143 0
143 151 0
133 141 0
133 141 0
136 146 0
139 146 0
147 155 0
139 147 0
139 146 0
144 149 0
145 151 0
142 148 0
149 156 0
144 154 0
143 151 0
149 160 0
147 158 0
147 157 0
151 161 0
154 165 0
139 147 0
156 167 0
149 160 0
153 164 0
148 158 0
143 154 0
152 163 0
155 168 0
155 165 0
148 160 0
152 162 0
158 170 0
161 176 0
152 165 0
158 170 0
150 159 0
160 173 0
149 160 0
160 174 0
153 164 0
159 174 0
155 168 0
157 169 0
156 170 0
157 172 0
152 165 0
162 174 0
154 167 0
163 179 0
158 171 0
164 181 0
161 175 0
161 176 0
157 173 0
161 179 0
169 185 0
161 179 0
165 180 0
166 183 0
161 179 0
167 184 0
162 178 0
163 182 0
161 176 0
160 177 0
163 182 0
167 182 0
161 178 0
162 182 0
165 183 0
167 185 0
166 183 0
163 180 0
165 183 0
163 182 0
166 183 0
174 198 88
173 196 84
171 195 57
172 196 72
176 199 76
169 193 67
174 198 67
172 196 57
173 196 76
173 196 76
175 199 76
173 196 62
174 197 67
175 198 88
171 195 62
175 198 57
169 193 44
173 196 76
172 196 76
172 194 62
171 194 72
172 196 62
170 194 72
171 194 72
170 194 76
171 196 76
168 193 88
171 196 67
173 198 80
172 196 67
170 195 92
172 195 57
171 196 92
172 196 72
173 197 92
170 194 67
168 192 76
171 195 62
171 195 57
172 195 62
166 190 57
171 196 84
164 188 57
168 192 51
170 194 62
171 194 84
169 193 88
168 193 102
168 192 84
167 190 62
172 196 76
173 197 99
169 193 62
168 193 88
168 192 67
165 189 76
170 192 36
164 187 72
169 192 72
167 191 84
168 191 76
165 189 72
168 191 51
170 194 62
167 191 95
170 193 76
168 191 88
170 194 72
167 190 51
169 193 72
167 191 51
168 191 60
162 184 72
156 180 76
147 170 80
134 158 122
123 147 90
112 136 129
112 137 128
107 134 143
91 118 132
95 122 148
91 119 138
108 134 145
89 117 141
98 126 154
82 111 145
93 121 153
85 114 139
100 126 156
95 123 155
101 129 163
92 121 157
93 120 145
96 123 147
84 114 150
96 125 147
94 121 153
100 126 151
94 122 152
96 124 156
85 114 151
96 124 143
84 114 167
94 122 164
85 115 163
98 125 172
104 130 163
83 113 166
81 111 158
81 112 161
78 109 166
80 111 166
87 117 176
77 108 160
72 104 163
71 103 154
73 105 161
68 101 155
68 101 154
66 100 163
69 102 159
73 105 158
63 97 145
71 103 156
62 97 153
66 100 155
66 99 149
61 95 140
69 101 142
66 101 152
63 97 137
62 96 147
61 96 153
61 96 142
62 97 143
61 96 148
60 96 147
64 98 148
59 93 137
62 96 141
59 93 143
59 94 133
62 97 149
60 95 149
59 94 147
60 96 150
60 95 141
58 93 139
60 95 146
62 97 145
60 95 149
60 96 149
60 94 140
60 95 143
60 96 145
61 96 153
60 96 153
61 96 144
61 96 151
61 97 147
60 94 143
61 96 153
59 93 135
61 97 148
60 95 148
60 96 151
61 96 154
61 97 147
62 98 150
61 97 149
59 94 137
59 94 137
61 97 151
59 94 135
61 97 148
62 97 150
62 97 152
61 96 149
60 96 142
62 97 156
62 97 150
61 96 150
61 96 151
60 96 143
61 96 144
62 97 151
59 94 134
60 95 145
60 95 139
59 94 134
61 96 149
60 94 137
60 95 139
59 93 128
62 97 145
61 97 145
60 95 144
60 95 143
61 96 141
60 95 137
60 94 134
60 95 140
60 95 145
62 97 149
60 95 136
60 95 139
61 96 149
61 96 139
60 95 142
60 95 137
60 95 144
61 96 136
60 94 136
62 97 150
60 95 139
60 95 144
61 96 143
60 94 141
60 96 149
61 96 141
60 95 135
60 95 142
61 96 145
60 95 137
60 94 137
62 97 140
61 96 135
61 95 136
61 96 142
60 94 128
60 94 131
59 93 130
60 94 131
58 92 122
60 94 136
59 94 129
59 93 124
59 93 130
60 95 130
59 93 129
59 93 128
59 93 122
59 93 130
60 93 133
58 92 117
58 92 120
61 95 139
61 95 140
57 90 124
57 91 125
57 90 114
78 101 105
106 121 66
121 131 0
126 138 0
126 138 0
121 133 0
126 138 0
118 130 0
113 124 0
109 120 0
116 127 0
126 138 0
116 126 0
123 134 0
111 121 0
132 141 0
119 129 0
119 130 0
125 138 0
119 129 0
120 133 0
124 131 0
123 133 0
120 131 0
113 118 0
119 129 0
121 131 0
123 134 0
120 129 0
118 127 0
114 123 0
122 133 0
126 135 0
124 132 0
115 120 0
123 130 0
136 145 0
120 127 0
127 137 0
116 121 0
123 129 0
121 129 0
123 129 0
123 130 0
123 131 0
136 146 0
117 124 0
120 126 0
131 139 0
133 139 0
117 123 0
123 132 0
119 122 0
125 133 0
132 139 0
128 135 0
133 141 0
134 140 0
131 140 0
130 139 0
132 137 0
137 143 0
126 133 0
128 135 0
139 143 0
132 139 0
132 139 0
133 139 0
144 151 0
132 138 0
138 145 0
137 145 0
143 154 0
140 150 0
143 151 0
137 144 0
142 149 0
141 147 0
149 159 0
134 140 0
146 155 0
138 144 0
142 148 0
149 158 0
141 149 0
151 158 0
143 152 0
156 166 0
148 159 0
140 149 0
149 161 0
137 146 0
148 160 0
152 163 0
149 158 0
153 163 0
147 157 0
155 166 0
149 162 0
152 164 0
151 163 0
157 169 0
150 161 0
159 174 0
157 167 0
148 160 0
157 169 0
160 173 0
155 168 0
152 164 0
156 166 0
159 172 0
153 166 0
155 169 0
157 171 0
156 173 0
161 174 0
160 175 0
162 178 0
156 171 0
163 178 0
156 171 0
161 176 0
159 172 0
161 173 0
163 178 0
163 181 0
160 175 0
159 175 0
164 181 0
164 181 0
157 175 0
163 180 0
161 178 0
161 178 0
165 184 0
166 184 0
161 178 0
162 181 0
166 183 0
164 183 0
164 180 0
165 184 0
166 184 0
164 180 0
165 184 0
167 185 0
165 184 0
171 195 67
173 197 72
175 199 72
171 195 57
176 199 80
168 192 80
173 196 44
172 197 57
176 200 102
176 199 76
174 199 108
171 195 76
170 194 72
169 193 76
174 198 95
172 196 72
172 196 84
169 194 67
176 199 62
169 193 57
171 195 62
173 197 88
172 195 72
173 197 84
170 194 76
170 194 62
173 197 72
168 193 72
170 195 76
170 194 57
167 191 76
170 194 76
172 195 67
170 193 57
167 191 76
170 193 80
175 199 80
168 192 76
171 194 67
168 192 72
170 193 62
173 197 84
169 193 92
168 192 62
170 193 67
171 195 80
167 191 72
168 192 92
166 189 84
171 194 57
168 191 62
163 188 62
167 192 80
168 192 67
167 192 76
167 191 62
169 193 80
166 190 72
170 194 88
168 192 62
171 195 80
167 191 62
166 190 76
170 195 88
165 189 57
165 188 51
167 190 84
166 190 67
166 189 88
166 189 72
166 190 67
168 190 76
168 192 84
163 186 97
151 174 94
150 173 111
137 161 117
123 148 108
109 134 128
95 124 145
97 125 145
84 113 126
93 121 149
94 122 145
83 113 151
95 122 137
94 123 158
93 121 145
103 130 160
89 118 145
92 120 143
91 119 153
101 128 147
93 121 147
92 121 153
103 130 152
89 118 144
80 110 147
95 122 146
88 116 148
91 120 156
90 118 151
88 118 158
86 115 163
98 126 165
95 122 160
99 126 160
79 111 165
90 119 167
76 107 157
77 109 165
88 117 160
86 115 163
72 105 165
71 105 165
74 106 163
82 112 165
78 109 169
74 106 163
66 100 154
71 103 156
83 112 167
67 100 154
71 103 155
68 100 151
65 100 158
62 97 153
66 100 150
67 100 157
65 99 153
62 96 145
62 95 140
63 98 157
64 98 142
61 95 146
61 95 141
62 97 155
59 93 129
61 96 134
60 96 147
61 95 141
60 95 145
64 99 144
60 94 140
60 96 149
61 96 148
60 95 138
59 94 141
59 94 133
60 95 139
59 93 137
60 95 141
59 94 137
60 95 144
60 95 147
60 95 139
60 96 145
61 96 153
59 94 140
61 97 150
61 97 143
61 96 152
60 95 141
60 96 151
60 95 147
61 96 143
61 96 142
60 95 140
60 95 137
61 96 143
62 97 149
60 95 133
61 96 154
60 96 144
61 96 145
59 94 135
61 96 143
60 95 141
61 97 145
62 97 145
62 97 154
60 95 142
60 95 143
60 95 140
60 96 142
60 95 144
60 96 143
60 95 150
58 93 134
60 95 131
60 95 147
60 96 141
61 96 148
62 97 148
59 94 140
59 94 137
60 95 141
61 96 145
61 96 145
61 96 143
60 95 140
61 97 149
61 96 143
59 94 137
60 95 134
59 93 142
59 93 137
60 95 141
60 95 142
61 96 144
59 95 139
61 96 143
61 96 141
61 96 139
61 97 151
60 95 141
61 96 144
61 96 141
60 95 149
60 94 137
61 96 143
60 95 140
61 96 143
60 94 136
59 93 129
59 93 131
60 95 136
60 95 134
60 95 134
61 96 141
60 95 144
62 97 149
61 96 142
57 91 122
59 93 133
60 94 128
61 95 139
59 94 129
60 94 135
60 95 139
58 92 128
60 93 139
58 92 131
60 93 135
59 94 128
60 94 128
58 92 130
60 94 122
56 89 113
59 92 128
59 93 128
63 93 111
91 109 80
106 119 18
116 127 0
131 143 0
124 137 0
121 134 0
125 137 0
111 122 0
115 127 0
121 131 0
126 137 0
118 131 0
136 148 0
121 127 0
120 129 0
125 134 0
110 120 0
110 121 0
128 139 0
112 119 0
121 131 0
129 141 0
130 141 0
132 143 0
119 130 0
129 138 0
128 136 0
129 137 0
126 134 0
120 131 0
111 120 0
126 135 0
128 135 0
125 134 0
131 142 0
118 126 0
115 122 0
122 129 0
134 141 0
126 132 0
130 139 0
127 134 0
123 130 0
118 127 0
129 137 0
119 126 0
117 124 0
132 141 0
131 136 0
124 131 0
130 135 0
124 129 0
133 140 0
134 142 0
126 131 0
119 124 0
129 137 0
128 136 0
135 142 0
133 140 0
120 128 0
125 130 0
131 136 0
132 141 0
137 144 0
138 144 0
131 138 0
133 139 0
129 133 0
138 145 0
135 145 0
142 151 0
137 142 0
132 139 0
144 153 0
141 148 0
146 156 0
141 150 0
142 150 0
142 149 0
136 144 0
146 156 0
143 154 0
139 149 0
150 161 0
145 152 0
147 159 0
151 162 0
150 159 0
146 154 0
141 148 0
146 159 0
148 157 0
143 153 0
154 166 0
148 160 0
152 163 0
151 161 0
147 158 0
142 154 0
153 166 0
152 162 0
151 161 0
158 171 0
160 174 0
155 167 0
151 162 0
151 165 0
154 170 0
156 167 0
155 168 0
150 167 0
151 162 0
153 167 0
159 175 0
161 176 0
157 173 0
158 172 0
152 167 0
152 165 0
159 174 0
155 172 0
157 171 0
159 175 0
157 172 0
163 179 0
158 175 0
158 173 0
158 174 0
161 178 0
159 176 0
167 186 0
160 175 0
164 183 0
160 178 0
160 177 0
166 183 0
160 178 0
162 179 0
164 183 0
165 183 0
166 184 0
163 182 0
165 182 0
163 180 0
166 185 0
159 177 0
164 182 0
173 196 57
172 195 72
171 195 51
175 199 76
173 197 92
174 198 80
175 199 84
170 194 80
172 196 57
172 196 57
174 197 57
174 198 76
171 194 76
175 199 62
176 199 80
175 198 80
172 196 72
168 192 57
171 194 84
175 198 76
168 192 67
169 193 72
174 198 84
172 196 80
174 197 72
169 193 62
172 196 102
172 195 67
169 193 51
166 191 72
170 194 72
167 190 44
168 192 88
169 192 76
167 192 80
172 196 88
171 196 72
168 192 80
167 191 67
175 199 102
169 193 67
167 191 72
167 192 76
170 194 67
164 189 76
170 194 84
172 196 80
169 193 76
172 197 95
165 189 67
169 192 88
172 195 84
171 194 72
168 191 67
168 192 51
172 196 88
166 189 62
164 187 67
164 188 84
165 189 76
166 189 67
163 187 72
171 194 62
164 188 80
162 186 67
168 193 88
167 190 67
169 193 57
171 196 84
164 187 67
161 184 80
164 188 44
164 188 84
163 187 70
160 182 62
150 173 86
132 157 117
126 151 111
118 143 114
100 127 133
95 123 153
101 128 147
99 126 154
91 120 144
82 111 137
98 125 150
93 121 158
98 125 143
88 117 151
88 117 140
98 124 137
97 125 147
96 123 145
93 121 149
105 131 153
91 119 144
88 117 156
93 120 148
90 118 146
91 120 154
99 128 153
91 120 154
102 129 144
87 116 154
87 116 154
83 113 167
88 117 159
99 127 162
87 117 158
92 119 162
79 109 162
85 115 167
87 115 161
71 104 152
77 109 163
77 109 159
74 106 163
67 100 156
76 107 159
79 108 157
68 102 157
72 103 156
77 108 168
65 100 164
68 101 154
61 97 157
67 100 152
62 96 145
62 97 155
65 98 155
66 99 137
58 92 139
59 94 145
68 100 135
68 101 150
60 95 140
63 97 144
59 94 137
59 94 141
59 94 137
59 94 142
59 94 137
60 94 136
60 96 148
63 97 147
58 93 134
61 96 148
59 93 139
59 93 130
59 93 135
60 95 138
59 94 135
59 94 139
59 94 138
59 93 134
60 95 135
60 95 144
59 94 138
60 96 149
60 96 147
60 96 145
60 95 144
60 95 140
60 95 141
60 95 140
60 95 147
60 94 133
60 95 143
60 96 146
61 96 145
61 96 151
60 95 141
61 96 149
60 95 137
61 96 151
61 96 147
61 97 150
61 96 147
61 96 143
60 95 143
61 96 150
59 94 140
60 96 140
62 97 145
61 97 150
61 97 145
61 96 140
60 95 134
62 97 152
60 95 139
62 97 147
60 95 138
59 94 141
61 96 142
61 96 143
61 96 147
59 94 145
61 95 137
61 96 144
61 97 148
61 96 145
60 95 144
61 96 145
61 96 141
60 95 136
61 96 142
60 95 141
60 94 134
60 95 139
61 96 144
60 96 136
60 96 141
60 94 130
60 95 137
61 96 141
59 94 141
60 94 144
61 96 136
60 94 130
59 94 134
60 95 140
60 95 130
59 94 131
61 96 140
61 95 144
58 92 124
60 94 131
59 94 134
60 94 134
60 95 131
62 96 141
59 93 133
60 94 134
60 94 131
60 94 141
60 94 137
59 93 137
60 95 133
60 94 133
60 94 130
59 93 128
60 94 129
60 93 130
59 93 124
59 93 124
57 90 116
57 90 113
58 91 120
58 91 124
57 90 118
57 89 120
78 100 87
101 117 54
113 126 18
119 130 0
116 126 0
112 123 0
120 131 0
122 134 0
120 132 0
119 130 0
116 129 0
108 117 0
123 136 0
123 133 0
129 138 0
126 140 0
117 126 0
119 129 0
131 141 0
124 137 0
131 143 0
127 138 0
128 137 0
125 135 0
120 129 0
128 141 0
121 131 0
120 130 0
126 137 0
127 136 0
132 141 0
116 124 0
119 127 0
121 131 0
124 132 0
129 140 0
128 136 0
141 151 0
122 134 0
130 138 0
121 128 0
121 130 0
117 122 0
127 135 0
127 136 0
133 139 0
126 131 0
136 143 0
134 141 0
131 140 0
121 125 0
138 147 0
130 138 0
127 135 0
125 133 0
131 138 0
138 148 0
145 153 0
125 134 0
134 143 0
136 143 0
136 144 0
130 137 0
134 141 0
134 141 0
133 140 0
145 153 0
136 143 0
133 142 0
139 147 0
131 138 0
134 142 0
137 146 0
126 133 0
148 153 0
136 142 0
145 154 0
142 149 0
134 142 0
148 158 0
140 149 0
148 161 0
149 156 0
147 156 0
140 147 0
150 160 0
147 158 0
153 164 0
148 158 0
150 158 0
151 164 0
153 161 0
152 163 0
150 160 0
138 147 0
156 169 0
146 158 0
149 159 0
148 158 0
156 169 0
152 164 0
152 165 0
156 168 0
160 174 0
150 165 0
155 171 0
154 166 0
155 167 0
159 172 0
152 165 0
154 167 0
163 178 0
158 173 0
157 171 0
156 171 0
154 170 0
154 169 0
159 173 0
164 178 0
160 173 0
158 174 0
157 171 0
159 172 0
168 185 0
159 174 0
161 177 0
162 177 0
160 175 0
157 172 0
157 173 0
166 183 0
161 179 0
164 182 0
161 178 0
160 176 0
164 182 0
162 180 0
162 181 0
161 179 0
167 187 0
164 181 0
167 185 0
164 180 0
164 181 0
166 182 0
162 179 0
166 186 0
168 185 0
167 184 0
174 198 76
173 197 80
169 194 80
169 193 51
174 197 51
172 195 76
173 197 76
176 199 67
167 191 67
173 197 51
173 197 72
176 200 88
170 194 51
173 197 88
172 196 67
170 194 62
171 195 67
172 195 62
172 196 72
173 196 44
169 193 57
173 197 67
171 195 57
169 193 88
174 198 92
172 196 72
171 195 76
172 195 76
173 197 84
170 194 76
172 196 72
172 196 88
170 194 88
170 193 80
172 196 62
172 197 108
168 192 51
171 196 84
169 192 51
170 196 99
169 193 76
170 194 76
171 195 67
164 188 67
169 192 62
170 194 80
169 193 80
166 190 67
168 192 51
166 190 51
165 190 80
169 192 88
168 192 62
170 194 72
167 191 57
167 192 84
172 196 95
167 191 80
168 191 62
166 190 80
174 198 95
164 189 80
165 188 67
165 189 51
166 190 76
161 186 62
163 187 51
167 190 51
165 188 67
168 191 62
162 186 76
161 185 80
166 189 84
162 185 78
167 191 94
154 178 108
139 164 110
132 157 113
120 145 107
107 133 120
84 113 131
87 116 137
93 120 141
86 116 150
89 116 134
96 123 145
91 119 142
96 123 139
91 119 139
83 112 137
104 130 149
99 126 153
89 117 142
98 125 151
95 123 153
94 122 153
88 116 137
95 123 148
85 114 135
94 121 139
83 112 144
100 127 137
87 116 151
94 122 155
98 125 154
84 114 160
97 125 153
76 107 156
88 116 146
92 120 165
94 122 160
93 121 159
91 118 164
82 112 172
88 117 168
79 110 166
78 109 161
85 115 170
78 109 165
74 106 162
78 108 156
74 105 156
74 106 163
70 103 163
77 108 158
69 102 149
63 97 142
68 102 154
70 101 146
65 98 154
68 101 156
67 99 138
68 101 149
63 97 150
67 99 135
63 98 149
63 98 155
63 98 152
65 98 136
58 93 136
60 96 155
62 97 148
59 94 142
59 94 140
62 96 139
59 93 134
59 94 142
59 94 137
60 95 142
61 96 143
61 96 143
60 94 133
61 97 147
60 95 142
59 95 143
60 95 143
59 95 139
59 94 139
60 96 143
60 96 145
59 95 144
60 95 146
58 93 137
61 96 141
61 95 141
60 95 139
61 96 142
61 96 148
60 95 139
61 96 147
60 96 143
61 96 148
61 96 149
61 96 143
60 95 145
59 94 143
61 96 143
61 96 148
60 95 139
62 98 151
60 95 140
61 97 148
60 95 137
61 96 144
61 96 142
61 95 139
61 97 153
60 95 136
61 97 144
61 96 151
61 96 140
60 95 139
60 94 144
60 95 140
61 96 149
59 94 128
60 95 141
60 96 144
61 97 145
60 95 141
61 96 137
60 96 142
59 94 137
60 95 141
60 95 143
59 95 136
59 94 142
61 96 141
59 94 137
60 95 144
61 96 143
61 96 144
61 96 137
58 92 128
60 95 134
60 95 134
61 95 139
60 95 135
60 95 133
60 94 125
61 96 143
59 94 134
61 95 148
61 96 143
60 95 141
61 95 137
61 96 140
61 96 139
59 93 134
61 96 140
59 93 131
60 94 134
60 95 135
58 91 130
60 94 137
58 92 129
59 92 134
58 91 124
58 91 126
60 94 137
58 92 125
59 93 131
61 96 134
57 91 121
58 92 113
58 91 126
59 93 128
58 91 117
59 93 128
58 92 121
68 95 107
90 107 70
108 118 25
121 135 0
119 130 0
128 137 0
122 136 0
122 132 0
113 126 0
120 134 0
122 135 0
121 133 0
123 138 0
121 131 0
109 123 0
122 132 0
124 135 0
112 124 0
117 128 0
133 148 0
116 128 0
129 139 0
120 128 0
125 136 0
126 136 0
121 131 0
120 129 0
125 136 0
119 129 0
127 135 0
123 133 0
126 134 0
116 126 0
124 134 0
124 134 0
124 136 0
116 126 0
115 124 0
121 129 0
123 132 0
125 134 0
132 139 0
125 134 0
137 146 0
130 138 0
134 142 0
122 129 0
128 139 0
135 145 0
129 136 0
127 136 0
131 140 0
135 143 0
128 137 0
137 147 0
131 137 0
131 139 0
130 138 0
139 147 0
134 139 0
133 142 0
135 142 0
137 145 0
139 148 0
129 135 0
138 148 0
123 130 0
137 145 0
143 151 0
133 141 0
131 139 0
142 152 0
143 152 0
147 156 0
139 147 0
141 150 0
136 145 0
138 145 0
150 160 0
135 145 0
139 150 0
147 156 0
141 150 0
145 156 0
144 153 0
145 156 0
154 167 0
146 153 0
147 156 0
144 155 0
144 150 0
150 160 0
154 167 0
156 166 0
155 169 0
147 157 0
155 165 0
149 161 0
151 162 0
142 152 0
154 167 0
154 166 0
155 164 0
162 176 0
155 169 0
153 167 0
153 166 0
152 161 0
156 167 0
149 163 0
157 172 0
152 168 0
156 169 0
157 174 0
157 171 0
157 171 0
154 167 0
155 170 0
159 174 0
164 180 0
158 175 0
162 178 0
159 174 0
158 171 0
163 177 0
157 174 0
158 174 0
162 179 0
161 177 0
161 177 0
165 180 0
162 178 0
162 178 0
164 181 0
163 179 0
162 178 0
167 185 0
162 179 0
163 180 0
165 183 0
168 186 0
163 180 0
166 184 0
160 179 0
161 178 0
164 180 0
168 188 0
167 185 0
160 179 0
166 186 0
171 195 67
173 196 84
174 197 84
175 199 80
174 197 57
171 194 57
172 196 80
172 196 76
174 198 62
171 195 62
174 197 84
172 196 67
174 198 88
173 196 80
173 198 92
166 191 44
172 196 57
173 198 99
170 194 62
170 195 72
173 197 95
168 192 76
173 197 67
171 195 95
172 197 67
171 196 72
172 197 72
173 197 80
168 192 72
171 195 67
172 196 80
169 193 67
170 194 76
167 190 57
173 198 108
169 192 72
167 192 92
169 194 84
172 196 88
169 193 67
169 192 67
170 195 76
171 195 76
171 196 88
170 194 80
168 191 67
168 191 51
168 190 62
171 195 76
164 187 80
171 194 51
169 193 80
169 193 62
167 191 80
168 192 72
170 194 80
170 193 72
166 190 80
163 187 62
163 186 72
166 189 62
168 192 76
160 183 72
167 191 76
164 187 57
164 188 80
163 187 44
169 193 80
167 190 62
166 189 76
168 191 80
159 182 80
165 188 62
168 191 80
164 187 67
159 182 78
145 168 80
137 161 84
133 157 97
115 140 133
95 122 117
92 121 144
90 119 144
98 126 158
102 129 147
96 123 134
91 118 141
100 126 145
94 122 136
89 117 142
93 121 144
101 128 150
90 118 144
92 121 151
95 123 157
96 122 147
99 126 149
92 118 144
92 119 146
95 123 153
96 123 151
104 131 173
83 114 149
94 121 154
89 118 157
93 121 146
86 115 154
79 110 155
104 131 168
83 112 158
81 112 156
98 126 170
92 120 163
86 115 160
92 120 166
77 108 161
82 112 158
76 107 161
71 104 163
73 106 157
61 96 157
72 104 154
68 101 161
68 102 160
70 102 157
66 99 151
66 100 155
69 101 156
65 98 153
64 98 154
63 97 157
76 106 147
62 96 144
65 98 150
64 97 140
64 97 147
61 96 146
63 97 135
65 99 148
62 97 151
60 95 143
64 98 158
60 94 143
59 94 147
59 93 131
59 94 137
64 96 129
61 96 147
63 97 148
60 95 145
60 95 144
60 95 148
59 94 140
60 95 147
61 97 154
61 96 145
59 94 143
60 95 146
61 96 148
60 95 139
59 94 137
60 95 147
60 95 140
59 94 137
59 94 128
60 95 140
60 95 143
60 96 150
59 94 130
60 95 145
59 94 141
61 96 149
62 97 154
62 97 152
60 95 141
61 96 142
61 96 144
59 94 135
59 94 139
62 97 150
61 95 143
60 95 140
60 95 142
61 96 148
61 96 144
62 97 150
60 95 135
60 95 135
61 97 143
60 95 139
60 95 139
62 97 154
60 95 134
60 95 142
58 93 136
60 95 134
60 95 135
60 95 143
60 95 141
60 94 141
59 93 126
62 97 148
61 97 144
60 95 137
61 96 144
60 95 134
60 95 141
61 95 134
59 93 124
60 95 133
60 95 141
61 96 141
60 95 139
59 94 135
61 95 136
61 95 136
60 95 137
63 98 154
60 95 134
59 94 129
59 94 141
60 94 133
59 94 134
60 94 128
60 95 131
60 94 128
59 94 139
61 96 140
61 96 142
59 94 129
59 93 133
60 95 135
59 92 124
59 94 133
59 94 129
61 96 137
59 93 131
59 93 125
59 92 115
62 96 142
57 90 117
59 93 124
59 93 128
58 92 120
59 93 123
59 93 126
59 93 126
59 92 126
58 92 119
59 90 100
89 110 94
109 124 40
121 133 0
110 122 0
115 128 0
117 130 0
117 128 0
116 129 0
112 125 0
121 135 0
118 131 0
129 142 0
130 140 0
122 135 0
118 129 0
112 122 0
128 141 0
117 127 0
124 137 0
128 139 0
125 138 0
123 133 0
134 147 0
117 129 0
118 128 0
122 133 0
123 134 0
133 145 0
121 132 0
130 140 0
122 134 0
126 138 0
125 132 0
133 146 0
129 139 0
128 138 0
126 135 0
126 133 0
138 147 0
127 137 0
130 141 0
127 135 0
134 139 0
125 135 0
119 129 0
130 143 0
130 140 0
135 145 0
126 134 0
128 137 0
138 148 0
130 138 0
119 126 0
131 139 0
127 137 0
132 140 0
131 139 0
128 138 0
140 150 0
129 136 0
143 152 0
136 146 0
142 150 0
135 145 0
136 144 0
142 151 0
138 146 0
131 141 0
141 148 0
137 146 0
138 147 0
134 142 0
138 147 0
138 149 0
150 159 0
140 146 0
137 145 0
140 149 0
149 159 0
141 151 0
146 157 0
138 145 0
148 157 0
141 148 0
147 157 0
143 155 0
148 159 0
150 161 0
144 153 0
151 162 0
149 159 0
134 145 0
145 157 0
151 162 0
152 163 0
150 162 0
150 165 0
152 164 0
149 162 0
152 166 0
155 166 0
158 173 0
151 164 0
148 158 0
148 160 0
153 166 0
152 166 0
153 163 0
160 172 0
155 168 0
155 171 0
158 172 0
154 169 0
163 178 0
155 168 0
159 173 0
158 174 0
161 177 0
159 175 0
162 176 0
158 176 0
161 177 0
161 178 0
158 174 0
163 178 0
160 178 0
164 181 0
161 176 0
165 181 0
160 177 0
162 178 0
160 177 0
161 178 0
162 178 0
162 177 0
162 178 0
157 171 0
160 176 0
160 177 0
163 182 0
165 182 0
160 177 0
162 181 0
165 181 0
161 180 0
158 177 0
167 186 0
164 183 0
163 184 0
163 182 0
172 196 84
173 196 88
171 196 67
169 193 84
172 196 51
174 197 72
172 195 80
173 197 62
171 195 62
171 196 80
170 195 62
173 197 72
170 195 72
174 197 80
173 196 51
172 196 76
169 193 57
171 195 76
175 198 67
171 195 62
172 196 80
172 196 99
171 195 57
169 194 76
173 197 57
169 193 67
171 196 80
172 197 76
171 195 67
170 195 92
165 190 76
168 193 80
171 195 76
170 194 67
169 194 72
169 194 92
171 195 67
168 192 84
170 194 62
169 193 76
170 193 76
173 197 84
166 190 67
171 195 84
171 195 76
170 194 67
167 190 62
168 191 72
170 194 88
167 191 67
167 191 57
168 191 57
167 190 67
163 187 84
171 194 80
165 189 95
168 191 84
167 192 72
171 195 92
166 190 76
162 186 84
169 193 80
160 184 57
164 188 57
168 191 84
166 190 62
164 187 80
164 186 67
167 190 76
161 183 72
165 189 72
161 186 84
166 190 84
166 190 72
163 185 57
161 185 82
155 179 80
141 165 102
136 161 108
133 157 117
116 141 124
97 124 131
87 117 145
98 125 142
98 125 135
95 122 144
96 123 139
84 113 126
79 109 134
92 120 143
85 114 139
85 115 148
89 117 141
97 124 139
102 129 152
98 125 153
92 120 136
100 126 141
95 123 157
109 134 161
95 123 143
91 119 145
97 124 144
87 116 158
101 127 155
97 124 149
104 131 160
94 122 155
97 124 165
88 117 165
84 114 164
85 115 153
84 113 155
82 113 163
71 103 158
82 112 156
76 107 150
75 107 165
91 119 161
67 102 156
74 105 164
74 105 157
73 105 156
72 104 164
66 99 147
74 105 166
68 101 157
64 98 151
66 98 155
59 94 140
64 97 144
63 96 153
60 95 147
65 98 145
66 98 147
60 95 149
62 96 137
62 97 144
59 94 140
62 96 139
62 96 140
62 96 145
58 92 134
62 96 145
62 96 136
63 97 134
60 95 134
60 95 144
60 94 145
60 95 144
60 95 137
60 95 139
59 94 134
60 95 143
59 94 140
60 95 146
59 94 143
58 92 129
60 95 145
59 94 141
58 93 133
60 95 137
59 94 136
60 95 143
61 96 150
60 95 139
59 94 137
61 96 148
61 96 147
61 96 145
60 94 135
60 95 141
60 95 137
60 95 136
61 96 144
61 96 143
60 94 137
59 94 137
61 97 150
60 95 140
59 94 140
59 94 135
59 94 133
60 95 142
61 96 135
61 96 134
61 96 141
61 96 142
60 95 142
61 97 148
61 96 144
62 97 153
61 96 148
62 97 144
61 96 145
61 96 139
62 97 148
61 97 150
60 95 134
60 94 129
60 95 137
60 94 128
60 95 139
60 95 139
60 95 137
61 96 143
61 96 144
60 95 137
61 96 143
60 95 140
61 95 131
60 94 135
61 96 142
60 95 140
60 95 134
61 96 144
59 93 129
59 94 128
60 95 145
60 94 134
60 94 130
60 94 131
62 97 149
61 96 142
58 92 121
61 96 137
60 94 128
60 95 135
60 94 130
60 95 135
59 93 122
59 94 126
59 93 122
61 95 136
59 93 125
59 93 128
58 92 126
59 93 122
59 93 124
58 91 134
59 93 121
60 94 133
58 91 113
58 91 118
60 94 133
57 90 108
56 89 115
54 86 102
57 90 108
75 100 92
110 127 44
121 132 25
131 145 0
115 124 0
115 124 0
121 134 0
118 131 0
117 128 0
119 131 0
113 125 0
116 129 0
121 133 0
116 127 0
120 132 0
119 131 0
130 143 0
128 139 0
118 128 0
127 140 0
119 130 0
118 128 0
112 120 0
128 140 0
125 137 0
118 130 0
127 140 0
119 131 0
117 129 0
135 147 0
119 128 0
134 146 0
127 138 0
130 143 0
140 149 0
132 140 0
125 137 0
133 143 0
119 128 0
131 140 0
124 134 0
133 145 0
125 135 0
133 145 0
132 142 0
124 133 0
120 128 0
125 136 0
133 141 0
121 130 0
140 149 0
136 146 0
135 143 0
132 140 0
127 135 0
144 155 0
128 137 0
144 155 0
137 146 0
139 147 0
136 145 0
142 152 0
140 149 0
143 152 0
138 149 0
137 146 0
140 149 0
137 146 0
140 149 0
137 146 0
136 145 0
140 149 0
147 157 0
138 144 0
137 144 0
142 154 0
139 150 0
151 160 0
144 154 0
142 147 0
142 149 0
154 166 0
145 157 0
144 154 0
150 163 0
144 156 0
153 164 0
147 159 0
152 163 0
149 159 0
150 159 0
147 156 0
154 167 0
153 164 0
152 165 0
150 161 0
147 159 0
148 159 0
148 159 0
152 165 0
151 164 0
155 169 0
144 155 0
154 168 0
153 167 0
156 170 0
158 172 0
156 168 0
153 165 0
151 163 0
159 176 0
152 168 0
156 170 0
162 177 0
155 166 0
158 173 0
154 169 0
158 171 0
157 172 0
163 181 0
159 175 0
156 171 0
157 172 0
153 170 0
159 176 0
157 172 0
158 175 0
156 171 0
165 180 0
160 177 0
168 185 0
153 169 0
162 178 0
160 176 0
163 181 0
162 178 0
158 174 0
163 180 0
164 183 0
166 183 0
165 184 0
158 174 0
163 183 0
165 182 0
162 178 0
161 179 0
165 181 0
162 180 0
162 179 0
169 189 0
166 187 0
176 199 76
175 198 84
172 197 72
171 196 84
173 196 57
172 195 51
172 196 84
172 196 80
172 195 72
173 197 62
174 197 67
170 195 80
171 196 67
172 195 51
171 196 72
172 197 84
174 196 72
169 193 80
168 192 67
171 195 84
169 194 62
169 193 88
173 197 76
171 195 62
173 198 92
168 192 80
170 194 72
169 193 62
172 195 62
173 196 67
168 192 57
165 188 36
169 192 95
169 193 62
170 194 92
173 197 72
169 193 67
164 188 72
169 194 62
168 194 84
166 191 92
169 193 67
170 194 84
167 192 84
165 190 67
172 196 80
165 189 72
169 193 67
174 197 51
168 191 84
168 192 72
159 183 76
164 187 80
166 188 44
165 189 62
167 191 62
165 188 25
166 190 67
168 193 95
169 193 84
164 188 80
169 193 72
164 188 72
166 190 88
165 189 80
163 187 72
160 183 76
166 190 67
158 182 84
165 189 67
162 184 57
164 188 76
164 187 88
160 183 76
165 189 88
163 186 62
156 179 86
153 177 72
147 170 107
124 148 94
115 140 114
99 125 128
80 109 131
88 117 140
86 115 130
96 124 152
85 113 123
95 123 157
93 121 148
91 119 147
81 111 147
83 112 131
108 132 145
87 115 133
95 123 150
96 123 145
92 119 136
94 121 145
93 120 143
93 121 149
109 136 145
100 127 143
87 116 146
92 120 157
94 122 155
101 129 165
104 130 165
81 112 157
85 114 147
95 123 158
89 118 154
87 116 159
85 115 159
86 114 154
85 115 158
89 117 163
81 112 164
77 108 154
82 112 163
75 107 154
66 100 161
68 101 158
73 105 158
69 103 164
67 100 164
67 100 151
73 103 139
64 99 155
64 98 149
71 102 146
62 95 143
60 95 144
66 100 142
64 97 145
63 97 152
65 98 147
61 94 134
62 97 149
59 94 140
61 95 129
59 93 134
60 95 139
61 95 141
59 94 145
60 95 142
62 96 137
59 93 131
60 95 136
60 95 139
59 94 137
60 95 140
60 95 141
60 95 138
59 93 136
61 95 145
59 94 136
60 95 137
60 95 137
61 96 141
59 95 143
60 95 142
58 93 131
59 94 141
60 95 139
60 95 140
60 95 137
60 95 143
61 95 141
59 94 128
60 95 135
60 95 145
61 96 147
61 96 135
60 95 147
61 96 139
60 95 134
61 96 147
60 95 141
60 94 142
61 95 145
62 98 155
59 94 133
59 94 129
60 94 139
61 95 137
61 96 147
59 94 133
61 96 141
60 96 145
61 96 149
61 96 140
60 95 141
61 96 147
60 95 140
60 95 139
60 94 136
60 94 129
59 94 134
60 94 135
61 96 139
60 95 141
61 96 136
60 95 131
60 95 139
61 96 140
61 96 145
60 95 129
60 94 130
61 95 136
61 96 141
61 95 137
60 95 133
61 96 140
60 95 134
59 94 124
60 95 137
59 93 121
61 96 147
62 97 145
59 93 122
60 94 130
60 95 141
60 95 139
60 95 134
59 94 124
59 93 131
60 94 133
60 95 133
59 93 125
58 92 117
62 97 145
60 95 137
58 92 122
60 94 136
59 93 130
57 91 126
59 93 118
59 93 125
59 93 124
59 92 124
59 93 129
58 91 124
59 93 129
57 91 118
58 92 118
57 90 121
57 90 113
56 89 115
65 92 100
104 122 72
114 129 40
119 133 0
122 135 0
116 128 0
118 131 0
114 124 0
112 124 0
129 143 0
128 140 0
118 131 0
125 139 0
126 139 0
111 123 0
121 134 0
129 144 0
130 141 0
136 149 0
124 136 0
125 138 0
127 141 0
117 128 0
125 135 0
131 145 0
124 135 0
132 143 0
130 141 0
125 135 0
129 138 0
128 141 0
118 125 0
114 123 0
133 145 0
131 142 0
125 136 0
129 140 0
127 137 0
131 141 0
125 136 0
136 146 0
116 125 0
130 139 0
126 136 0
135 149 0
129 141 0
131 140 0
134 145 0
126 135 0
128 138 0
134 144 0
140 151 0
132 143 0
128 138 0
139 148 0
133 145 0
137 148 0
148 162 0
136 147 0
141 149 0
133 141 0
128 136 0
137 145 0
139 151 0
134 143 0
146 160 0
135 144 0
143 152 0
138 148 0
143 151 0
131 139 0
133 143 0
144 154 0
144 155 0
135 147 0
138 148 0
141 152 0
150 161 0
148 161 0
141 152 0
139 148 0
142 153 0
144 157 0
138 147 0
148 160 0
146 154 0
141 154 0
148 161 0
150 163 0
146 156 0
146 155 0
147 158 0
153 165 0
148 159 0
143 153 0
155 168 0
151 163 0
152 165 0
157 170 0
155 170 0
154 167 0
154 167 0
155 168 0
148 163 0
157 171 0
153 165 0
154 168 0
147 160 0
150 162 0
156 172 0
158 172 0
159 172 0
154 168 0
155 168 0
156 170 0
154 170 0
157 172 0
154 168 0
163 177 0
155 168 0
162 177 0
158 173 0
159 172 0
159 175 0
155 169 0
158 169 0
155 170 0
161 178 0
159 175 0
158 175 0
163 180 0
164 181 0
167 187 0
161 179 0
162 180 0
164 183 0
167 186 0
161 175 0
162 177 0
163 182 0
160 178 0
166 184 0
162 179 0
164 182 0
161 178 0
169 188 0
166 184 0
165 184 0
161 180 0
166 183 0
164 183 0
161 179 0
172 195 62
173 195 57
174 198 80
175 198 67
171 194 76
172 195 84
173 196 57
173 196 72
171 195 80
171 195 76
171 194 62
172 196 76
175 198 62
172 195 62
167 192 76
170 194 51
167 191 67
175 199 92
172 195 51
172 197 84
174 198 88
170 194 72
170 194 76
171 194 72
173 197 76
171 195 57
171 195 72
168 191 67
170 194 72
172 196 84
169 193 80
168 192 72
167 191 76
168 193 67
169 192 62
170 194 72
172 195 76
167 191 76
171 194 76
167 190 67
171 195 84
168 191 72
171 194 72
166 191 80
165 189 67
168 192 72
168 192 62
170 193 67
167 191 80
167 190 51
167 189 67
166 190 72
167 192 88
162 185 44
164 188 36
163 186 51
165 189 51
164 188 67
168 192 84
161 185 84
166 190 72
167 191 72
165 189 51
161 185 72
165 188 72
165 189 72
165 189 72
161 186 92
162 185 80
160 184 57
161 185 62
165 189 99
165 188 95
163 186 76
159 183 62
164 188 88
162 185 88
154 178 86
144 167 94
132 156 105
130 154 110
115 140 127
100 127 130
84 114 145
92 119 133
79 109 141
90 118 133
104 131 143
91 118 140
86 115 138
97 124 144
88 116 135
108 133 159
85 113 137
96 123 141
90 117 134
99 126 146
95 123 167
75 105 134
97 123 157
92 120 157
90 119 156
94 121 148
100 127 152
98 125 149
88 116 153
90 118 146
108 134 159
85 114 156
74 105 146
101 128 165
81 110 147
93 121 157
81 110 156
83 112 156
81 111 153
75 106 159
78 109 160
85 115 155
71 103 158
73 105 157
76 106 154
66 100 154
69 102 148
75 106 157
70 103 155
70 103 156
74 106 165
66 99 146
71 102 149
71 103 150
68 99 138
64 97 139
63 97 134
62 96 138
65 97 139
63 95 142
62 95 142
60 95 145
62 97 143
64 97 131
59 94 132
59 94 138
59 94 140
60 94 124
58 92 129
64 98 141
60 95 137
58 93 128
60 95 142
58 93 141
59 93 135
60 95 140
57 91 132
60 95 144
61 95 140
60 95 142
60 95 139
60 95 133
59 94 134
61 95 139
60 94 134
60 95 139
61 96 147
58 92 122
59 94 134
60 95 143
59 94 139
61 97 148
61 96 145
60 95 147
61 96 149
60 95 142
60 94 126
61 95 142
60 95 141
61 96 143
59 94 135
59 93 137
60 95 144
60 95 144
61 96 145
60 95 134
59 94 131
59 93 128
60 95 139
61 97 149
61 96 142
61 97 148
61 96 141
60 94 135
61 96 140
60 95 140
60 95 134
61 96 144
61 96 140
60 95 137
60 95 140
60 94 131
61 96 143
61 96 141
59 94 129
61 95 139
61 95 139
61 96 140
60 94 136
60 95 133
60 94 137
60 95 143
59 94 137
59 93 125
60 95 134
59 93 130
61 95 133
61 96 141
60 94 135
60 94 122
59 93 128
60 95 141
60 95 136
58 92 130
59 93 129
60 95 139
61 95 137
59 93 126
59 93 131
58 92 125
60 94 133
58 92 124
59 93 117
59 93 128
59 92 118
60 95 135
58 92 118
59 94 126
60 95 135
59 93 125
59 93 121
59 93 139
59 93 126
59 94 124
57 91 107
59 93 126
60 94 130
58 91 120
57 90 115
58 91 114
57 88 100
80 102 88
99 113 40
124 139 0
109 122 0
128 143 0
118 131 0
108 121 0
105 118 0
126 141 0
120 132 0
114 127 0
120 135 0
129 139 0
133 147 0
120 133 0
121 129 0
131 146 0
128 142 0
123 135 0
124 137 0
108 119 0
129 140 0
116 129 0
121 132 0
122 135 0
120 135 0
126 137 0
121 130 0
121 133 0
132 142 0
125 135 0
127 140 0
123 134 0
133 144 0
120 132 0
123 132 0
136 149 0
112 123 0
124 135 0
134 146 0
133 143 0
137 148 0
135 147 0
124 132 0
125 136 0
132 142 0
133 145 0
128 138 0
135 149 0
140 153 0
132 143 0
138 148 0
132 142 0
139 150 0
129 140 0
123 131 0
125 134 0
137 146 0
145 154 0
140 150 0
139 151 0
135 145 0
134 147 0
123 134 0
148 158 0
133 141 0
140 151 0
145 154 0
147 154 0
140 150 0
146 158 0
141 150 0
149 160 0
143 153 0
146 157 0
143 153 0
147 159 0
149 162 0
137 147 0
145 154 0
142 153 0
149 158 0
152 164 0
144 154 0
138 150 0
151 162 0
151 163 0
148 160 0
141 152 0
147 156 0
145 158 0
139 151 0
150 163 0
151 163 0
161 175 0
143 153 0
151 163 0
153 164 0
143 151 0
148 161 0
152 166 0
147 162 0
153 165 0
155 171 0
156 169 0
155 170 0
149 164 0
156 168 0
157 172 0
151 164 0
157 172 0
159 174 0
149 164 0
157 171 0
156 170 0
158 173 0
159 172 0
162 178 0
161 175 0
157 174 0
158 172 0
160 177 0
161 178 0
165 183 0
162 180 0
161 176 0
159 175 0
161 179 0
158 172 0
162 178 0
163 180 0
159 176 0
169 189 0
160 178 0
161 176 0
168 186 0
161 179 0
162 178 0
165 183 0
164 181 0
163 180 0
161 179 0
164 183 0
162 182 0
164 182 0
165 182 0
158 176 0
164 182 0
163 181 0
163 182 0
167 186 0
165 183 0
175 198 44
173 197 84
169 194 84
176 200 84
170 194 57
175 199 76
171 193 72
174 198 67
171 196 76
172 196 57
171 195 80
169 193 72
174 197 62
170 194 67
169 193 76
173 196 62
173 197 76
170 195 84
169 194 76
171 195 76
172 196 51
171 195 80
171 195 67
169 192 67
170 193 72
174 198 72
166 190 72
168 192 80
169 192 72
168 192 76
170 194 80
164 188 51
166 189 62
168 193 92
169 194 76
169 192 57
163 187 76
166 191 62
168 192 57
172 196 72
168 192 51
169 193 72
166 190 67
167 192 80
168 191 67
169 193 105
169 192 62
166 190 62
166 191 76
169 193 44
165 189 92
173 196 84
164 188 72
166 189 67
169 193 76
167 191 62
164 188 67
170 193 76
171 194 57
165 190 95
167 191 95
166 190 92
160 183 51
164 188 80
165 188 44
162 185 76
164 188 72
159 182 67
160 184 84
157 181 76
158 182 57
167 191 80
164 187 51
155 178 84
160 183 72
164 187 80
157 180 60
161 185 80
154 178 86
147 170 78
133 157 125
114 140 126
106 131 125
82 110 121
92 119 131
92 120 146
84 113 129
87 115 140
92 121 150
82 111 145
88 116 130
92 120 134
88 117 147
89 118 131
96 123 136
96 123 144
86 114 135
103 129 148
98 124 149
98 125 149
93 121 144
94 121 147
98 125 152
110 135 151
95 122 140
101 127 145
89 118 142
102 129 145
85 114 157
89 117 149
86 114 150
98 125 158
82 111 149
87 116 154
82 112 153
96 123 160
91 118 154
76 108 161
75 107 163
86 115 157
62 97 149
77 109 166
68 101 150
76 106 153
70 102 157
71 104 161
72 104 160
77 108 157
65 100 150
66 99 145
64 97 146
70 102 145
68 99 136
65 98 148
64 98 155
67 100 140
61 95 139
62 96 145
61 94 131
58 92 134
61 95 130
65 98 132
62 95 141
58 92 134
60 94 139
58 93 130
59 94 140
59 93 135
60 94 136
58 92 128
59 94 135
60 95 136
59 93 132
58 93 130
60 95 143
59 93 136
60 95 144
60 94 136
59 94 140
61 96 148
59 94 131
61 96 140
60 95 131
59 94 133
60 95 143
59 94 139
60 95 144
60 95 147
60 95 140
61 96 136
60 94 136
60 96 139
60 95 145
60 96 141
60 94 142
60 95 141
60 95 137
59 94 135
62 97 145
59 93 133
60 95 138
60 95 136
60 95 140
59 94 130
61 96 139
60 95 139
61 95 135
61 96 144
61 95 135
59 93 131
60 95 134
60 95 139
61 95 139
59 93 137
60 95 139
61 96 141
60 95 134
61 95 142
61 96 148
60 95 140
60 94 135
61 96 144
60 95 135
60 95 143
60 95 136
61 95 140
60 95 139
60 94 131
61 95 139
60 95 142
58 92 128
59 93 128
60 94 137
59 94 126
61 95 142
59 93 135
60 95 135
58 91 122
59 93 129
60 95 129
59 93 124
59 94 126
58 92 122
58 92 128
59 94 129
61 97 141
59 94 129
61 95 134
59 93 128
59 93 131
58 92 118
59 94 133
61 96 135
59 94 126
58 92 129
59 93 125
60 93 129
59 93 121
58 91 117
59 93 130
57 91 115
58 92 128
59 92 121
60 94 132
58 91 117
58 91 114
56 89 110
82 106 101
102 118 41
118 131 0
117 132 0
127 141 0
123 136 0
129 141 0
124 141 0
120 134 0
132 147 0
130 144 0
119 132 0
124 136 0
121 132 0
127 142 0
125 140 0
124 137 0
117 130 0
135 152 0
131 146 0
129 142 0
115 128 0
122 134 0
124 137 0
118 130 0
127 138 0
127 139 0
136 149 0
137 148 0
125 139 0
136 150 0
126 139 0
132 143 0
132 143 0
129 140 0
129 140 0
130 141 0
129 140 0
138 150 0
133 147 0
134 144 0
130 143 0
128 140 0
127 139 0
139 150 0
127 138 0
137 148 0
125 137 0
125 136 0
131 141 0
141 155 0
133 145 0
132 142 0
139 150 0
129 141 0
134 144 0
141 153 0
135 145 0
136 146 0
143 155 0
140 149 0
150 160 0
139 150 0
144 154 0
132 144 0
141 151 0
145 155 0
143 151 0
139 147 0
143 153 0
141 152 0
152 163 0
144 155 0
145 156 0
141 153 0
146 158 0
147 156 0
141 149 0
147 158 0
146 161 0
152 164 0
137 146 0
146 155 0
146 157 0
151 164 0
146 157 0
144 156 0
146 157 0
150 162 0
148 161 0
148 159 0
152 164 0
150 161 0
149 162 0
151 166 0
149 161 0
155 170 0
155 168 0
151 164 0
154 169 0
156 170 0
152 166 0
155 167 0
151 165 0
155 168 0
150 162 0
156 170 0
156 168 0
151 166 0
157 172 0
157 171 0
155 171 0
158 173 0
158 174 0
152 166 0
157 174 0
151 166 0
158 173 0
162 177 0
157 172 0
159 176 0
157 171 0
150 163 0
162 179 0
159 174 0
157 174 0
158 175 0
161 177 0
156 170 0
164 183 0
166 183 0
159 179 0
163 181 0
165 181 0
158 176 0
164 183 0
162 179 0
161 179 0
164 180 0
162 182 0
166 184 0
165 184 0
164 182 0
167 185 0
161 178 0
163 181 0
163 179 0
163 180 0
165 186 0
157 175 0
167 185 0
165 185 0
166 185 0
166 191 105
171 194 62
173 197 72
170 194 62
172 195 76
170 194 80
172 196 95
170 194 67
173 196 80
166 190 76
172 196 76
171 195 76
173 196 88
168 192 67
168 193 88
171 195 80
168 191 67
168 193 88
168 191 62
170 193 51
171 195 72
165 190 67
172 196 92
168 192 72
167 191 76
172 196 80
167 192 67
170 194 67
171 194 67
166 191 72
170 194 80
168 192 76
170 194 72
168 192 72
169 193 62
169 193 72
163 187 0
168 191 51
170 194 92
169 194 76
170 195 95
170 195 76
166 190 72
170 194 76
169 193 72
167 192 84
170 194 57
168 192 72
163 187 67
164 187 72
165 189 72
164 188 62
166 189 67
165 189 72
164 186 51
163 186 72
166 190 57
163 186 57
155 179 62
171 196 92
164 187 76
159 183 72
164 188 80
169 193 80
163 187 57
162 185 84
164 188 80
166 189 80
169 192 92
162 186 72
165 188 57
166 189 67
160 184 62
163 185 57
162 185 72
161 183 57
164 186 51
156 180 70
163 186 86
150 173 107
141 165 87
125 149 102
109 135 126
93 120 131
100 126 147
89 116 135
95 122 135
92 120 130
92 120 129
93 120 135
86 115 143
91 119 136
88 117 145
94 121 141
89 117 142
89 117 143
93 119 145
90 119 143
85 112 133
92 120 148
89 116 139
96 122 151
107 132 137
98 124 155
112 136 148
85 113 134
93 121 144
89 117 150
86 114 150
89 117 149
93 120 157
83 112 155
89 116 149
100 126 168
95 122 164
74 106 158
79 109 151
87 116 148
79 109 147
77 108 159
81 111 160
69 102 149
73 105 161
73 104 145
72 103 156
67 99 160
69 101 149
69 101 147
71 102 152
71 104 159
77 105 144
60 95 141
70 102 149
67 98 133
70 102 148
63 96 144
59 93 133
65 98 141
64 96 130
64 97 135
59 94 135
61 96 141
61 96 139
58 93 140
57 92 131
62 97 138
62 95 133
59 94 136
58 92 124
58 93 141
61 94 128
59 94 134
59 94 142
60 94 144
59 93 133
59 94 140
58 92 132
61 96 143
60 95 139
60 95 142
62 97 154
58 93 130
61 96 141
59 93 125
60 94 144
61 96 147
59 94 141
59 94 133
61 96 144
60 95 135
60 95 133
61 96 142
60 95 147
60 96 145
61 96 139
61 96 145
61 96 144
60 95 140
59 94 135
61 95 137
61 96 142
61 96 150
59 94 129
60 95 140
60 95 141
60 95 141
60 95 136
60 95 140
60 95 141
59 94 140
60 94 128
60 95 129
61 96 144
60 95 135
59 94 133
59 94 130
60 95 140
60 95 142
60 95 140
60 95 136
58 93 141
61 96 135
59 93 131
59 93 135
61 95 137
60 96 145
60 94 134
61 95 137
60 95 141
60 95 140
60 95 139
60 95 140
60 94 131
60 95 135
59 93 133
60 94 135
60 95 130
61 96 143
60 94 131
59 93 126
61 95 135
59 93 133
60 95 131
60 95 133
58 91 122
58 92 122
58 92 130
58 92 135
58 92 124
60 95 124
59 92 128
59 94 129
60 94 125
59 93 122
58 92 122
58 92 118
59 93 118
60 93 133
57 90 118
55 87 111
58 92 126
56 89 113
58 92 121
57 90 110
58 92 114
56 88 110
75 100 80
86 108 76
110 123 25
120 134 0
125 137 0
114 128 0
120 132 0
121 135 0
128 141 0
128 139 0
114 125 0
125 138 0
127 141 0
122 136 0
119 133 0
122 136 0
126 141 0
117 129 0
134 149 0
138 152 0
136 149 0
125 138 0
120 134 0
134 147 0
131 145 0
119 131 0
123 134 0
123 135 0
133 145 0
128 138 0
121 135 0
119 129 0
135 149 0
127 138 0
132 145 0
134 144 0
127 139 0
128 139 0
136 148 0
133 148 0
134 145 0
129 141 0
136 150 0
119 131 0
129 141 0
134 145 0
131 142 0
124 134 0
133 144 0
133 142 0
141 154 0
132 142 0
143 158 0
132 144 0
131 142 0
137 149 0
139 149 0
130 141 0
134 144 0
136 147 0
132 143 0
132 141 0
139 149 0
134 142 0
138 146 0
133 141 0
137 149 0
140 150 0
134 143 0
138 150 0
143 154 0
142 154 0
141 153 0
146 157 0
142 152 0
143 154 0
142 152 0
142 152 0
142 153 0
143 153 0
143 153 0
145 158 0
149 162 0
145 159 0
154 168 0
147 159 0
149 163 0
144 157 0
145 154 0
149 162 0
146 156 0
152 166 0
139 149 0
149 163 0
143 154 0
148 163 0
149 161 0
150 162 0
152 167 0
148 160 0
155 171 0
154 166 0
151 165 0
147 160 0
155 168 0
161 176 0
157 171 0
154 167 0
157 172 0
151 163 0
159 173 0
156 169 0
159 174 0
151 164 0
161 173 0
156 173 0
150 165 0
154 169 0
163 180 0
161 178 0
155 171 0
153 166 0
152 167 0
159 175 0
155 170 0
164 181 0
156 171 0
166 184 0
163 178 0
165 183 0
163 181 0
157 174 0
165 182 0
156 172 0
163 179 0
158 175 0
163 181 0
162 180 0
163 181 0
157 174 0
159 176 0
156 175 0
161 180 0
166 184 0
163 180 0
165 183 0
167 186 0
164 181 0
159 178 0
161 178 0
166 183 0
163 181 0
163 181 0
166 184 0
168 192 62
173 196 80
171 195 62
169 193 76
174 197 84
171 195 44
174 198 88
172 196 76
170 195 80
173 197 92
172 196 67
168 192 76
168 191 62
165 189 57
166 190 51
172 196 67
168 192 62
171 195 80
172 196 84
173 197 44
172 197 67
168 193 62
171 195 88
169 193 57
167 191 72
167 190 99
167 191 72
166 190 72
169 193 84
172 196 84
171 194 80
173 196 44
169 194 67
167 191 76
168 193 92
168 192 57
167 191 84
166 191 92
169 194 95
169 193 84
163 186 62
167 191 62
171 196 76
165 189 62
166 189 76
160 183 51
163 187 62
165 189 76
166 190 72
170 194 92
164 188 84
170 194 57
160 185 76
166 190 80
166 190 80
163 186 67
163 187 51
167 191 62
162 187 84
165 188 72
166 189 51
165 189 80
161 185 84
160 184 80
165 189 67
158 180 25
165 188 76
158 180 80
165 189 84
161 185 80
169 192 84
163 186 76
154 177 90
160 183 80
162 186 76
161 183 72
160 182 76
157 181 95
160 183 84
153 175 78
150 173 95
133 157 97
125 149 134
110 135 121
94 121 135
94 122 143
95 123 146
100 127 142
84 113 134
101 127 140
91 118 128
98 125 150
89 117 122
97 122 140
87 116 139
98 125 147
95 122 147
109 134 159
94 121 143
94 121 130
82 110 141
85 114 143
99 125 137
92 119 143
97 123 139
98 124 148
91 118 129
97 124 156
87 114 141
91 118 150
89 118 150
84 112 139
89 116 140
85 114 155
86 116 164
87 115 148
93 120 147
85 115 162
86 115 155
75 105 146
76 106 148
80 110 158
77 108 157
82 111 156
75 106 154
74 105 150
77 106 156
63 96 140
70 102 155
68 100 142
61 96 153
73 103 145
61 97 145
63 97 136
70 100 138
71 101 140
67 101 143
63 96 139
66 98 127
64 98 137
63 96 134
59 93 128
63 96 140
60 95 149
59 93 131
59 93 140
59 93 133
60 95 136
62 96 130
61 95 126
59 94 140
59 94 136
59 94 134
60 95 144
60 95 140
60 94 139
59 94 135
59 94 143
59 94 140
59 94 142
60 95 140
61 96 141
61 96 145
60 95 139
59 94 138
60 94 135
60 94 141
59 94 134
59 94 133
60 94 137
60 95 140
61 95 141
61 96 141
62 97 141
59 94 136
60 94 130
60 96 148
60 95 131
61 96 148
59 94 129
59 93 129
61 96 150
60 95 141
61 97 144
59 94 128
60 95 139
61 96 143
61 96 147
60 95 141
60 94 137
60 95 139
60 95 135
60 95 136
59 94 128
59 94 134
60 95 134
60 95 135
59 93 134
60 95 140
60 95 140
59 94 131
61 95 140
60 95 136
60 95 136
60 95 130
59 93 124
59 93 126
59 94 136
60 94 129
58 92 134
60 94 128
61 96 139
61 95 137
60 95 135
60 95 137
60 94 130
60 95 133
60 94 130
59 93 130
59 93 124
61 96 135
60 95 134
59 93 134
59 94 129
60 94 134
59 94 133
59 93 128
58 92 131
58 91 121
59 93 128
59 93 121
58 92 131
59 93 121
59 93 128
59 92 128
58 92 122
58 91 117
60 94 129
58 92 117
59 92 129
58 91 124
58 92 121
57 91 113
57 89 114
57 89 113
58 89 103
88 108 62
113 128 40
119 132 18
123 136 0
122 137 0
121 135 0
122 137 0
129 142 0
121 133 0
112 125 0
120 134 0
136 151 0
123 137 0
111 124 0
125 139 0
120 133 0
122 136 0
121 134 0
139 154 0
121 135 0
127 140 0
116 128 0
129 141 0
116 129 0
128 141 0
130 144 0
139 151 0
128 141 0
120 132 0
127 142 0
131 144 0
133 146 0
120 132 0
130 142 0
128 139 0
133 143 0
131 142 0
124 136 0
129 142 0
131 145 0
129 141 0
132 143 0
134 147 0
125 135 0
130 143 0
120 131 0
134 149 0
136 150 0
139 152 0
133 146 0
139 150 0
139 153 0
137 151 0
137 151 0
123 134 0
133 144 0
126 136 0
136 149 0
136 150 0
142 154 0
137 146 0
136 147 0
129 142 0
138 149 0
136 145 0
134 143 0
140 150 0
128 140 0
133 144 0
139 152 0
141 154 0
142 154 0
143 154 0
139 148 0
144 156 0
147 158 0
135 146 0
144 155 0
143 154 0
137 148 0
145 159 0
147 159 0
140 154 0
148 160 0
144 158 0
146 158 0
147 156 0
147 162 0
149 161 0
153 165 0
149 162 0
156 170 0
153 166 0
151 165 0
151 165 0
150 165 0
150 166 0
153 166 0
144 157 0
155 170 0
147 161 0
154 169 0
160 175 0
153 165 0
155 169 0
153 167 0
156 170 0
151 165 0
157 173 0
154 170 0
156 171 0
155 172 0
154 167 0
151 166 0
156 171 0
158 174 0
161 178 0
153 167 0
154 170 0
160 174 0
153 167 0
155 171 0
161 178 0
155 168 0
157 172 0
159 177 0
161 178 0
161 178 0
161 177 0
162 178 0
162 179 0
164 180 0
161 176 0
165 183 0
160 176 0
162 177 0
159 174 0
161 178 0
160 179 0
164 183 0
165 183 0
165 182 0
160 178 0
158 177 0
160 177 0
165 182 0
164 182 0
164 181 0
165 182 0
164 181 0
162 179 0
165 185 0
165 184 0
162 181 0
172 195 72
177 200 88
171 195 72
172 195 51
168 192 67
172 195 62
172 196 76
172 196 62
171 195 72
171 195 88
173 197 92
170 195 92
169 193 80
172 196 72
172 196 62
173 196 67
171 195 80
168 192 76
174 198 62
173 197 67
169 194 67
170 194 72
171 195 51
170 194 76
174 198 84
168 193 80
167 192 84
173 197 67
170 193 62
170 194 92
169 193 76
165 189 57
170 194 95
164 188 57
166 190 62
172 197 88
169 193 80
168 192 92
167 192 72
167 191 72
167 192 88
165 190 88
165 189 62
167 191 72
169 193 67
169 193 51
171 195 57
168 193 80
166 190 25
161 186 72
162 186 72
169 193 80
163 187 57
161 185 62
157 180 44
165 188 72
166 190 80
167 190 67
163 187 62
164 189 88
167 191 76
165 188 44
164 189 76
165 189 51
164 188 72
162 186 76
167 191 76
167 190 84
156 179 67
163 187 84
163 186 92
159 183 76
165 188 95
160 184 67
158 181 76
156 179 51
161 184 67
159 182 72
159 182 86
156 181 86
147 171 107
134 158 100
117 142 111
121 146 102
108 133 133
89 117 133
89 117 134
92 119 143
99 125 144
89 116 122
86 113 127
90 118 129
84 113 151
94 120 127
93 120 140
95 123 143
89 116 131
95 122 137
87 115 143
99 125 146
92 119 133
113 137 153
100 126 137
98 125 156
99 125 139
97 125 140
97 122 137
105 130 140
90 119 150
87 116 157
100 126 148
86 114 143
104 130 155
87 115 155
83 111 141
83 112 155
93 121 156
68 100 146
88 117 155
77 107 152
84 113 153
83 113 161
74 106 157
79 109 155
77 107 154
79 109 157
68 100 154
78 108 149
78 107 154
65 99 151
75 104 151
66 97 135
72 104 146
73 102 143
69 101 141
69 100 143
61 95 132
62 95 141
65 97 132
65 98 141
57 92 139
59 94 134
62 95 135
68 99 138
61 95 131
60 94 134
62 96 141
59 93 131
63 96 129
57 91 126
58 92 139
60 95 138
60 94 136
59 94 135
59 93 137
61 96 136
58 93 133
59 93 139
58 93 140
60 94 140
60 94 140
61 96 140
61 96 137
59 95 137
59 94 134
58 93 126
60 95 139
59 94 135
60 94 140
61 97 145
61 96 140
60 94 134
59 94 136
59 94 133
61 96 143
59 94 134
60 96 144
60 95 135
60 94 139
58 93 131
60 95 137
59 94 128
59 94 133
60 95 136
61 97 144
60 95 140
61 95 145
60 95 135
60 94 130
59 94 137
61 97 145
60 95 135
60 94 136
58 93 126
61 96 140
59 94 131
60 94 133
60 95 133
59 94 133
59 94 129
60 94 135
59 94 131
60 94 130
61 95 135
60 95 133
59 93 131
61 96 133
60 95 137
59 93 133
60 94 128
61 95 134
58 93 128
58 92 122
59 93 129
60 94 139
60 95 133
60 95 142
59 93 129
60 95 135
59 94 126
59 93 126
59 93 125
59 94 128
59 93 135
60 95 134
60 95 134
60 95 129
59 93 125
59 93 125
59 93 120
58 91 124
60 94 128
59 93 128
58 91 114
57 91 113
58 91 120
57 91 111
59 93 131
60 93 134
59 93 129
57 91 116
56 89 107
58 91 117
56 89 111
60 92 108
88 110 77
100 116 57
99 111 18
114 128 0
121 136 0
118 132 0
120 132 0
111 124 0
111 121 0
121 136 0
119 132 0
121 131 0
124 139 0
121 136 0
119 130 0
123 137 0
136 150 0
119 133 0
137 151 0
136 151 0
127 139 0
133 148 0
126 140 0
129 144 0
121 133 0
127 139 0
127 141 0
137 149 0
122 135 0
130 143 0
111 123 0
133 147 0
124 135 0
137 150 0
123 135 0
136 150 0
131 141 0
122 133 0
128 142 0
130 141 0
130 143 0
134 147 0
131 144 0
131 142 0
134 146 0
124 137 0
128 139 0
133 146 0
130 141 0
137 150 0
128 140 0
136 148 0
131 141 0
138 152 0
140 152 0
132 146 0
135 146 0
137 149 0
133 144 0
134 147 0
141 153 0
137 148 0
136 148 0
146 157 0
143 155 0
137 146 0
139 153 0
142 154 0
148 162 0
140 150 0
148 160 0
132 141 0
137 149 0
141 152 0
143 158 0
138 149 0
139 147 0
139 151 0
145 159 0
144 153 0
144 154 0
151 164 0
149 160 0
152 165 0
149 162 0
148 162 0
150 162 0
150 164 0
147 160 0
144 156 0
149 161 0
156 169 0
150 163 0
154 168 0
154 165 0
149 161 0
149 161 0
156 169 0
152 169 0
154 168 0
157 173 0
151 164 0
147 162 0
153 168 0
154 164 0
158 173 0
151 166 0
153 168 0
150 164 0
154 171 0
153 169 0
156 170 0
158 172 0
157 172 0
154 171 0
158 175 0
154 171 0
152 166 0
160 174 0
157 174 0
158 176 0
148 164 0
149 162 0
156 171 0
163 179 0
165 181 0
162 179 0
163 181 0
158 173 0
161 177 0
159 176 0
161 179 0
162 181 0
164 183 0
159 176 0
157 175 0
162 179 0
160 174 0
160 176 0
168 186 0
164 183 0
163 183 0
160 179 0
166 184 0
165 182 0
166 183 0
162 181 0
164 183 0
166 184 0
156 174 0
161 180 0
161 178 0
163 183 0
163 180 0
165 185 0
174 197 84
172 196 80
171 194 62
174 197 44
173 197 84
172 196 57
169 192 76
173 197 88
172 195 76
171 194 57
171 195 62
170 193 76
174 197 76
171 195 80
171 194 57
176 199 80
169 193 72
172 195 62
169 194 84
169 193 62
172 196 88
172 196 80
169 193 62
172 197 80
165 189 51
165 189 76
169 193 80
169 193 76
168 191 72
173 197 80
171 194 72
172 194 62
166 189 67
172 196 67
170 194 76
170 194 84
168 191 72
167 191 88
169 194 67
171 195 84
166 190 72
169 192 51
169 193 76
166 190 72
165 189 72
163 187 76
169 193 84
170 194 76
165 189 67
167 191 92
170 194 67
167 191 67
167 191 72
166 190 62
167 190 80
161 185 80
163 186 76
165 189 92
161 184 67
164 187 62
164 188 76
165 189 72
170 194 88
167 191 84
165 188 72
161 184 67
157 179 57
160 184 72
167 190 95
161 184 67
158 181 76
164 188 80
160 183 72
162 185 67
160 183 67
166 189 80
158 182 67
166 189 80
158 182 80
155 178 67
150 173 90
143 167 103
129 153 99
126 150 102
111 136 107
97 123 141
103 130 147
102 128 151
103 130 147
100 127 150
89 116 131
97 123 137
87 115 131
103 128 143
102 128 142
80 109 133
99 125 138
84 112 139
94 120 147
86 114 152
98 124 142
92 119 148
100 126 144
90 117 148
97 124 151
94 121 153
99 125 143
102 127 144
106 131 151
99 125 147
94 120 153
98 125 145
103 129 161
93 118 149
93 119 140
78 109 145
83 113 151
92 118 149
81 111 162
79 109 153
80 110 154
79 109 164
73 106 167
76 107 155
75 105 145
73 105 156
73 104 157
67 100 158
61 97 154
67 100 152
81 110 155
67 100 153
69 100 155
65 99 144
71 101 129
69 101 145
59 94 143
60 94 141
66 98 134
61 95 124
65 96 129
60 95 146
63 97 142
62 96 134
64 97 136
58 93 131
61 95 133
59 94 133
60 94 129
59 93 122
61 96 143
58 92 134
59 94 137
59 94 131
60 95 147
60 95 140
59 93 130
61 96 137
59 94 130
58 92 124
59 93 133
59 94 125
59 94 140
59 94 135
58 93 132
59 94 133
60 95 140
61 96 140
59 93 130
59 93 131
59 93 135
61 97 143
60 95 140
59 93 133
61 96 143
61 96 140
59 94 137
60 95 140
60 94 136
59 93 131
60 95 135
60 95 133
60 95 140
60 94 129
60 95 129
59 94 131
60 95 147
61 96 147
59 94 141
59 93 125
60 95 136
60 95 131
59 94 134
59 93 134
61 95 135
60 94 133
61 95 136
60 94 130
60 94 139
59 93 130
61 96 137
60 94 135
60 95 136
60 94 129
60 95 136
60 94 131
58 93 130
60 94 131
61 95 131
59 94 122
60 95 134
59 94 125
61 95 137
60 94 131
60 95 137
61 95 135
59 93 122
59 93 125
58 92 122
60 94 126
61 96 137
59 93 128
59 94 126
58 91 122
59 94 126
58 92 126
60 95 134
60 95 137
59 94 130
58 93 121
57 91 120
59 93 128
59 93 125
60 94 128
58 91 115
58 92 125
58 91 113
59 92 120
57 90 107
58 91 115
58 91 115
55 87 100
57 90 102
55 88 103
81 104 86
104 120 67
119 133 0
106 120 0
120 131 0
134 149 0
118 130 0
109 119 0
110 121 0
118 134 0
128 139 0
127 140 0
130 145 0
118 131 0
123 138 0
124 135 0
128 143 0
121 134 0
122 134 0
128 143 0
120 133 0
123 136 0
125 139 0
129 142 0
126 139 0
131 144 0
125 138 0
127 142 0
130 143 0
136 149 0
130 147 0
132 145 0
133 150 0
136 149 0
131 144 0
133 145 0
135 148 0
138 153 0
132 146 0
128 140 0
122 135 0
135 149 0
135 147 0
131 143 0
138 150 0
140 154 0
140 152 0
139 154 0
136 147 0
139 154 0
136 150 0
126 135 0
141 154 0
130 142 0
139 153 0
135 147 0
140 153 0
130 142 0
139 153 0
138 148 0
137 149 0
137 150 0
130 141 0
143 155 0
143 155 0
132 145 0
140 153 0
140 150 0
144 155 0
143 155 0
144 155 0
145 160 0
141 153 0
143 154 0
143 154 0
143 157 0
140 151 0
142 157 0
140 153 0
145 157 0
149 160 0
144 156 0
146 159 0
146 160 0
143 154 0
144 156 0
148 163 0
147 159 0
143 155 0
147 160 0
149 164 0
151 166 0
150 163 0
148 160 0
154 166 0
151 164 0
149 163 0
153 168 0
152 166 0
151 163 0
151 165 0
153 168 0
149 162 0
157 170 0
159 172 0
155 170 0
155 168 0
153 167 0
154 170 0
159 175 0
150 164 0
155 171 0
153 167 0
157 173 0
153 166 0
159 175 0
158 172 0
158 176 0
143 156 0
161 177 0
162 179 0
156 172 0
157 175 0
156 172 0
158 174 0
165 183 0
158 172 0
163 181 0
160 174 0
159 176 0
164 181 0
164 180 0
159 178 0
163 179 0
166 184 0
161 179 0
157 172 0
158 175 0
161 180 0
164 182 0
162 181 0
169 188 0
162 179 0
163 182 0
163 180 0
165 185 0
163 180 0
166 184 0
164 182 0
159 177 0
162 181 0
162 181 0
161 179 0
155 172 0
160 177 0
164 181 0
170 194 51
172 196 57
167 191 62
170 195 76
171 194 57
171 195 72
174 198 67
170 194 51
172 196 62
172 196 92
169 192 72
171 194 62
172 197 84
163 187 76
170 194 84
172 196 62
167 190 44
169 193 72
167 191 57
169 194 57
170 193 62
170 195 72
170 194 67
170 193 57
172 195 88
172 196 76
167 191 92
169 193 57
168 192 62
159 183 62
170 194 88
170 193 72
166 190 80
170 195 72
165 190 72
169 193 62
166 189 51
170 193 67
171 194 57
169 193 76
163 187 76
167 191 67
168 192 67
170 194 84
168 191 67
168 192 76
163 187 67
165 190 76
165 188 62
167 192 95
162 186 57
166 190 84
169 193 88
164 188 72
159 182 51
161 184 72
167 192 80
165 189 80
171 195 80
164 188 80
165 190 76
166 189 76
163 187 57
168 192 80
157 181 67
155 179 72
155 178 84
162 186 80
160 183 76
156 180 80
162 186 72
160 183 67
161 184 80
162 185 67
165 189 99
159 182 67
157 180 67
163 186 72
149 173 80
153 176 72
157 180 70
143 166 70
135 158 92
125 149 92
116 140 99
102 128 129
93 120 128
91 118 139
88 115 128
91 119 133
93 121 130
100 126 141
84 112 130
101 127 151
76 105 129
92 120 147
93 119 133
79 108 134
85 113 138
89 116 141
92 117 135
100 126 136
99 125 153
97 123 134
91 118 143
96 123 135
89 115 134
113 137 147
101 127 150
99 125 139
93 120 141
93 120 142
95 122 147
92 120 146
95 121 156
92 119 155
84 113 140
86 115 151
85 114 154
92 119 156
77 107 139
74 106 153
81 109 151
73 104 141
78 107 153
82 111 159
73 104 153
67 100 149
70 102 154
67 98 137
70 102 149
63 97 150
71 102 145
65 99 149
69 101 150
66 99 141
62 97 142
61 94 134
65 98 133
64 98 142
59 93 122
63 95 124
59 93 128
61 94 129
60 95 141
60 94 127
58 92 122
62 96 126
57 92 131
59 93 133
60 94 129
59 93 129
62 96 131
61 96 147
60 94 137
60 95 137
59 94 134
59 93 134
60 94 127
59 93 133
60 95 131
60 94 140
60 94 137
58 92 130
59 94 134
60 94 136
61 96 138
59 93 133
59 94 133
59 93 135
60 94 135
59 94 131
58 93 122
60 95 141
59 93 128
59 94 133
60 95 135
58 92 125
59 94 134
61 96 137
59 93 134
60 94 130
60 95 139
59 93 133
59 94 126
60 94 131
60 95 134
60 95 135
61 96 144
61 96 140
58 93 130
60 95 135
60 94 126
60 94 136
60 94 134
58 91 125
59 93 133
59 94 135
61 96 140
59 94 130
59 94 133
59 94 131
58 93 119
60 95 140
58 92 128
59 93 129
59 92 126
60 94 136
59 94 130
60 95 133
60 95 139
59 93 130
60 94 131
60 95 131
59 93 125
59 93 122
59 93 122
59 93 128
59 94 124
60 95 135
60 95 137
59 94 134
58 92 121
59 93 128
59 94 133
57 90 108
59 94 125
58 92 120
59 92 124
60 94 133
58 92 122
59 93 121
59 94 125
57 91 108
59 92 115
57 90 117
58 91 113
57 89 122
60 94 118
59 93 129
57 90 108
56 88 104
57 90 110
74 100 97
91 108 54
110 126 18
117 130 0
110 125 0
117 132 0
115 129 0
110 122 0
111 124 0
131 147 0
117 130 0
116 131 0
128 141 0
123 137 0
128 142 0
117 130 0
119 132 0
128 141 0
122 136 0
125 138 0
123 138 0
122 135 0
127 141 0
128 142 0
129 143 0
120 133 0
124 139 0
138 152 0
121 135 0
129 141 0
122 134 0
132 146 0
131 141 0
137 153 0
125 139 0
129 144 0
120 132 0
132 144 0
137 148 0
131 144 0
137 150 0
122 136 0
136 149 0
128 139 0
126 141 0
119 131 0
130 143 0
138 151 0
144 155 0
136 150 0
140 155 0
136 149 0
136 148 0
131 142 0
137 152 0
135 146 0
131 140 0
142 153 0
135 150 0
132 141 0
128 140 0
140 154 0
139 149 0
135 147 0
143 158 0
131 143 0
142 155 0
135 147 0
144 157 0
141 155 0
133 145 0
149 163 0
139 152 0
141 157 0
149 161 0
145 157 0
149 162 0
149 164 0
138 150 0
145 154 0
145 157 0
149 163 0
140 155 0
146 159 0
149 161 0
151 164 0
142 155 0
144 158 0
154 169 0
159 175 0
147 158 0
152 166 0
145 156 0
154 168 0
145 156 0
155 168 0
152 166 0
147 158 0
155 168 0
148 162 0
150 162 0
157 173 0
151 165 0
149 162 0
150 161 0
151 167 0
150 167 0
158 174 0
155 168 0
159 173 0
153 164 0
146 159 0
148 160 0
154 170 0
158 172 0
153 164 0
160 177 0
159 177 0
158 176 0
160 176 0
162 178 0
158 175 0
154 167 0
161 178 0
158 175 0
160 175 0
161 177 0
163 180 0
161 180 0
159 175 0
159 177 0
158 171 0
162 180 0
156 171 0
161 180 0
165 185 0
164 181 0
160 179 0
158 175 0
162 183 0
167 187 0
161 180 0
161 179 0
162 180 0
161 179 0
170 189 0
162 179 0
165 183 0
165 184 0
159 174 0
164 182 0
161 179 0
163 181 0
164 182 0
165 185 0
166 185 0
166 185 0
173 197 51
170 194 76
174 198 92
170 194 80
172 196 92
169 193 62
172 196 80
169 193 57
173 197 72
171 194 80
172 196 72
172 195 62
165 189 62
170 194 62
170 194 57
167 191 80
168 191 76
164 187 76
170 195 84
169 192 57
168 192 80
171 194 80
168 193 76
166 190 57
169 193 84
171 195 76
163 188 76
164 189 76
168 192 72
170 194 62
169 193 76
171 195 72
168 192 76
171 196 80
166 189 62
164 189 76
169 193 67
169 193 88
169 194 92
167 191 62
165 188 62
169 193 72
167 191 84
168 192 88
166 191 80
170 194 80
167 192 84
165 189 84
166 189 67
167 191 44
164 188 51
161 186 88
159 182 51
164 187 36
164 188 76
164 187 51
166 189 67
164 188 76
166 190 67
162 185 57
161 185 62
163 186 62
162 187 103
165 188 80
159 183 72
165 189 76
161 184 88
158 181 80
160 183 51
161 184 84
158 181 72
164 188 72
164 187 72
163 187 92
156 180 62
158 181 62
159 182 80
157 180 51
153 175 92
153 176 67
154 177 76
154 176 67
151 175 100
138 162 118
130 154 102
115 140 114
98 124 125
86 113 133
90 118 126
75 104 126
88 116 133
95 122 144
93 121 148
100 126 150
87 115 134
88 115 131
82 110 131
79 107 133
100 126 141
92 120 135
86 114 141
101 127 156
91 118 137
104 130 162
92 119 140
97 123 144
89 117 148
107 132 151
96 121 157
84 113 141
98 124 154
88 115 139
91 118 137
84 114 157
98 126 159
93 119 140
85 112 142
84 112 148
75 106 156
78 108 157
81 110 155
88 116 160
83 113 151
76 107 154
84 113 159
78 109 152
74 104 147
64 97 153
68 101 157
68 100 151
72 102 148
76 106 151
71 103 154
68 98 139
69 102 143
62 94 135
65 97 132
61 95 138
63 96 146
58 91 127
62 94 123
63 97 135
58 92 126
66 98 134
65 97 128
57 91 123
62 96 145
59 93 139
60 94 122
60 93 128
60 94 130
60 95 136
59 93 129
59 94 136
59 93 122
60 95 139
59 94 129
60 95 139
58 92 134
59 93 137
60 94 138
58 92 137
60 95 133
59 94 132
60 95 141
60 95 136
59 93 126
58 93 125
60 94 128
58 93 124
58 92 128
60 95 133
60 94 134
61 96 147
61 96 144
58 93 129
60 94 124
61 96 137
60 94 130
60 95 140
61 96 137
60 95 137
60 94 140
60 95 133
61 96 141
59 93 126
59 93 134
59 94 137
60 94 126
61 95 144
60 95 134
61 96 135
58 93 134
59 93 129
60 94 136
59 93 124
60 95 134
59 93 130
60 94 137
59 94 133
59 94 133
59 93 124
60 94 136
60 95 142
59 93 126
59 94 134
59 93 125
59 93 131
60 95 140
59 93 128
59 92 126
58 92 126
58 92 122
58 93 134
60 94 131
60 95 135
59 94 121
61 95 139
59 94 122
59 93 128
60 94 130
59 93 121
59 93 126
59 94 122
60 95 135
58 92 124
60 94 134
58 92 120
59 94 131
59 92 126
58 92 124
58 92 120
58 92 121
59 93 121
59 94 120
56 88 107
57 90 111
57 91 108
58 91 120
58 91 122
58 91 117
55 87 97
62 94 108
92 112 67
107 124 25
111 127 0
108 119 0
125 137 0
108 123 0
119 135 0
117 132 0
114 130 0
132 146 0
137 152 0
115 129 0
122 135 0
107 119 0
110 122 0
132 145 0
120 133 0
127 140 0
124 139 0
136 149 0
124 138 0
117 132 0
128 141 0
120 132 0
121 135 0
131 146 0
135 147 0
134 149 0
110 124 0
133 148 0
129 143 0
130 141 0
133 145 0
132 147 0
126 141 0
135 148 0
133 147 0
128 141 0
143 157 0
130 142 0
131 145 0
143 158 0
137 151 0
135 149 0
131 143 0
134 150 0
141 154 0
141 154 0
127 142 0
138 151 0
140 155 0
127 138 0
135 149 0
137 148 0
131 145 0
148 162 0
133 147 0
129 141 0
140 150 0
138 151 0
142 154 0
136 145 0
135 147 0
144 157 0
138 151 0
147 161 0
143 155 0
138 149 0
145 161 0
145 157 0
143 156 0
140 154 0
146 157 0
144 154 0
145 157 0
146 158 0
148 161 0
148 158 0
149 163 0
147 164 0
137 149 0
144 158 0
144 157 0
151 165 0
141 153 0
146 158 0
150 162 0
148 163 0
142 156 0
148 160 0
146 160 0
142 156 0
152 167 0
153 169 0
149 161 0
155 170 0
153 162 0
149 163 0
148 160 0
154 167 0
156 171 0
152 168 0
152 166 0
150 165 0
153 170 0
150 164 0
150 167 0
152 163 0
155 170 0
158 173 0
148 162 0
154 169 0
159 175 0
157 172 0
153 167 0
156 173 0
157 171 0
157 172 0
160 176 0
160 175 0
161 176 0
161 176 0
155 170 0
160 176 0
154 169 0
158 176 0
161 178 0
162 179 0
151 166 0
158 173 0
164 181 0
155 171 0
160 177 0
156 175 0
163 180 0
164 182 0
161 179 0
160 177 0
160 179 0
163 182 0
162 179 0
163 182 0
162 177 0
163 181 0
169 185 0
163 182 0
166 185 0
164 181 0
156 173 0
164 184 0
165 185 0
164 182 0
167 184 0
166 187 0
162 182 0
161 180 0
166 185 0
171 195 72
169 192 76
172 195 76
173 197 84
167 192 88
169 193 51
175 199 76
168 192 72
168 192 62
168 192 67
174 198 67
173 197 67
171 195 92
172 196 67
170 194 62
173 198 111
169 194 57
171 195 80
169 193 72
170 194 76
166 191 67
168 193 80
169 193 80
172 197 88
166 190 57
167 191 57
169 193 80
167 192 72
172 197 92
162 185 57
169 193 57
168 192 88
171 195 67
166 190 72
169 193 62
167 191 62
166 190 76
171 195 92
168 193 57
169 194 80
164 189 80
165 189 51
167 190 84
164 189 92
162 185 51
166 190 44
162 186 80
163 188 84
164 187 67
161 185 67
166 190 84
158 182 44
168 192 67
156 179 72
160 184 76
169 193 80
160 185 80
159 182 44
163 187 76
165 189 95
167 189 62
156 178 57
159 183 88
161 185 72
158 182 51
161 184 95
157 181 62
159 183 84
157 181 51
161 185 67
161 185 76
161 185 95
156 179 72
164 187 88
161 184 62
161 185 76
157 179 76
162 185 57
158 181 76
157 181 82
157 180 57
153 177 80
146 168 74
141 164 84
142 166 111
133 157 102
101 127 115
106 132 128
82 110 128
96 122 124
89 117 134
87 114 128
91 119 128
91 119 134
91 117 138
83 112 134
104 129 140
92 119 136
93 120 143
92 119 134
94 120 145
93 118 121
93 121 156
98 124 132
93 120 136
99 125 144
94 121 146
87 115 141
101 126 145
96 123 141
92 118 136
92 120 151
91 118 148
90 118 155
86 114 140
88 116 150
91 118 150
94 121 144
94 121 143
85 112 147
78 109 160
71 102 147
87 114 156
73 105 153
78 108 151
81 111 158
69 101 139
67 99 149
74 105 155
62 96 143
73 104 149
80 108 149
66 99 141
65 98 143
62 95 133
69 101 147
67 99 144
69 99 132
70 100 135
67 98 127
64 97 144
61 94 126
60 94 139
64 97 126
60 94 133
62 95 129
60 93 130
58 92 129
58 91 125
61 95 134
59 92 130
61 94 130
58 92 131
61 95 141
58 92 131
60 95 137
60 95 130
60 94 136
59 94 134
59 93 124
59 94 136
60 94 133
59 93 130
59 93 127
58 93 134
58 92 124
61 96 143
61 96 145
59 94 134
59 93 131
59 93 134
59 93 128
60 95 135
59 94 128
61 96 148
60 95 140
60 94 135
60 95 135
59 94 129
60 94 134
58 92 125
61 96 139
59 94 131
59 94 130
60 95 139
60 95 135
59 93 127
59 94 121
59 93 124
59 93 130
59 94 131
60 95 134
59 94 128
59 93 122
58 92 118
61 95 139
59 93 128
59 94 130
59 94 122
59 94 126
59 94 129
59 93 124
58 93 128
59 93 129
61 96 141
59 94 129
61 95 136
58 92 129
58 91 120
59 93 131
59 93 121
62 97 141
59 93 133
58 92 124
58 92 120
58 91 122
59 93 122
59 93 125
58 92 121
59 93 122
59 94 122
59 92 124
58 91 120
59 93 130
59 92 125
59 93 121
57 91 108
60 95 140
57 90 114
60 94 129
56 89 103
58 92 114
60 94 129
58 92 122
58 93 121
57 91 115
58 92 113
58 92 121
59 93 125
55 88 99
57 89 108
61 91 107
91 111 78
121 138 18
115 130 0
125 142 0
117 130 0
114 127 0
114 127 0
118 133 0
121 136 0
119 134 0
122 137 0
121 134 0
126 141 0
128 140 0
122 136 0
130 145 0
127 143 0
126 140 0
121 134 0
123 138 0
124 138 0
126 139 0
127 140 0
118 132 0
126 142 0
129 144 0
126 140 0
131 147 0
123 136 0
140 153 0
130 142 0
134 148 0
126 139 0
134 148 0
127 139 0
143 157 0
140 154 0
123 137 0
131 144 0
131 142 0
136 151 0
134 148 0
141 154 0
137 153 0
131 144 0
132 147 0
138 151 0
139 154 0
139 153 0
131 145 0
134 149 0
133 144 0
129 144 0
135 146 0
138 150 0
142 155 0
140 155 0
136 150 0
142 154 0
144 156 0
133 145 0
129 141 0
150 167 0
148 163 0
137 150 0
141 154 0
145 159 0
145 159 0
145 158 0
146 158 0
150 164 0
147 160 0
146 157 0
141 152 0
145 156 0
147 161 0
151 165 0
141 155 0
143 156 0
138 153 0
141 157 0
144 155 0
149 162 0
151 165 0
146 158 0
148 163 0
147 161 0
146 158 0
153 167 0
151 165 0
150 162 0
146 159 0
151 164 0
158 174 0
143 155 0
148 161 0
148 161 0
155 173 0
152 166 0
149 163 0
146 159 0
153 168 0
155 170 0
157 172 0
152 167 0
152 167 0
152 168 0
154 168 0
152 167 0
155 169 0
151 165 0
150 164 0
150 163 0
153 167 0
156 171 0
157 171 0
158 174 0
157 172 0
160 176 0
155 172 0
157 173 0
155 170 0
163 181 0
157 173 0
163 181 0
155 175 0
152 166 0
158 177 0
158 175 0
157 173 0
158 175 0
158 175 0
162 178 0
158 175 0
158 176 0
158 175 0
162 181 0
155 171 0
163 180 0
164 182 0
163 181 0
162 178 0
157 174 0
161 178 0
165 186 0
160 177 0
165 182 0
158 177 0
167 185 0
161 180 0
165 185 0
167 184 0
164 184 0
162 181 0
169 191 0
168 187 0
165 185 0
160 179 0
170 193 88
171 195 80
173 197 67
168 193 51
171 194 84
171 194 51
171 195 84
172 195 62
169 193 57
166 190 72
166 190 67
171 195 72
169 193 80
169 193 67
169 193 72
170 194 67
169 194 84
171 195 67
171 195 62
171 194 51
168 191 92
169 193 62
169 193 62
170 194 62
171 194 62
170 194 67
167 192 95
170 194 57
165 188 84
164 189 80
172 196 76
166 190 62
168 193 76
165 189 72
164 187 57
170 195 72
165 190 62
169 194 67
169 191 36
168 191 44
165 189 92
168 192 72
163 188 67
167 192 88
168 192 76
167 192 88
166 190 76
166 189 57
165 188 62
163 188 95
168 191 72
169 193 84
163 186 36
167 191 57
156 181 72
163 186 67
169 193 80
165 190 76
162 185 72
164 188 102
159 183 51
159 183 62
160 184 67
156 180 72
161 184 76
163 186 62
156 180 72
158 182 62
164 187 62
160 183 80
157 180 76
155 178 44
162 185 76
161 184 62
157 181 72
158 181 67
156 179 76
160 183 84
147 169 76
153 177 67
159 181 80
161 184 80
156 178 76
158 181 87
148 171 86
134 159 97
122 146 88
101 127 116
96 123 111
89 117 118
94 120 141
89 116 134
100 126 141
93 118 131
100 127 146
97 123 135
93 120 144
95 121 141
87 115 139
97 123 127
91 117 137
85 113 120
95 120 135
98 123 135
96 123 148
100 126 137
103 128 147
91 118 133
95 122 142
92 120 145
107 131 152
89 115 137
83 111 143
94 122 148
92 119 148
98 125 147
83 111 146
90 117 140
83 110 143
76 107 148
83 112 156
83 112 148
92 119 151
82 112 158
79 108 147
73 105 157
68 99 152
76 104 142
71 102 145
73 103 145
66 100 154
74 103 141
70 100 144
65 99 147
72 103 143
62 96 142
65 99 147
64 97 131
64 97 131
76 104 133
70 102 128
66 98 132
61 95 132
66 97 130
63 95 138
62 94 126
68 99 118
61 94 130
61 95 136
58 92 121
62 96 135
58 92 124
59 93 131
59 93 134
60 94 128
60 95 140
60 94 136
59 93 130
60 94 134
60 95 144
58 92 126
59 93 122
59 94 136
59 94 137
60 94 135
60 95 134
60 95 137
59 94 139
59 94 125
60 95 135
60 95 137
60 94 136
59 94 141
59 94 130
59 93 125
59 94 124
59 93 132
58 92 129
58 93 126
58 92 130
59 93 124
61 95 135
58 91 124
60 95 133
59 94 125
59 93 121
60 94 135
60 95 133
59 94 134
58 92 118
58 92 130
59 94 122
60 94 131
60 95 133
59 93 126
59 94 134
58 92 126
59 94 131
60 94 131
61 95 139
60 95 133
57 91 113
60 95 131
61 96 136
59 94 128
60 95 133
59 94 129
59 93 133
60 94 125
58 92 124
60 94 136
58 92 114
60 95 134
59 93 124
59 93 129
57 90 114
61 95 134
59 93 137
59 93 131
59 93 129
56 89 103
59 93 129
58 92 121
59 93 126
59 92 125
59 93 129
58 92 122
59 93 129
57 90 117
59 93 135
59 93 118
59 93 121
57 90 118
57 91 117
57 90 111
57 90 107
59 93 124
57 90 117
56 89 110
53 85 101
65 92 92
82 105 85
114 128 31
113 128 18
110 123 0
122 137 0
123 138 0
113 128 0
106 119 0
127 142 0
112 126 0
124 139 0
119 133 0
120 136 0
118 133 0
118 131 0
125 138 0
118 131 0
125 141 0
125 141 0
131 147 0
126 144 0
115 129 0
119 134 0
122 135 0
138 154 0
127 143 0
127 142 0
135 149 0
135 151 0
130 146 0
130 144 0
133 148 0
130 143 0
131 142 0
127 141 0
127 140 0
137 152 0
129 143 0
142 157 0
124 138 0
133 147 0
134 147 0
130 145 0
134 145 0
133 147 0
139 151 0
140 152 0
138 155 0
133 147 0
132 148 0
139 154 0
141 155 0
132 148 0
132 147 0
138 152 0
143 157 0
136 151 0
143 157 0
139 153 0
145 159 0
147 163 0
138 152 0
138 152 0
139 153 0
141 155 0
140 152 0
144 159 0
145 160 0
143 155 0
138 151 0
143 155 0
144 158 0
144 157 0
142 155 0
146 158 0
137 150 0
146 158 0
146 162 0
148 163 0
150 164 0
150 164 0
146 159 0
151 166 0
153 168 0
144 157 0
141 155 0
150 162 0
142 156 0
149 165 0
146 159 0
153 167 0
141 156 0
154 169 0
153 169 0
154 170 0
145 160 0
143 156 0
153 168 0
154 169 0
149 164 0
161 172 0
155 171 0
159 176 0
157 172 0
158 173 0
151 167 0
160 176 0
152 165 0
152 169 0
153 171 0
160 176 0
158 174 0
147 160 0
155 171 0
150 166 0
158 173 0
161 176 0
155 171 0
154 172 0
155 170 0
157 173 0
161 178 0
156 173 0
165 183 0
157 174 0
158 176 0
154 172 0
164 182 0
157 176 0
160 178 0
160 178 0
158 177 0
156 173 0
163 182 0
162 180 0
163 181 0
165 184 0
167 186 0
157 175 0
166 185 0
162 180 0
162 182 0
163 182 0
166 186 0
161 181 0
161 179 0
161 178 0
163 179 0
162 181 0
164 181 0
166 184 0
164 183 0
164 183 0
168 189 0
162 179 0
160 178 0
167 187 0
165 184 0
167 187 0
171 196 72
172 195 67
168 192 57
169 193 67
171 195 76
168 193 62
171 196 102
167 191 76
172 195 57
171 195 72
169 193 57
171 196 95
172 195 84
169 193 72
168 192 67
173 196 72
167 190 76
171 195 88
172 195 57
171 195 80
170 194 88
172 197 80
169 192 84
171 194 36
165 190 80
165 189 72
169 194 84
169 192 62
170 194 67
172 197 95
170 194 88
170 195 76
165 188 67
167 191 76
171 195 84
166 191 84
166 190 80
170 193 67
163 188 62
165 190 62
164 190 80
166 191 62
162 185 44
171 195 62
166 190 44
165 189 62
165 190 72
168 192 88
166 191 88
162 186 88
165 188 72
163 187 51
162 185 36
166 189 76
165 189 67
165 189 62
167 191 62
161 185 67
160 183 57
162 187 92
162 185 57
165 189 88
157 182 72
161 184 80
161 184 72
162 186 67
158 182 62
160 184 80
160 184 72
162 187 76
153 177 57
161 184 57
154 176 57
151 175 62
153 177 67
154 177 36
154 176 51
154 178 72
153 176 76
157 181 72
156 179 76
161 183 72
156 179 92
151 173 90
155 178 74
140 163 82
134 156 101
118 142 102
107 132 115
82 110 114
77 106 110
84 111 121
92 120 144
78 108 130
97 123 138
89 116 136
94 120 128
87 114 130
92 120 136
80 108 126
98 123 130
105 131 139
89 116 139
89 116 125
97 123 134
100 126 142
92 119 125
99 124 139
97 122 142
83 110 134
87 115 144
89 116 145
91 118 144
96 123 130
93 119 136
99 125 150
98 124 135
92 119 153
103 127 147
84 111 140
83 111 153
89 115 140
80 110 149
90 116 148
70 103 142
75 106 141
78 108 147
67 101 152
72 103 150
64 98 148
79 108 150
84 110 145
75 105 151
65 98 149
77 107 148
73 103 140
70 100 141
68 100 132
60 94 137
67 100 148
62 94 126
67 100 131
67 99 141
64 98 128
60 94 126
61 94 129
63 97 132
62 95 122
63 97 133
58 92 128
58 91 123
58 92 127
57 91 114
60 95 135
57 91 114
58 92 124
57 91 108
58 92 111
57 91 118
57 91 124
60 95 136
58 92 122
58 93 130
58 92 128
58 93 124
60 94 134
59 94 129
60 94 135
60 95 136
57 91 125
58 93 131
58 91 125
59 94 137
60 95 135
58 92 117
60 94 134
58 92 124
59 93 115
61 95 136
60 94 133
60 95 140
59 93 131
60 95 134
58 92 121
60 95 137
59 93 129
59 94 135
59 94 126
59 93 121
61 95 134
59 93 130
60 95 131
60 95 131
59 93 126
60 95 131
59 93 126
60 95 128
61 96 139
59 94 133
59 93 125
60 95 131
59 93 125
61 95 143
59 93 128
59 93 126
60 94 133
61 95 134
59 93 128
60 94 135
59 93 130
58 92 121
59 93 122
59 93 121
59 93 124
59 93 129
60 95 130
58 92 120
58 92 117
56 88 111
58 92 125
58 92 120
59 93 131
58 92 113
58 92 121
60 94 133
59 93 133
60 94 126
57 91 118
58 91 125
57 89 115
58 91 118
58 91 114
59 93 131
56 89 108
58 92 117
58 91 124
56 88 102
57 90 121
57 90 120
61 91 113
76 97 78
101 117 40
115 129 18
118 131 0
114 127 0
123 139 0
121 135 0
121 137 0
115 128 0
117 130 0
118 133 0
129 143 0
128 141 0
110 124 0
122 137 0
116 130 0
125 137 0
130 145 0
120 134 0
125 138 0
132 148 0
130 145 0
122 137 0
135 150 0
126 141 0
131 146 0
124 137 0
125 142 0
129 146 0
143 158 0
125 138 0
128 145 0
127 139 0
134 148 0
132 145 0
133 148 0
143 159 0
136 151 0
134 148 0
138 154 0
136 152 0
129 143 0
129 144 0
131 147 0
142 155 0
139 155 0
138 151 0
140 155 0
138 154 0
136 149 0
139 152 0
129 142 0
139 153 0
143 158 0
143 157 0
137 150 0
134 146 0
147 162 0
146 160 0
140 155 0
143 157 0
142 158 0
135 149 0
137 150 0
142 155 0
145 159 0
137 149 0
145 161 0
146 162 0
139 153 0
133 147 0
141 154 0
142 157 0
140 153 0
139 151 0
139 154 0
149 166 0
146 160 0
149 163 0
142 155 0
157 170 0
142 155 0
143 157 0
149 165 0
139 154 0
152 167 0
139 153 0
148 163 0
155 170 0
150 165 0
152 167 0
147 162 0
150 165 0
150 165 0
154 168 0
152 165 0
147 161 0
150 165 0
156 173 0
157 172 0
153 169 0
152 168 0
156 172 0
151 166 0
152 165 0
153 168 0
158 174 0
156 172 0
156 170 0
150 168 0
159 175 0
162 178 0
147 163 0
154 170 0
155 169 0
158 174 0
152 169 0
155 170 0
153 169 0
165 179 0
159 173 0
160 177 0
161 180 0
159 174 0
155 172 0
158 176 0
154 169 0
163 181 0
163 178 0
155 172 0
160 178 0
166 183 0
159 178 0
160 178 0
161 178 0
158 177 0
162 183 0
160 179 0
160 176 0
161 180 0
165 181 0
163 181 0
169 187 0
161 179 0
166 183 0
163 180 0
158 177 0
165 183 0
164 185 0
165 183 0
165 186 0
164 184 0
161 179 0
162 181 0
159 178 0
162 180 0
160 179 0
165 185 0
166 187 0
160 179 0
171 196 62
173 197 57
169 193 44
173 197 67
167 192 92
174 197 72
170 194 67
169 192 57
169 193 44
169 193 76
168 192 57
170 194 62
172 196 88
166 191 92
168 191 76
168 193 80
169 193 92
168 191 57
169 194 67
171 195 57
162 186 57
166 190 76
169 194 72
167 191 36
169 194 88
171 195 76
170 196 95
164 188 67
167 192 76
168 193 88
167 192 92
174 197 72
164 187 51
170 194 76
171 194 80
166 189 76
162 186 62
165 190 72
164 188 67
166 191 80
165 189 84
169 193 88
165 189 76
167 192 84
163 187 62
166 189 67
161 185 62
166 189 84
156 180 76
164 188 44
166 190 67
167 191 80
162 185 67
169 193 80
165 189 62
166 190 62
165 189 76
156 180 57
161 184 57
164 188 88
163 187 76
157 180 62
160 184 62
163 187 67
165 188 80
153 176 72
158 182 57
161 184 51
159 182 67
162 185 62
158 182 62
157 179 76
159 183 67
156 179 72
165 188 57
159 182 80
161 184 72
152 176 80
154 178 67
155 177 72
154 177 80
153 177 84
152 174 57
160 182 84
156 178 74
140 162 82
140 164 90
124 147 105
109 133 111
88 115 113
94 121 129
93 119 128
88 116 124
83 111 132
81 108 120
93 119 119
87 114 120
99 124 144
91 118 130
95 121 135
85 112 134
92 119 134
80 109 129
89 116 133
79 108 127
84 110 130
103 127 143
99 125 141
87 115 133
84 112 137
91 118 132
111 134 148
86 113 136
91 119 144
88 114 144
94 120 148
98 124 154
85 113 137
100 126 151
91 118 154
85 114 148
86 115 153
88 115 152
76 104 138
77 107 146
73 105 144
81 110 152
83 112 149
83 111 156
77 105 142
76 106 152
79 106 146
74 104 150
81 107 135
64 97 137
66 99 143
66 99 141
70 102 139
60 92 131
67 97 129
70 101 142
64 97 134
61 95 130
65 97 119
68 100 136
60 94 128
60 93 125
58 92 120
61 94 125
61 95 128
58 91 124
58 92 128
59 93 129
59 93 124
60 94 134
61 94 125
58 92 124
58 91 125
58 91 115
60 94 131
58 92 119
59 93 131
58 93 120
58 92 115
60 95 139
59 94 125
58 92 126
59 93 127
58 93 129
58 93 122
59 93 124
60 95 139
60 94 136
57 91 118
60 94 130
60 95 139
59 93 126
60 95 130
58 92 126
59 93 129
61 96 139
61 95 140
61 96 137
60 95 139
59 93 130
59 94 133
59 94 126
59 93 136
59 93 131
59 93 120
59 94 128
60 95 135
59 93 129
59 93 134
58 92 122
58 92 121
59 94 125
58 92 124
59 93 129
59 94 130
59 93 130
60 95 136
58 93 124
59 93 131
59 93 120
59 93 131
59 94 128
59 94 130
60 95 129
58 92 128
59 93 122
59 93 122
57 90 121
57 91 118
59 93 125
58 91 117
60 94 125
60 95 128
58 92 118
59 93 122
58 92 120
59 93 117
59 94 131
56 89 107
59 94 128
57 90 113
59 93 128
58 92 122
57 90 110
58 92 124
58 92 115
56 90 111
58 91 114
58 91 113
58 91 122
58 92 107
58 90 118
56 88 107
56 88 108
75 97 70
99 117 62
112 125 25
110 125 0
120 135 0
126 143 0
118 134 0
116 130 0
116 132 0
105 122 0
113 127 0
119 135 0
124 138 0
107 121 0
117 132 0
120 133 0
120 137 0
130 143 0
117 132 0
125 139 0
118 131 0
124 138 0
121 136 0
122 138 0
128 143 0
137 153 0
131 146 0
133 149 0
124 138 0
127 144 0
121 137 0
126 139 0
133 148 0
126 142 0
127 144 0
140 157 0
136 148 0
127 141 0
128 141 0
134 151 0
134 151 0
135 148 0
136 151 0
138 154 0
142 158 0
130 145 0
127 141 0
136 149 0
144 162 0
134 147 0
134 146 0
145 161 0
140 152 0
136 150 0
139 154 0
138 151 0
134 147 0
138 152 0
133 149 0
142 157 0
136 152 0
144 161 0
136 149 0
144 157 0
133 146 0
145 161 0
145 161 0
140 155 0
139 153 0
138 152 0
146 159 0
146 160 0
137 150 0
145 159 0
144 158 0
135 150 0
148 163 0
148 166 0
146 163 0
143 155 0
147 163 0
148 162 0
147 161 0
147 159 0
150 165 0
148 160 0
153 168 0
140 157 0
145 161 0
149 162 0
143 157 0
158 172 0
150 166 0
150 165 0
155 171 0
150 165 0
153 170 0
151 166 0
151 165 0
157 173 0
154 170 0
149 163 0
154 169 0
154 169 0
148 164 0
155 170 0
147 161 0
156 171 0
150 162 0
152 170 0
158 173 0
155 173 0
152 166 0
158 173 0
159 175 0
152 168 0
157 173 0
160 176 0
163 181 0
157 174 0
159 175 0
164 182 0
148 162 0
159 176 0
151 167 0
156 172 0
157 175 0
164 180 0
157 175 0
161 179 0
160 177 0
159 176 0
159 175 0
160 179 0
159 176 0
162 180 0
163 182 0
162 179 0
166 186 0
158 178 0
160 179 0
163 182 0
166 187 0
158 176 0
163 180 0
162 180 0
161 180 0
162 180 0
165 184 0
163 183 0
160 177 0
162 180 0
165 183 0
161 179 0
162 181 0
160 179 0
167 187 0
166 184 0
164 183 0
167 186 0
167 185 0
172 195 80
172 196 80
173 197 84
169 194 84
171 195 72
168 192 76
169 193 72
169 193 76
169 193 80
168 191 57
166 190 76
172 196 76
173 197 80
172 196 80
173 197 76
170 194 76
168 191 36
169 193 84
169 193 72
172 197 62
168 191 57
167 191 62
172 196 80
170 194 80
167 191 62
164 188 44
169 193 67
163 187 62
168 191 76
166 190 72
166 190 44
159 183 62
169 193 67
162 185 36
167 192 102
163 188 92
166 190 67
166 190 62
171 197 95
171 194 80
165 189 76
162 186 72
163 187 51
162 187 72
171 195 84
169 193 72
165 189 67
162 185 51
166 190 72
163 187 67
166 190 84
165 190 80
161 185 51
167 192 84
163 187 67
167 192 67
159 182 57
157 180 54
160 185 95
162 187 80
161 185 76
162 185 62
166 191 51
163 187 72
157 181 76
159 182 80
155 179 62
160 183 62
159 183 92
162 185 67
154 177 51
155 178 44
163 187 80
161 184 72
156 179 62
156 178 80
155 179 51
154 177 76
158 180 80
159 181 67
148 170 95
158 181 84
150 173 88
155 179 84
155 178 92
152 174 99
138 160 92
123 146 72
124 147 108
109 134 122
89 116 123
84 112 126
89 117 131
80 107 120
78 106 124
89 116 122
84 111 122
95 122 133
97 124 129
101 126 137
93 120 133
94 121 132
93 119 136
99 126 145
93 119 133
95 122 140
91 118 139
99 125 141
99 126 133
102 126 130
108 133 133
96 121 136
96 121 142
95 122 145
98 125 128
95 122 135
90 116 124
95 121 130
80 110 142
81 109 148
90 117 131
80 108 138
75 105 147
83 112 154
71 103 139
82 110 151
81 107 145
74 104 145
74 103 139
66 99 148
71 101 143
82 109 149
79 105 141
76 106 143
71 101 142
67 99 144
75 105 135
65 98 143
73 104 136
60 94 143
68 98 125
66 97 129
60 93 129
67 99 140
62 94 129
58 92 130
63 95 120
61 95 137
58 91 121
57 90 113
60 94 124
59 93 117
61 95 126
58 92 126
61 94 122
58 92 129
58 92 120
59 93 128
58 91 126
57 91 118
58 92 124
58 92 124
58 92 129
59 93 131
58 92 122
59 94 133
58 91 121
57 91 117
59 93 126
60 94 131
59 93 129
59 93 133
59 93 131
60 95 133
59 93 129
59 93 120
59 93 121
59 93 129
59 94 130
59 94 128
59 93 121
59 94 135
59 93 126
60 94 136
59 94 130
59 93 125
58 92 120
58 92 119
58 92 128
59 94 129
59 93 129
60 94 130
59 93 129
60 94 134
59 93 128
58 93 124
60 94 124
59 93 130
59 93 129
57 91 117
58 92 122
60 94 141
60 94 131
58 91 121
58 92 122
59 93 134
58 92 115
58 92 117
61 95 128
58 91 121
59 93 126
58 92 131
59 93 120
58 91 122
59 92 124
59 93 128
57 91 118
59 92 126
58 92 118
59 93 120
58 92 121
58 92 115
60 94 125
56 90 103
57 91 117
59 92 125
59 94 125
57 91 117
58 91 121
59 92 120
58 91 118
56 88 108
56 89 115
58 91 117
56 89 105
54 86 97
56 89 111
62 93 110
87 108 74
94 111 47
97 111 25
110 125 0
109 124 0
107 122 0
122 137 0
110 123 0
117 132 0
123 139 0
123 137 0
127 141 0
116 131 0
117 133 0
127 144 0
117 133 0
116 132 0
114 126 0
124 140 0
118 134 0
122 136 0
129 144 0
130 146 0
128 143 0
132 147 0
127 144 0
117 131 0
130 144 0
136 152 0
124 141 0
133 147 0
135 149 0
122 138 0
131 146 0
128 140 0
130 145 0
130 145 0
129 146 0
134 149 0
132 146 0
137 153 0
141 157 0
136 152 0
128 142 0
137 152 0
132 147 0
141 155 0
138 154 0
129 145 0
136 148 0
144 159 0
137 153 0
131 144 0
133 149 0
143 158 0
140 154 0
138 155 0
136 151 0
143 158 0
136 151 0
136 153 0
131 146 0
127 137 0
140 154 0
142 157 0
145 159 0
138 151 0
138 153 0
136 152 0
149 164 0
141 156 0
133 149 0
143 154 0
136 149 0
140 151 0
147 163 0
145 160 0
143 155 0
141 157 0
136 152 0
151 167 0
147 161 0
145 161 0
147 162 0
138 150 0
149 164 0
150 166 0
146 160 0
149 164 0
150 167 0
145 158 0
149 164 0
152 168 0
141 154 0
146 161 0
145 160 0
157 173 0
154 169 0
153 168 0
146 162 0
154 169 0
148 162 0
151 165 0
149 164 0
155 169 0
148 164 0
151 166 0
153 168 0
151 168 0
158 172 0
159 177 0
155 171 0
157 176 0
156 172 0
156 173 0
160 178 0
159 176 0
157 172 0
151 169 0
148 164 0
155 169 0
156 173 0
153 169 0
156 172 0
160 178 0
163 181 0
160 177 0
162 180 0
157 174 0
155 171 0
163 180 0
162 180 0
162 181 0
150 166 0
168 186 0
163 179 0
160 177 0
162 178 0
160 179 0
164 181 0
162 182 0
161 179 0
164 182 0
157 175 0
159 176 0
164 183 0
159 175 0
158 177 0
159 175 0
164 184 0
166 185 0
163 182 0
163 180 0
164 183 0
160 178 0
158 175 0
167 186 0
167 185 0
162 180 0
166 186 0
159 175 0
166 186 0
173 198 76
171 196 88
169 194 44
169 193 72
169 193 76
171 195 80
172 196 76
170 195 67
170 193 67
171 195 67
174 198 76
168 192 72
167 191 76
171 195 57
172 196 80
170 194 57
170 195 88
166 190 51
169 194 80
167 191 84
167 191 57
165 190 67
167 191 72
171 196 76
167 192 80
171 197 84
169 193 88
167 191 62
162 186 57
169 193 51
168 193 72
168 192 62
167 190 57
165 188 62
169 193 72
170 195 92
169 192 72
166 190 62
169 194 72
169 193 67
170 194 51
166 190 72
166 190 76
168 191 57
161 186 67
165 189 76
168 192 99
168 194 108
169 193 84
162 186 92
159 183 57
168 191 72
163 187 92
166 189 76
164 188 92
168 192 88
159 183 62
163 187 62
164 187 57
157 181 76
154 177 57
150 174 57
161 185 72
158 182 62
165 189 84
162 185 99
161 185 80
158 180 67
156 178 44
159 182 72
161 184 84
154 177 72
154 177 72
148 171 51
163 186 62
155 177 36
157 180 78
153 176 67
149 172 67
158 181 62
157 181 62
156 179 80
154 177 74
144 165 51
142 163 57
160 181 86
146 170 94
136 158 95
126 149 96
128 150 94
103 128 99
90 116 110
89 116 127
104 130 130
85 113 129
77 106 121
85 112 124
93 120 142
88 114 137
98 124 134
93 119 133
90 116 126
84 112 125
91 117 135
84 111 137
93 120 134
102 128 136
92 117 119
83 112 134
105 130 146
86 113 130
87 114 137
101 127 133
87 115 148
85 112 131
87 113 138
89 116 141
85 114 124
92 118 149
90 117 155
100 125 160
91 118 141
88 115 143
85 113 150
87 114 152
71 103 145
77 107 145
80 110 149
67 100 148
75 103 140
90 116 153
81 110 152
65 96 138
70 103 146
76 105 140
64 97 143
74 103 141
68 100 134
66 99 130
64 96 128
68 100 128
63 95 118
63 96 122
69 100 125
68 100 132
60 93 126
64 96 131
58 92 128
60 93 130
59 92 130
58 93 133
59 93 122
60 95 134
60 94 134
58 93 131
61 96 133
58 92 121
59 93 126
60 95 136
59 93 126
58 92 120
59 94 120
57 91 127
60 95 136
58 92 115
57 91 122
60 94 134
59 94 134
59 93 130
59 94 129
59 93 131
57 92 120
60 94 134
58 92 124
61 96 135
58 92 129
58 92 119
59 93 125
59 94 124
59 93 128
60 95 135
58 92 126
58 91 121
59 93 125
59 93 127
59 93 125
59 94 131
59 93 126
60 94 135
60 94 134
59 93 125
58 92 122
60 94 141
60 94 130
60 94 128
59 93 124
60 95 133
60 94 130
59 93 133
60 94 117
59 93 126
58 91 114
58 92 118
58 92 120
59 93 135
60 94 131
58 92 126
59 93 126
58 92 125
60 94 130
60 95 128
59 93 122
58 92 115
59 93 122
60 94 128
60 94 128
59 93 122
60 94 122
59 94 126
57 91 118
59 93 118
59 94 125
57 90 115
58 92 118
57 91 110
57 90 111
58 91 105
56 89 107
58 91 121
57 91 117
56 88 99
55 87 97
55 86 94
57 90 118
56 89 102
57 90 113
56 86 99
78 102 80
107 124 51
108 123 0
123 137 0
109 121 0
123 137 0
120 133 0
107 121 0
128 143 0
113 127 0
108 122 0
123 137 0
130 145 0
118 134 0
115 128 0
118 134 0
125 139 0
124 138 0
127 143 0
120 135 0
131 147 0
135 151 0
127 142 0
126 141 0
133 150 0
131 145 0
123 139 0
123 139 0
139 158 0
131 147 0
134 148 0
124 137 0
128 143 0
134 152 0
137 152 0
120 136 0
127 144 0
140 156 0
127 142 0
139 155 0
138 154 0
120 137 0
141 157 0
133 148 0
133 148 0
122 137 0
133 147 0
140 157 0
130 145 0
139 153 0
133 148 0
133 146 0
138 155 0
139 155 0
135 153 0
129 143 0
139 157 0
139 154 0
134 149 0
141 158 0
143 159 0
138 152 0
141 156 0
142 155 0
141 156 0
132 147 0
149 166 0
141 159 0
145 158 0
142 156 0
134 148 0
149 166 0
150 167 0
148 164 0
139 154 0
146 164 0
139 151 0
144 157 0
153 168 0
147 164 0
152 166 0
148 161 0
139 151 0
148 163 0
140 154 0
144 158 0
159 176 0
146 159 0
151 167 0
152 166 0
157 174 0
153 168 0
150 163 0
149 163 0
151 166 0
152 168 0
152 168 0
152 167 0
152 167 0
152 168 0
149 162 0
154 170 0
151 166 0
142 157 0
154 171 0
155 173 0
151 165 0
158 175 0
155 171 0
149 164 0
157 172 0
153 168 0
157 175 0
150 166 0
152 167 0
157 172 0
153 169 0
157 172 0
158 176 0
158 174 0
159 177 0
160 176 0
160 176 0
155 171 0
162 178 0
159 176 0
158 175 0
160 178 0
159 177 0
157 173 0
160 178 0
164 182 0
162 179 0
164 181 0
164 180 0
163 181 0
157 175 0
162 179 0
162 179 0
166 183 0
163 180 0
163 181 0
161 181 0
157 176 0
163 180 0
162 180 0
167 185 0
164 183 0
165 184 0
156 173 0
163 179 0
165 185 0
162 183 0
167 186 0
162 181 0
166 186 0
165 184 0
164 182 0
161 178 0
162 184 0
165 184 0
161 179 0
162 182 0
170 192 67
172 196 88
170 195 76
171 196 99
173 197 67
172 196 88
169 193 72
173 197 92
172 196 84
171 194 67
171 197 92
168 192 67
171 195 92
171 196 62
171 196 84
167 192 80
170 193 62
171 196 88
168 192 84
172 195 67
170 194 80
168 192 80
172 195 84
169 193 57
165 189 72
167 191 57
167 192 67
166 190 72
170 194 80
166 190 67
170 194 72
167 191 92
172 196 84
167 191 62
169 194 76
167 191 72
168 192 92
165 189 72
164 188 80
164 188 72
165 189 72
168 191 72
164 189 88
169 193 76
166 191 105
159 182 44
162 186 88
165 190 51
166 190 72
165 188 62
163 186 80
160 184 62
163 188 80
161 185 72
157 182 62
158 182 67
163 187 76
164 188 80
161 184 57
157 181 76
161 184 72
164 188 76
159 183 72
160 183 67
160 184 84
164 188 99
156 179 44
163 187 72
159 182 80
159 182 88
160 184 84
157 180 92
159 183 99
158 181 95
159 182 80
158 180 76
163 186 76
158 181 88
151 174 76
154 176 67
156 179 76
168 190 80
157 179 62
159 182 84
153 175 88
154 176 88
144 166 60
153 175 97
131 153 103
120 143 101
118 142 117
97 124 113
89 114 106
84 111 121
81 110 120
93 119 126
77 105 114
85 112 126
103 129 127
91 118 133
80 108 122
90 116 126
87 114 130
91 117 132
96 121 147
80 108 126
87 114 111
97 122 136
89 116 138
102 128 149
95 121 139
88 116 135
101 126 129
96 122 135
109 134 152
94 120 129
99 125 144
98 123 140
93 120 142
95 121 154
95 119 137
97 121 152
93 119 143
87 114 137
91 117 147
80 107 128
83 111 147
87 114 148
81 109 144
81 107 145
74 105 148
75 105 139
69 99 135
77 105 145
66 98 141
66 98 139
65 97 136
62 95 131
70 101 144
61 96 130
73 104 140
70 100 132
65 96 132
66 97 126
61 95 134
64 96 118
58 91 129
63 95 127
61 94 126
58 91 124
60 93 119
59 92 115
57 90 123
57 91 123
62 96 136
59 93 129
58 93 126
59 93 133
60 95 136
58 93 120
59 93 129
59 94 131
58 92 124
59 94 128
58 92 124
60 94 140
60 94 118
60 95 135
59 93 127
58 92 131
58 93 127
58 91 118
59 93 123
58 92 124
60 95 124
58 91 128
59 94 131
60 94 134
58 93 130
60 94 133
59 93 134
59 93 125
58 92 122
58 92 121
58 91 118
58 92 127
60 94 124
60 95 134
60 94 131
59 93 126
58 91 122
58 93 124
60 94 130
58 92 122
59 93 142
58 92 124
60 94 133
59 93 136
60 94 126
59 93 131
59 93 125
57 90 126
59 93 120
60 94 130
59 94 130
57 90 125
57 91 122
59 93 133
57 91 108
58 92 121
58 93 128
57 90 114
58 92 120
58 91 121
59 94 126
58 92 122
57 91 110
58 92 122
57 91 121
58 92 117
57 90 117
58 92 115
59 92 126
57 90 120
58 92 118
57 90 113
59 93 121
56 89 114
58 92 117
57 90 118
58 92 111
55 88 102
58 92 120
55 87 108
56 89 108
58 89 100
64 88 74
101 118 60
107 121 0
112 126 0
110 125 0
115 132 0
123 138 0
115 129 0
112 126 0
127 144 0
122 138 0
117 132 0
115 130 0
126 140 0
126 141 0
121 138 0
111 126 0
121 135 0
124 139 0
118 135 0
135 152 0
129 146 0
130 146 0
132 146 0
128 145 0
124 138 0
121 136 0
132 148 0
127 143 0
135 154 0
125 140 0
129 146 0
138 154 0
120 136 0
125 140 0
136 153 0
126 142 0
131 147 0
135 152 0
146 161 0
137 152 0
124 137 0
141 157 0
135 151 0
140 157 0
142 157 0
133 149 0
133 150 0
145 160 0
137 153 0
133 148 0
137 154 0
145 161 0
141 156 0
129 144 0
135 151 0
144 159 0
135 151 0
139 154 0
142 157 0
143 157 0
142 153 0
145 160 0
137 151 0
148 165 0
144 158 0
141 155 0
141 157 0
143 159 0
145 161 0
145 161 0
149 166 0
141 159 0
143 157 0
143 159 0
148 163 0
148 163 0
149 165 0
148 162 0
152 165 0
145 161 0
148 164 0
140 156 0
147 162 0
143 158 0
152 164 0
146 162 0
148 163 0
147 164 0
141 158 0
153 168 0
156 171 0
152 167 0
149 166 0
148 161 0
153 169 0
151 165 0
143 159 0
155 173 0
148 161 0
152 167 0
155 171 0
149 166 0
148 164 0
151 167 0
159 176 0
153 169 0
155 169 0
150 166 0
152 166 0
160 179 0
153 170 0
158 175 0
154 171 0
155 172 0
156 173 0
152 169 0
157 173 0
159 175 0
159 176 0
156 173 0
160 178 0
159 174 0
154 172 0
162 179 0
152 168 0
159 176 0
157 174 0
164 181 0
164 181 0
168 186 0
156 172 0
156 172 0
156 173 0
151 169 0
160 178 0
167 185 0
164 181 0
157 175 0
160 177 0
158 176 0
159 177 0
161 180 0
161 180 0
161 180 0
165 184 0
166 187 0
161 179 0
165 184 0
162 180 0
165 185 0
164 183 0
157 175 0
160 179 0
160 178 0
163 182 0
160 178 0
161 180 0
161 181 0
164 183 0
169 187 0
166 186 0
165 184 0
165 185 0
171 195 84
168 192 72
167 191 67
168 192 51
171 195 67
169 193 62
171 194 80
172 197 72
173 197 80
167 192 62
168 193 67
172 196 67
166 190 62
173 197 76
171 195 80
167 191 72
167 190 72
171 195 76
167 192 105
169 192 62
170 195 80
170 194 67
169 194 72
169 194 80
169 193 88
161 185 76
165 190 76
167 191 76
166 191 72
168 192 72
165 189 80
164 189 67
169 194 67
167 191 92
170 195 67
168 192 72
173 196 84
164 188 72
170 195 88
161 185 72
169 193 72
162 187 88
162 186 72
164 189 80
165 188 51
162 186 72
165 188 57
165 189 80
167 191 88
166 190 72
158 181 57
165 189 95
165 190 80
166 189 57
166 190 95
164 187 72
165 188 62
164 188 80
160 183 62
168 193 99
163 187 80
163 186 72
161 184 36
164 188 84
156 180 88
163 186 84
163 185 67
155 178 72
161 185 92
159 182 67
159 182 88
157 181 51
162 185 105
161 184 76
154 176 67
145 168 80
157 180 72
154 178 72
153 175 51
159 183 76
158 182 76
151 174 92
145 167 76
151 173 62
149 172 80
148 171 62
150 172 72
153 175 74
144 166 92
129 151 90
119 142 108
120 143 124
90 116 103
104 129 135
97 123 126
87 113 121
86 113 129
89 116 124
91 117 123
91 117 135
95 121 122
91 117 134
92 119 134
99 124 133
85 113 128
103 128 141
101 125 123
103 129 151
111 135 144
99 124 126
95 119 128
109 132 138
94 119 137
93 120 131
90 116 135
96 121 133
105 129 139
101 127 139
100 125 137
94 120 147
95 121 132
97 121 151
91 118 138
84 113 150
77 107 139
77 107 148
84 111 144
86 114 150
87 113 141
71 100 135
77 104 136
77 105 137
77 103 129
70 101 146
84 109 138
79 107 139
71 102 146
71 102 143
76 105 133
76 103 124
77 106 131
73 102 139
65 97 132
61 93 125
68 99 129
58 92 121
62 94 118
60 93 124
59 91 118
61 94 125
58 92 122
60 94 126
58 92 121
58 92 131
57 92 118
60 94 130
57 91 115
57 91 129
58 92 122
58 92 122
59 94 129
57 91 115
58 92 117
60 95 130
58 93 117
58 92 128
58 92 124
58 92 137
59 93 134
58 92 120
59 93 129
58 92 136
59 94 129
60 95 139
60 95 128
59 93 136
59 93 129
59 94 136
59 93 125
59 93 129
59 94 128
60 95 134
59 93 117
58 92 120
58 92 122
59 93 110
58 92 126
58 91 128
58 92 117
58 92 115
57 91 125
58 92 122
59 93 126
60 94 133
60 95 137
59 93 130
61 95 137
57 91 115
59 93 128
58 93 121
58 92 129
59 93 117
61 95 131
58 92 125
59 93 124
59 94 125
59 93 120
59 93 121
58 92 121
60 94 133
59 93 124
60 93 126
59 93 115
57 91 103
58 92 129
58 91 110
57 91 114
58 92 117
59 92 125
57 91 114
56 89 111
58 91 113
57 90 107
58 91 121
57 90 115
58 92 117
57 90 108
58 91 117
58 91 115
58 91 107
53 84 94
55 88 97
56 88 107
55 88 102
56 85 83
67 92 80
99 116 44
112 128 36
115 129 0
115 130 0
110 124 0
125 142 0
123 137 0
123 138 0
113 130 0
111 125 0
110 125 0
127 143 0
120 135 0
115 133 0
119 134 0
111 129 0
128 144 0
120 137 0
126 141 0
110 126 0
120 135 0
120 135 0
122 136 0
126 138 0
118 133 0
130 147 0
129 146 0
126 141 0
134 150 0
134 150 0
129 144 0
131 148 0
133 147 0
139 156 0
136 152 0
136 154 0
133 148 0
138 154 0
122 137 0
136 154 0
137 155 0
130 142 0
138 153 0
136 152 0
138 152 0
141 157 0
134 152 0
132 148 0
136 150 0
133 149 0
141 158 0
143 159 0
133 148 0
133 148 0
141 155 0
136 150 0
148 165 0
141 157 0
146 163 0
141 156 0
135 150 0
144 160 0
142 157 0
137 153 0
146 161 0
149 164 0
144 157 0
140 156 0
144 160 0
148 162 0
146 160 0
147 162 0
144 160 0
143 157 0
144 159 0
148 162 0
149 163 0
146 160 0
143 157 0
146 160 0
153 169 0
140 157 0
153 168 0
151 166 0
152 168 0
152 167 0
151 170 0
141 156 0
153 169 0
145 158 0
156 174 0
157 172 0
147 161 0
153 170 0
136 152 0
152 167 0
150 167 0
152 168 0
148 164 0
142 158 0
150 163 0
147 163 0
158 176 0
155 171 0
155 173 0
153 171 0
149 166 0
156 170 0
148 164 0
155 171 0
156 172 0
159 176 0
160 177 0
155 173 0
157 173 0
157 173 0
159 175 0
157 176 0
159 174 0
157 173 0
162 181 0
159 177 0
159 178 0
153 168 0
161 180 0
150 164 0
157 176 0
161 180 0
155 175 0
156 173 0
161 178 0
163 182 0
161 180 0
164 183 0
157 175 0
160 179 0
162 180 0
161 178 0
165 183 0
161 179 0
161 178 0
162 180 0
160 179 0
165 182 0
160 179 0
167 187 0
162 180 0
163 181 0
164 182 0
158 175 0
161 180 0
161 178 0
166 186 0
163 183 0
167 187 0
161 181 0
162 180 0
165 185 0
168 187 0
166 187 0
161 180 0
164 183 0
167 189 0
170 191 0
169 193 62
168 192 57
167 191 67
169 193 62
169 192 57
168 192 62
168 192 72
169 192 67
169 193 72
171 195 57
172 196 57
169 193 84
172 196 76
166 191 72
171 196 88
169 193 76
171 195 62
173 197 76
173 197 57
167 191 72
163 187 57
171 194 62
170 195 72
164 189 62
167 191 67
170 194 88
163 187 88
167 191 88
163 187 36
167 191 67
172 197 76
172 196 57
171 194 72
169 194 84
169 193 80
171 195 84
169 192 67
165 189 76
167 191 80
170 193 76
161 186 95
166 191 84
164 188 67
168 191 62
164 188 88
166 190 80
163 188 92
164 189 84
158 182 62
167 192 95
166 191 72
154 178 76
164 188 76
163 187 72
166 189 67
166 189 80
166 190 80
159 183 57
165 188 88
160 183 57
162 185 80
158 181 72
166 189 88
172 195 84
159 183 80
158 181 76
159 183 76
161 185 92
154 178 57
157 181 65
159 182 102
159 182 76
160 183 57
156 180 67
155 179 76
148 170 62
159 182 72
158 182 80
157 179 72
154 177 51
158 181 76
149 172 62
148 170 67
148 170 76
157 179 76
151 173 76
153 176 88
145 166 67
148 170 74
139 161 76
142 165 100
128 150 103
100 125 121
110 135 127
106 131 137
76 105 114
85 113 124
103 127 140
97 122 125
82 110 131
107 131 141
91 117 131
89 115 133
87 114 132
90 115 132
86 114 126
98 124 138
91 116 124
72 102 130
93 120 129
93 119 132
102 127 137
103 128 138
95 120 125
99 125 135
105 129 147
100 126 142
100 125 151
102 128 136
103 129 140
93 118 134
87 115 149
76 106 136
86 114 139
70 103 145
71 102 140
76 105 145
85 112 145
72 102 142
79 107 143
92 116 146
72 102 143
79 106 149
71 102 143
78 105 143
70 99 132
72 102 136
77 105 134
70 100 124
71 101 127
72 102 124
60 92 129
68 99 133
59 93 134
69 100 117
62 95 127
66 99 132
61 95 137
60 93 123
64 95 116
58 92 131
62 95 133
57 91 117
61 94 122
60 94 128
58 92 118
58 92 128
59 93 124
58 91 118
58 92 128
59 93 125
60 94 129
57 91 114
57 91 124
58 92 128
58 91 118
58 92 128
59 93 122
61 95 135
57 90 114
58 92 120
60 94 124
58 92 115
60 94 134
57 91 115
59 94 129
61 96 142
59 93 128
58 92 124
57 90 110
56 90 120
60 95 135
58 93 118
58 92 117
58 91 124
58 93 124
59 93 122
58 93 120
60 94 131
59 93 124
58 93 114
58 91 123
57 91 115
59 93 126
58 92 131
57 90 115
59 93 117
58 92 125
58 92 115
60 95 135
57 91 117
60 94 126
60 94 133
57 91 110
59 93 121
58 92 115
59 93 126
59 94 126
58 91 113
57 90 117
58 92 115
58 92 121
56 89 107
57 91 113
60 94 128
60 94 126
59 93 118
57 90 120
59 93 124
56 89 102
58 92 114
58 91 120
59 93 121
57 90 110
57 90 114
56 89 97
58 91 118
58 92 108
56 88 97
57 90 115
56 89 114
55 87 92
56 89 108
61 90 88
86 107 67
100 118 36
120 134 0
108 123 0
121 136 0
120 135 0
110 124 0
112 127 0
110 125 0
125 140 0
117 132 0
103 117 0
121 135 0
118 134 0
118 132 0
122 135 0
113 129 0
113 128 0
117 132 0
111 124 0
125 143 0
134 149 0
122 137 0
111 125 0
127 143 0
130 145 0
122 136 0
121 134 0
135 151 0
126 141 0
132 146 0
139 157 0
138 156 0
138 155 0
126 142 0
128 144 0
127 140 0
133 148 0
130 147 0
133 150 0
128 142 0
135 151 0
139 154 0
142 156 0
139 155 0
149 165 0
132 146 0
132 149 0
139 156 0
138 152 0
138 152 0
141 157 0
142 160 0
132 146 0
141 158 0
135 152 0
137 153 0
140 156 0
138 153 0
148 162 0
139 155 0
145 164 0
148 164 0
143 160 0
145 161 0
137 152 0
145 161 0
144 161 0
140 158 0
142 156 0
142 157 0
148 163 0
139 153 0
146 160 0
138 151 0
147 165 0
138 153 0
148 166 0
148 164 0
141 156 0
146 160 0
142 158 0
147 162 0
151 167 0
149 161 0
142 158 0
148 161 0
158 176 0
146 162 0
148 162 0
142 156 0
157 173 0
151 169 0
153 171 0
152 168 0
150 166 0
149 166 0
150 165 0
155 171 0
160 177 0
154 172 0
149 163 0
150 167 0
155 171 0
157 173 0
159 175 0
154 172 0
159 176 0
156 173 0
157 174 0
151 168 0
155 172 0
149 163 0
154 171 0
152 168 0
164 181 0
152 168 0
159 175 0
159 175 0
155 171 0
154 170 0
155 172 0
157 175 0
155 174 0
157 174 0
157 176 0
159 177 0
157 176 0
160 176 0
157 175 0
162 180 0
162 180 0
156 172 0
159 178 0
163 181 0
166 186 0
163 180 0
162 180 0
159 176 0
165 185 0
160 177 0
160 176 0
158 173 0
159 178 0
160 179 0
166 184 0
161 181 0
159 175 0
167 185 0
161 181 0
160 179 0
166 185 0
160 175 0
161 180 0
167 186 0
165 182 0
162 180 0
163 181 0
167 186 0
163 182 0
163 182 0
170 192 0
160 178 0
163 182 0
165 185 0
164 183 0
171 195 92
171 195 105
172 196 88
169 193 62
172 196 67
171 195 72
173 197 80
170 194 57
165 189 67
168 192 44
169 192 62
171 195 67
166 191 84
171 194 88
172 195 80
171 196 88
171 195 72
169 193 72
167 190 57
167 192 72
170 195 57
161 186 57
170 194 62
168 192 80
171 196 88
169 194 76
171 195 67
168 193 76
168 191 72
170 194 76
167 192 84
166 189 67
172 196 88
167 191 72
162 187 88
170 194 80
169 194 84
165 190 72
168 193 51
166 189 80
168 193 72
166 190 84
162 186 80
165 188 84
166 191 88
165 189 84
162 185 88
160 183 67
160 184 72
167 191 102
163 186 76
164 188 67
165 189 105
162 185 84
156 180 80
162 185 72
160 184 84
168 191 88
160 184 84
163 186 88
162 185 76
159 183 80
160 184 95
157 180 76
159 182 80
154 177 80
162 185 67
157 180 62
159 183 102
162 185 57
159 182 76
156 180 67
157 182 88
159 182 76
151 174 57
156 179 95
159 182 67
162 185 84
154 177 67
158 181 76
153 176 76
149 172 72
148 170 80
155 178 80
146 168 51
147 168 95
146 168 67
144 165 72
146 167 99
137 159 74
133 155 76
121 143 80
126 149 99
104 128 103
88 114 102
93 119 136
93 119 125
83 110 128
92 119 122
93 119 135
81 108 111
93 119 109
95 121 127
92 118 119
102 127 147
85 111 121
100 125 144
87 114 124
105 129 132
97 123 127
102 127 122
100 125 131
104 129 144
110 133 137
98 124 139
100 125 137
104 129 144
84 113 135
98 124 153
94 120 132
88 115 135
83 110 135
88 115 140
91 118 154
72 102 140
83 111 140
80 109 147
88 113 141
84 110 142
87 114 155
84 111 149
75 105 151
80 106 137
74 102 128
76 103 128
78 105 136
82 107 126
74 102 136
76 105 136
68 99 131
67 99 126
67 98 125
71 101 129
69 100 114
62 95 125
57 88 107
60 93 127
58 92 123
64 96 118
60 93 112
65 96 128
58 92 120
58 91 122
56 90 103
58 91 114
64 98 121
58 92 118
61 95 125
57 90 115
60 94 128
56 90 115
59 94 124
58 92 128
59 93 128
56 89 118
57 91 127
57 91 117
58 92 126
56 89 113
58 93 124
58 92 117
56 89 115
60 94 135
57 91 110
58 91 120
60 94 129
58 93 125
59 93 122
59 93 126
59 92 120
56 89 114
58 91 115
59 94 130
59 94 131
59 93 118
58 91 124
56 90 113
59 92 121
59 93 120
59 93 126
57 91 115
58 92 122
59 92 121
58 92 117
60 94 125
59 94 128
57 91 110
57 90 115
58 92 121
59 93 125
57 91 115
58 92 122
58 92 121
59 93 120
60 94 128
57 91 113
58 92 122
57 91 105
58 91 114
57 90 110
58 92 118
58 92 115
55 87 115
57 90 108
56 89 115
59 92 124
57 90 102
58 91 118
57 90 120
57 91 117
57 90 115
58 92 122
56 89 105
56 88 103
56 90 110
56 89 100
56 89 99
56 88 107
55 88 103
55 86 100
56 88 110
56 88 105
64 92 90
86 107 65
103 120 44
106 119 18
120 135 0
117 132 0
114 129 0
102 116 0
123 136 0
110 127 0
115 130 0
114 128 0
124 138 0
119 135 0
121 138 0
125 140 0
117 130 0
117 133 0
134 148 0
120 136 0
125 139 0
113 128 0
120 137 0
126 141 0
121 135 0
131 147 0
114 129 0
125 140 0
139 158 0
128 145 0
127 143 0
128 144 0
127 144 0
141 156 0
127 144 0
128 145 0
130 147 0
126 143 0
125 142 0
144 162 0
135 152 0
131 148 0
134 151 0
124 139 0
140 156 0
141 158 0
145 160 0
140 155 0
138 154 0
137 151 0
132 149 0
142 159 0
140 157 0
145 161 0
136 150 0
143 160 0
131 146 0
131 147 0
141 158 0
150 168 0
135 150 0
150 168 0
150 167 0
139 156 0
138 153 0
136 152 0
147 164 0
140 157 0
140 155 0
142 157 0
143 161 0
153 171 0
142 157 0
140 156 0
149 165 0
140 156 0
151 168 0
145 163 0
150 164 0
143 160 0
146 161 0
151 166 0
146 159 0
144 161 0
149 165 0
146 161 0
145 160 0
147 163 0
143 157 0
146 162 0
147 165 0
153 171 0
147 162 0
152 166 0
147 164 0
143 159 0
142 158 0
161 178 0
151 168 0
153 172 0
156 171 0
156 172 0
146 163 0
148 165 0
148 163 0
147 161 0
152 170 0
158 176 0
154 168 0
156 175 0
155 173 0
157 174 0
151 169 0
155 171 0
161 180 0
157 175 0
159 176 0
154 169 0
157 172 0
156 173 0
157 174 0
157 174 0
161 178 0
156 174 0
152 169 0
157 174 0
153 171 0
162 181 0
154 173 0
159 177 0
165 184 0
160 178 0
156 174 0
155 171 0
154 169 0
161 179 0
160 177 0
163 182 0
163 182 0
163 182 0
164 181 0
157 173 0
158 175 0
158 176 0
159 175 0
164 184 0
167 186 0
166 186 0
154 170 0
165 183 0
164 183 0
163 184 0
158 175 0
164 184 0
164 184 0
158 176 0
167 185 0
159 177 0
164 183 0
166 186 0
161 180 0
167 186 0
165 184 0
163 184 0
161 181 0
168 187 0
165 185 0
163 181 0
172 197 92
171 194 51
170 195 80
171 194 57
170 194 57
166 190 0
172 195 62
165 188 62
172 196 67
171 196 92
171 195 72
172 197 88
169 194 76
171 196 76
172 196 84
174 199 105
168 192 57
169 194 80
166 191 44
170 194 72
169 192 72
167 192 57
168 191 57
168 193 80
165 189 72
165 189 57
166 190 57
170 195 88
169 192 80
166 190 99
165 190 88
168 192 88
166 189 62
164 188 72
167 191 62
166 191 76
168 191 99
165 189 84
168 193 84
167 192 84
164 189 84
167 192 105
166 190 88
167 191 88
157 181 67
166 189 88
167 190 76
170 193 88
166 189 84
166 190 92
163 187 84
165 188 76
166 190 92
162 186 102
170 193 80
166 190 80
166 189 62
169 193 105
157 179 72
159 183 84
162 185 72
158 181 80
158 181 67
161 183 84
156 179 76
161 184 88
159 181 72
161 183 72
162 185 102
153 176 72
155 177 72
153 176 84
155 179 80
157 180 80
153 175 80
153 176 76
150 172 51
156 179 88
156 179 72
155 177 72
148 170 72
156 180 76
156 178 76
153 176 67
151 173 67
156 179 76
152 174 76
145 168 76
143 164 62
140 161 82
143 164 82
137 159 74
117 140 90
101 125 100
101 125 110
98 123 125
86 112 105
98 123 130
83 111 118
91 117 129
99 124 141
92 118 123
89 115 123
93 118 126
76 104 131
101 126 141
87 114 127
96 122 120
94 120 135
88 114 135
92 118 131
99 124 133
98 122 131
99 124 127
95 121 132
83 109 129
94 120 132
100 126 145
93 120 144
90 117 140
99 124 145
94 121 138
89 116 134
82 110 143
85 112 151
72 100 130
82 110 136
83 110 145
82 110 144
82 108 130
83 107 135
92 117 154
76 103 141
74 103 140
91 113 139
79 106 140
76 103 135
68 100 128
72 102 131
76 106 139
59 92 123
67 97 121
69 100 121
76 105 112
69 99 118
69 98 117
62 94 119
64 96 124
63 94 107
63 94 107
63 97 136
62 94 115
57 91 118
60 92 107
58 92 117
59 92 118
60 92 122
59 94 122
60 94 122
58 92 124
58 92 115
57 90 113
57 91 118
57 91 115
59 93 133
59 93 128
60 95 130
59 93 131
59 93 117
58 91 120
58 92 126
58 91 124
58 92 125
58 92 105
59 93 124
58 91 122
59 92 122
58 92 128
58 92 114
59 93 124
59 93 120
58 92 118
59 93 130
58 92 121
59 93 128
58 91 114
59 93 128
59 94 131
59 93 136
57 91 115
59 93 129
57 91 118
58 92 120
59 93 120
58 92 120
58 93 125
57 91 113
57 90 120
56 90 113
58 92 118
58 91 114
61 95 128
58 92 120
56 89 111
58 92 121
60 94 122
59 93 128
60 94 126
58 92 124
58 91 111
58 92 126
58 92 117
58 91 110
58 92 122
57 90 108
59 93 124
58 91 118
58 92 115
56 89 110
58 92 117
56 89 103
57 90 121
56 89 105
55 87 110
56 88 107
55 87 114
58 92 114
56 88 111
55 87 107
55 87 97
57 87 97
66 91 76
88 109 70
92 106 25
116 129 18
115 130 0
115 130 0
114 130 0
120 134 0
122 137 0
111 125 0
111 124 0
116 132 0
123 138 0
106 120 0
121 137 0
122 138 0
119 134 0
110 126 0
113 129 0
114 130 0
119 135 0
126 142 0
132 149 0
114 130 0
127 143 0
128 142 0
122 136 0
123 140 0
132 149 0
136 152 0
137 154 0
134 151 0
133 149 0
126 142 0
123 139 0
123 141 0
134 151 0
138 156 0
126 142 0
142 158 0
138 154 0
138 154 0
144 160 0
135 149 0
138 154 0
137 153 0
138 154 0
139 157 0
137 154 0
132 147 0
150 167 0
138 154 0
140 158 0
136 152 0
138 155 0
141 158 0
140 156 0
142 158 0
133 149 0
139 156 0
140 159 0
139 154 0
124 139 0
141 155 0
142 159 0
144 162 0
146 162 0
143 160 0
140 155 0
144 160 0
142 158 0
148 163 0
144 161 0
144 161 0
148 165 0
154 174 0
144 158 0
145 160 0
149 166 0
141 157 0
148 163 0
152 165 0
141 158 0
143 160 0
139 154 0
152 170 0
149 165 0
155 172 0
143 159 0
144 162 0
148 164 0
151 166 0
145 160 0
154 168 0
154 172 0
153 170 0
153 169 0
150 165 0
154 173 0
156 174 0
151 167 0
155 172 0
157 174 0
149 165 0
149 164 0
155 172 0
157 173 0
156 175 0
154 172 0
151 167 0
157 176 0
153 170 0
153 169 0
160 177 0
159 177 0
150 167 0
155 172 0
154 170 0
152 169 0
153 170 0
157 174 0
159 177 0
156 172 0
162 179 0
155 173 0
153 169 0
158 177 0
157 173 0
161 178 0
158 174 0
163 183 0
162 179 0
160 178 0
162 179 0
162 178 0
158 177 0
160 179 0
157 175 0
160 179 0
167 187 0
165 182 0
160 181 0
162 180 0
159 179 0
162 182 0
157 174 0
162 178 0
169 186 0
160 181 0
168 185 0
161 180 0
165 185 0
163 182 0
164 184 0
160 178 0
164 185 0
163 182 0
163 181 0
166 184 0
169 189 0
163 182 0
167 187 0
166 185 0
166 185 0
168 188 0
170 190 0
163 183 0
166 186 0
168 187 0
171 194 62
170 193 67
168 192 72
170 195 76
171 196 92
171 195 67
170 195 76
168 192 80
169 193 67
169 192 67
167 191 72
167 192 67
170 194 67
168 193 88
169 194 72
169 193 76
165 189 76
173 197 80
169 193 62
164 188 36
169 193 72
168 191 80
165 189 80
167 192 88
168 191 72
172 197 84
169 193 76
175 198 88
168 193 80
167 192 84
166 190 72
170 193 84
166 189 72
166 190 72
166 191 95
167 192 80
166 190 76
170 195 92
169 194 67
166 189 88
164 187 72
166 189 84
162 186 80
166 189 72
166 190 76
163 186 76
170 193 88
165 189 67
168 192 72
165 188 51
160 183 62
167 191 76
162 185 95
168 192 88
165 189 84
164 187 99
160 184 92
168 192 95
156 179 72
162 185 95
164 188 84
161 184 111
158 181 102
161 184 80
164 188 99
161 184 84
152 175 76
156 179 84
158 180 57
162 184 62
160 183 44
161 184 88
158 181 80
160 183 92
149 172 67
154 176 72
156 179 99
161 184 67
154 177 88
151 173 62
156 179 92
138 161 57
153 176 84
157 179 72
150 172 84
145 167 72
142 163 51
139 160 62
156 177 62
151 172 84
142 163 80
140 163 90
120 142 78
124 147 92
112 135 114
100 124 108
104 129 113
108 133 133
78 106 100
87 114 110
90 116 123
82 109 118
88 114 125
90 117 132
91 118 129
101 127 136
94 118 124
103 127 135
96 121 135
101 125 137
95 121 126
103 129 145
94 120 123
99 123 125
98 123 126
92 118 137
100 126 136
91 117 141
98 123 129
91 118 137
95 121 136
92 117 125
85 114 152
94 121 134
97 124 149
82 110 131
83 110 144
89 114 136
75 104 138
76 105 129
77 104 125
86 110 135
74 101 131
95 117 137
77 104 129
80 104 123
73 100 134
79 103 118
75 103 129
74 104 123
73 102 125
67 97 121
64 96 119
64 95 128
67 98 133
69 98 113
63 96 129
64 93 112
64 96 113
66 97 115
59 93 125
60 93 121
58 91 113
58 91 120
60 93 122
58 92 117
57 91 114
57 90 115
60 93 122
59 93 118
57 89 110
56 89 111
58 92 122
57 90 116
56 90 117
58 91 117
59 93 128
58 92 122
59 93 128
58 91 117
57 91 115
58 91 122
57 91 122
57 90 115
58 92 122
59 93 133
56 89 111
59 94 118
59 93 124
57 91 108
59 94 131
59 93 118
58 92 123
59 93 126
58 91 121
58 92 120
59 93 128
58 92 120
58 92 113
58 93 115
59 93 126
60 94 131
59 93 126
58 92 120
57 91 114
58 91 123
59 94 128
59 94 122
59 93 124
58 92 121
58 92 125
57 90 108
57 91 120
56 88 108
59 94 117
59 92 125
58 92 122
57 90 110
58 92 117
60 94 122
58 92 118
59 93 126
58 91 103
57 90 113
56 89 105
56 90 103
58 92 113
57 91 115
57 90 118
58 91 111
57 90 110
57 90 99
57 89 111
57 90 115
56 89 103
57 89 110
57 90 111
56 89 111
57 90 107
59 89 88
67 94 94
93 112 51
105 121 31
91 106 0
107 123 0
123 139 0
109 123 0
116 130 0
114 129 0
108 124 0
109 125 0
107 122 0
122 139 0
114 129 0
128 144 0
117 132 0
117 132 0
123 138 0
113 128 0
123 140 0
121 136 0
127 143 0
132 150 0
125 143 0
130 146 0
125 141 0
131 147 0
130 146 0
121 137 0
129 143 0
136 153 0
123 138 0
131 147 0
127 144 0
132 148 0
128 144 0
136 154 0
129 144 0
129 143 0
132 147 0
136 152 0
127 144 0
135 152 0
134 150 0
132 151 0
138 151 0
126 143 0
142 159 0
143 157 0
140 159 0
138 156 0
141 157 0
146 161 0
142 159 0
142 159 0
141 160 0
137 154 0
143 159 0
145 164 0
145 162 0
146 162 0
151 169 0
139 153 0
158 175 0
148 165 0
148 165 0
140 157 0
137 155 0
147 163 0
144 163 0
148 165 0
145 163 0
147 162 0
143 159 0
147 164 0
140 155 0
142 157 0
149 165 0
147 161 0
141 158 0
148 164 0
148 165 0
156 173 0
142 160 0
145 162 0
147 162 0
143 159 0
147 164 0
149 165 0
152 168 0
147 164 0
155 172 0
149 165 0
148 166 0
151 165 0
145 160 0
147 165 0
153 166 0
151 167 0
154 171 0
157 173 0
149 166 0
151 168 0
153 169 0
155 172 0
159 173 0
150 167 0
154 172 0
154 172 0
153 171 0
156 174 0
156 172 0
155 171 0
160 178 0
155 173 0
152 170 0
153 172 0
159 176 0
158 178 0
154 173 0
155 174 0
155 172 0
157 176 0
154 172 0
159 175 0
156 174 0
152 170 0
158 176 0
155 172 0
158 177 0
163 181 0
154 172 0
161 178 0
162 181 0
160 181 0
156 173 0
162 180 0
162 182 0
165 185 0
158 174 0
161 180 0
163 181 0
160 180 0
164 180 0
162 183 0
161 180 0
163 182 0
155 173 0
157 176 0
162 183 0
157 175 0
164 183 0
155 174 0
166 184 0
167 186 0
163 182 0
163 183 0
162 182 0
165 187 0
165 185 0
164 183 0
164 184 0
165 184 0
170 190 0
167 187 0
163 181 0
164 185 0
163 182 0
167 187 0
166 186 0
167 191 62
169 192 62
174 197 72
166 190 62
169 194 84
171 195 80
167 190 67
166 191 51
171 196 80
163 187 36
168 192 62
172 196 57
170 194 92
171 195 62
167 192 92
169 193 84
170 193 57
167 190 44
171 195 67
168 192 51
166 191 76
168 192 72
169 193 99
166 191 80
169 193 57
169 193 80
165 190 76
169 193 57
166 190 72
166 190 80
169 194 88
170 195 95
170 194 76
167 191 76
161 185 92
161 185 67
167 191 62
172 195 88
167 191 67
171 195 88
167 191 95
168 192 84
168 192 88
164 187 84
170 195 95
162 185 88
165 189 99
163 186 67
169 192 76
166 191 80
170 193 95
160 183 84
156 180 67
161 184 95
162 184 88
163 187 76
162 186 105
159 183 102
166 190 67
161 184 88
159 182 76
167 191 99
165 188 84
159 181 67
155 179 99
163 186 76
164 187 105
162 186 84
149 172 67
163 186 92
162 186 88
156 178 84
159 182 72
159 182 92
156 179 84
156 178 67
151 174 80
162 185 80
150 172 67
161 183 88
147 169 95
147 169 72
153 175 84
156 177 80
158 179 92
145 167 67
150 173 76
159 181 99
150 171 80
140 162 62
150 172 80
141 160 72
131 153 72
129 151 90
117 139 103
120 143 102
101 126 110
95 120 121
86 112 124
91 116 121
86 114 124
88 113 114
93 119 128
85 111 113
86 113 118
96 120 128
90 116 128
86 113 122
107 131 127
88 113 122
99 123 131
91 116 120
93 120 140
101 126 137
96 122 138
87 113 122
91 116 132
89 115 122
98 123 136
99 124 143
101 126 144
95 121 139
81 110 139
83 111 137
85 113 136
78 107 141
76 106 139
91 118 142
83 110 145
95 116 134
83 109 139
82 107 130
86 108 133
83 106 132
92 112 118
79 105 125
86 108 125
75 103 129
71 99 108
67 98 134
69 101 135
73 104 128
67 99 128
58 91 124
69 100 115
65 96 121
67 98 117
66 97 120
63 95 130
64 95 112
61 93 111
62 93 114
60 92 119
59 90 107
59 92 121
59 92 128
57 90 115
58 92 119
58 91 120
57 91 122
58 91 118
59 93 131
57 90 111
58 92 126
58 92 115
57 90 113
58 91 102
58 92 120
57 91 125
58 92 112
59 93 121
56 89 105
60 94 128
59 93 128
58 92 126
59 93 129
57 90 110
57 91 121
57 91 111
58 92 114
58 92 112
58 93 121
57 91 110
58 91 113
59 93 118
59 93 115
58 91 120
58 91 113
59 93 125
59 93 126
58 91 118
57 90 110
58 91 113
57 90 113
58 91 111
58 92 113
57 90 117
59 93 118
58 92 118
57 90 111
57 90 108
57 91 102
60 94 125
57 90 114
59 92 125
57 90 118
58 91 117
57 91 111
59 92 107
59 94 126
56 88 105
57 91 105
56 89 107
59 93 124
55 88 99
57 90 107
59 93 121
57 90 122
58 91 114
58 92 113
56 89 120
57 91 111
54 85 100
54 86 94
57 90 113
57 90 107
53 85 103
56 89 102
59 90 100
67 92 90
94 114 51
100 116 31
112 128 0
104 118 0
101 116 0
114 131 0
112 126 0
110 125 0
110 125 0
120 137 0
120 136 0
112 127 0
123 139 0
110 125 0
123 138 0
125 139 0
113 130 0
119 134 0
119 133 0
117 132 0
122 140 0
123 140 0
134 150 0
127 144 0
120 135 0
133 150 0
127 145 0
129 145 0
141 156 0
129 146 0
127 144 0
136 151 0
134 151 0
133 148 0
130 147 0
131 146 0
126 140 0
135 151 0
134 150 0
129 146 0
129 147 0
130 147 0
142 159 0
141 158 0
127 143 0
143 161 0
143 160 0
131 148 0
139 153 0
147 164 0
142 159 0
129 145 0
136 154 0
138 153 0
135 152 0
140 154 0
145 162 0
136 154 0
143 159 0
141 156 0
145 161 0
145 161 0
148 165 0
133 149 0
144 159 0
136 149 0
137 152 0
139 158 0
143 158 0
147 165 0
144 161 0
142 159 0
143 160 0
141 158 0
146 163 0
141 158 0
148 165 0
148 165 0
149 165 0
150 167 0
150 168 0
157 176 0
150 165 0
151 168 0
145 161 0
154 171 0
152 167 0
152 169 0
148 166 0
152 169 0
147 165 0
151 167 0
157 174 0
141 158 0
148 165 0
154 171 0
152 169 0
152 168 0
154 170 0
154 174 0
154 170 0
160 179 0
150 169 0
148 165 0
157 174 0
158 174 0
161 178 0
150 166 0
151 165 0
160 177 0
150 169 0
150 166 0
160 176 0
156 173 0
155 172 0
158 176 0
153 170 0
159 176 0
156 174 0
155 173 0
154 171 0
158 177 0
155 171 0
155 173 0
158 175 0
159 177 0
159 175 0
163 181 0
158 173 0
156 174 0
154 174 0
161 178 0
160 178 0
156 173 0
158 176 0
158 177 0
163 183 0
158 175 0
158 177 0
163 184 0
158 176 0
163 181 0
160 177 0
161 181 0
163 182 0
162 180 0
160 180 0
163 183 0
158 176 0
164 182 0
160 178 0
161 181 0
166 186 0
159 178 0
159 181 0
165 184 0
165 183 0
169 191 0
162 181 0
160 178 0
166 186 0
164 184 0
164 185 0
168 185 0
163 182 0
164 185 0
163 183 0
169 189 0
166 186 0
166 185 0
167 190 25
167 191 44
169 194 76
170 194 72
171 194 72
166 191 67
168 192 76
170 194 88
171 195 76
170 193 62
172 197 99
170 195 84
167 192 99
171 195 99
167 191 72
171 196 92
167 191 51
167 191 51
169 193 76
167 191 36
168 192 72
168 192 88
167 191 67
164 189 72
162 186 62
164 187 57
169 193 72
167 190 80
167 191 67
164 187 76
171 195 88
165 189 72
165 187 57
170 193 84
164 188 67
168 192 84
162 185 72
167 190 92
165 189 88
169 193 99
164 188 95
164 188 108
167 191 57
168 192 95
166 189 84
160 183 80
167 191 88
162 185 80
171 194 99
165 189 95
159 182 84
165 189 76
167 189 92
167 191 99
159 183 92
154 177 80
164 187 88
165 187 92
164 186 88
166 189 88
163 187 88
163 186 92
162 184 95
165 189 92
163 187 99
162 186 95
166 189 111
159 182 95
166 189 88
162 185 92
166 188 88
159 182 88
162 185 76
157 179 88
159 181 80
157 179 72
159 182 88
151 173 67
152 174 72
153 176 84
151 173 84
152 174 80
156 179 92
149 172 92
152 174 92
144 166 62
153 174 88
148 170 72
154 175 76
139 159 67
145 166 67
149 169 102
148 168 84
131 152 100
128 150 110
111 134 97
103 126 94
105 129 112
109 133 124
95 121 136
93 119 118
80 107 99
84 110 111
93 118 117
94 119 129
92 118 138
86 113 107
74 102 103
99 124 129
78 105 103
98 123 140
91 118 126
110 134 134
98 123 139
94 120 130
96 122 135
98 123 136
103 127 144
98 122 133
93 119 144
89 116 132
90 117 141
83 111 125
84 113 139
94 119 145
94 118 141
90 114 140
83 111 146
87 112 134
85 113 144
91 114 136
80 107 132
83 108 131
86 108 130
74 100 126
81 105 130
82 107 128
88 111 124
65 97 128
71 99 123
75 102 129
80 106 119
76 105 115
67 99 120
65 97 125
74 102 105
71 99 110
58 90 105
56 89 125
64 95 118
65 96 121
61 92 108
60 93 119
59 92 114
64 95 113
56 89 113
57 90 113
60 93 121
59 92 111
57 91 103
58 92 123
58 92 114
59 93 128
59 93 120
58 91 119
59 93 122
58 92 108
58 92 129
59 94 131
58 92 118
58 92 111
58 92 110
59 93 130
58 92 121
57 91 111
58 92 117
58 91 114
58 92 118
57 91 116
57 91 107
58 91 118
58 91 110
58 92 121
58 92 115
57 90 108
58 91 103
58 92 118
58 92 117
57 91 114
58 91 117
58 92 115
58 91 121
58 92 128
57 91 113
57 90 115
58 91 113
58 91 100
57 91 111
58 91 117
56 89 113
59 93 130
57 90 120
56 88 111
58 91 120
57 90 111
58 91 114
59 93 121
58 92 118
56 89 113
57 90 110
57 90 115
54 87 94
57 90 117
58 92 113
56 89 107
58 91 111
57 91 108
56 88 113
57 90 117
57 90 110
56 89 107
57 90 102
57 89 124
57 90 105
57 90 113
51 81 86
54 86 94
63 90 94
81 102 72
94 110 36
92 107 31
104 118 0
105 119 0
100 115 0
119 133 0
106 119 0
119 134 0
116 131 0
120 136 0
99 115 0
124 140 0
111 129 0
120 136 0
112 128 0
103 119 0
117 132 0
111 124 0
120 138 0
120 137 0
125 143 0
118 135 0
136 156 0
124 139 0
129 145 0
123 138 0
119 137 0
123 140 0
132 147 0
130 146 0
141 157 0
134 150 0
137 155 0
133 147 0
117 134 0
134 152 0
131 147 0
132 149 0
130 146 0
132 148 0
139 154 0
130 146 0
146 162 0
140 158 0
133 151 0
136 153 0
135 152 0
142 160 0
140 157 0
131 147 0
144 160 0
138 154 0
133 151 0
133 150 0
145 164 0
135 154 0
144 162 0
139 155 0
146 164 0
143 159 0
146 163 0
138 154 0
145 163 0
143 159 0
143 164 0
144 159 0
138 155 0
146 162 0
146 162 0
138 155 0
141 156 0
142 159 0
145 161 0
146 164 0
136 151 0
146 162 0
140 156 0
153 171 0
140 155 0
147 166 0
151 166 0
161 179 0
142 159 0
150 165 0
148 166 0
153 171 0
146 163 0
149 166 0
146 162 0
147 163 0
146 164 0
151 168 0
151 170 0
156 173 0
151 167 0
143 160 0
156 175 0
147 165 0
150 167 0
156 175 0
156 176 0
153 172 0
148 166 0
154 171 0
152 168 0
155 175 0
160 178 0
153 170 0
156 173 0
156 174 0
153 169 0
159 176 0
154 170 0
160 177 0
160 179 0
157 175 0
161 179 0
154 171 0
156 175 0
149 166 0
157 175 0
159 177 0
152 168 0
153 170 0
159 177 0
159 178 0
163 179 0
158 176 0
153 171 0
162 180 0
156 174 0
156 172 0
161 180 0
157 175 0
163 181 0
160 178 0
154 171 0
162 181 0
156 175 0
165 183 0
165 184 0
164 183 0
165 182 0
159 179 0
160 179 0
165 185 0
157 177 0
161 179 0
163 181 0
155 172 0
157 175 0
165 183 0
163 180 0
163 183 0
161 180 0
163 183 0
162 179 0
168 187 0
163 183 0
163 181 0
163 183 0
165 185 0
166 185 0
163 181 0
164 184 0
164 186 0
166 186 0
165 186 0
166 187 0
163 185 0
166 185 0
169 194 95
170 195 67
169 193 80
170 194 88
171 194 51
168 192 67
170 193 76
169 194 62
170 193 62
170 194 80
165 189 88
170 194 67
171 195 67
168 192 84
168 192 80
165 189 80
169 192 57
171 195 62
168 192 72
168 192 44
172 196 84
167 191 51
162 185 72
168 192 80
168 192 84
168 193 92
170 194 88
170 195 88
168 192 67
170 195 84
170 194 72
165 189 76
169 192 62
171 195 88
162 185 76
166 189 72
167 190 80
166 190 76
167 190 62
162 186 72
161 184 84
167 190 84
165 189 76
165 189 84
165 189 92
161 184 67
163 186 80
169 192 80
163 186 72
164 188 99
163 186 111
167 191 88
170 194 88
163 186 99
161 185 114
169 192 117
161 184 94
167 190 114
158 182 102
166 189 95
164 187 72
164 187 84
161 185 84
166 190 95
164 187 95
164 187 95
164 186 88
156 177 67
161 185 99
158 180 102
159 181 99
162 184 92
156 179 76
148 170 76
159 182 105
157 180 102
154 176 92
158 180 88
159 182 99
158 180 88
159 181 88
151 173 72
156 178 92
147 169 72
148 170 76
151 174 80
153 174 84
135 157 51
147 168 62
144 166 84
142 164 84
144 164 72
145 166 84
140 162 67
135 156 78
119 142 92
117 138 88
98 122 113
99 124 108
95 120 130
93 119 126
81 108 122
85 111 122
101 126 131
103 127 128
81 109 116
99 124 133
86 113 122
101 126 128
97 122 126
107 132 139
99 124 134
91 117 124
99 123 127
81 107 124
100 126 127
91 117 128
93 119 125
96 121 129
96 121 121
92 117 132
90 116 140
102 126 132
91 118 141
80 109 146
89 114 135
87 113 139
89 112 134
103 126 141
88 111 135
96 119 134
91 113 139
83 108 132
88 111 129
84 107 127
74 101 125
67 98 126
87 110 135
77 106 124
74 100 125
74 102 131
68 99 126
70 101 131
72 100 118
71 100 111
75 103 103
74 102 118
65 95 107
64 97 122
65 97 123
69 98 107
60 94 124
63 95 117
60 92 105
60 93 128
58 91 128
58 91 120
57 90 108
55 88 109
61 93 102
57 91 117
58 91 115
58 91 122
56 90 105
58 92 113
59 93 120
57 90 112
58 93 124
59 93 122
59 93 118
57 90 110
57 91 115
58 92 114
58 91 108
58 92 117
59 93 117
59 93 128
58 92 128
58 93 117
58 92 118
60 94 134
58 91 113
57 91 113
57 91 118
57 90 111
59 92 124
58 92 118
59 92 125
57 91 110
59 92 117
56 90 111
57 91 120
58 92 118
57 90 107
58 91 117
57 90 114
58 92 110
57 91 114
58 92 122
58 92 118
59 92 108
59 93 120
58 92 114
57 90 105
58 92 120
57 91 111
59 93 122
58 91 115
56 89 103
58 91 120
58 91 110
56 89 100
56 88 94
57 90 111
56 89 99
55 88 108
56 89 105
55 88 103
56 88 99
59 92 130
55 87 92
54 86 97
54 87 90
54 87 92
54 86 84
55 88 99
65 93 100
81 101 70
95 110 36
111 126 18
114 129 0
106 122 0
95 110 0
116 133 0
101 114 0
106 119 0
112 125 0
117 132 0
120 135 0
111 126 0
117 134 0
122 137 0
125 141 0
114 130 0
120 136 0
123 138 0
115 131 0
127 144 0
128 145 0
125 140 0
132 149 0
110 127 0
129 147 0
126 143 0
112 125 0
116 132 0
134 150 0
136 152 0
125 143 0
137 153 0
136 153 0
128 144 0
125 142 0
130 148 0
131 148 0
131 148 0
129 145 0
133 149 0
130 147 0
130 146 0
130 147 0
130 144 0
135 154 0
140 156 0
137 154 0
143 161 0
139 156 0
133 148 0
133 149 0
142 160 0
138 157 0
135 151 0
144 162 0
137 153 0
139 156 0
139 157 0
142 157 0
150 168 0
137 153 0
127 142 0
139 156 0
140 158 0
148 165 0
142 160 0
146 166 0
143 158 0
147 163 0
145 160 0
137 153 0
152 172 0
153 169 0
141 156 0
148 166 0
149 166 0
131 148 0
137 154 0
140 156 0
144 161 0
151 167 0
142 159 0
148 165 0
143 161 0
141 157 0
154 171 0
150 167 0
153 169 0
147 163 0
146 164 0
146 164 0
149 166 0
156 173 0
153 172 0
152 170 0
150 166 0
156 173 0
153 169 0
148 165 0
155 172 0
144 162 0
157 174 0
149 168 0
157 175 0
157 173 0
148 166 0
151 168 0
148 166 0
149 167 0
152 167 0
161 179 0
153 171 0
158 175 0
155 173 0
156 173 0
150 168 0
155 172 0
153 171 0
157 175 0
157 173 0
157 175 0
156 172 0
158 176 0
163 181 0
155 173 0
151 169 0
158 175 0
159 177 0
154 172 0
156 174 0
154 172 0
154 171 0
161 180 0
158 177 0
150 165 0
150 170 0
160 180 0
163 181 0
163 182 0
162 181 0
162 181 0
160 178 0
162 182 0
157 176 0
160 178 0
158 177 0
158 176 0
161 179 0
164 185 0
164 184 0
160 178 0
159 179 0
165 185 0
158 176 0
162 182 0
160 181 0
166 183 0
167 187 0
166 186 0
160 179 0
166 186 0
164 183 0
161 179 0
159 180 0
163 182 0
162 182 0
162 181 0
164 184 0
162 181 0
169 189 0
165 185 0
165 184 0
173 197 84
170 194 67
175 198 80
170 195 67
170 194 44
168 192 67
175 200 99
170 195 88
171 195 72
172 196 84
171 195 84
171 195 72
170 194 62
172 196 76
164 187 72
170 194 76
166 190 44
172 196 88
163 187 76
169 193 88
164 188 67
167 191 67
170 195 88
170 194 88
173 198 99
170 193 84
169 193 80
171 194 80
163 186 72
164 187 84
165 188 72
166 190 92
169 192 88
169 193 84
168 192 95
169 192 92
167 190 92
167 190 84
165 189 80
168 193 99
162 185 92
169 193 105
166 190 95
166 190 76
172 195 108
168 191 84
170 193 108
168 190 114
163 186 102
165 188 72
167 190 80
172 196 114
157 180 76
163 186 92
166 189 95
158 181 80
164 187 92
160 183 99
162 185 92
158 181 82
159 182 88
158 181 92
160 183 88
163 186 88
159 182 92
157 180 67
164 187 88
161 185 102
152 175 67
164 187 92
166 188 99
170 192 117
159 181 102
160 184 99
160 182 95
158 180 80
156 178 105
151 173 80
153 175 84
150 171 88
154 175 95
156 178 80
155 178 84
152 175 72
153 175 80
154 176 92
150 172 80
149 171 80
152 173 105
141 161 80
142 163 76
139 159 72
139 160 92
139 160 65
132 152 80
133 155 86
109 130 60
117 139 97
108 132 94
91 115 91
85 110 109
82 108 121
95 120 117
86 112 113
90 117 115
92 118 123
86 112 107
99 124 126
99 124 121
99 124 122
97 122 129
94 120 127
91 116 127
102 127 136
85 112 132
103 128 137
101 127 120
102 127 131
110 133 147
98 124 135
92 118 140
91 116 142
104 128 132
88 115 135
85 112 130
81 108 124
80 108 131
104 127 140
93 118 140
89 113 130
93 115 132
83 107 123
85 110 132
92 115 135
83 108 125
91 111 121
85 108 125
80 105 125
81 106 123
76 103 115
75 103 125
70 99 120
75 103 117
65 97 129
69 100 108
74 102 116
58 90 95
66 95 107
70 99 115
65 95 121
56 89 100
62 95 110
59 93 112
62 94 107
59 91 107
60 93 119
62 93 108
56 89 107
57 91 117
61 93 117
58 92 107
58 91 113
57 91 110
57 91 120
58 92 114
58 92 124
57 91 122
58 92 122
59 93 128
57 91 110
57 90 105
59 92 124
55 88 92
59 93 126
57 90 113
58 91 118
56 90 107
58 92 115
59 93 121
59 93 122
57 91 107
57 91 121
57 90 115
57 90 113
57 90 108
57 90 111
57 91 113
59 93 122
56 89 107
58 91 105
57 90 122
58 92 125
58 92 120
59 93 115
57 90 105
57 91 115
56 89 102
58 92 111
55 88 102
59 93 122
57 90 114
56 89 111
55 88 110
57 90 115
57 90 110
58 92 121
59 93 124
57 90 110
56 89 105
58 92 114
57 90 113
59 93 111
57 91 115
56 89 115
56 89 107
54 85 99
56 89 111
55 88 102
55 87 100
56 88 105
56 89 99
57 90 118
52 84 82
56 88 95
59 88 92
76 99 82
76 93 51
99 112 25
106 120 0
105 120 0
103 117 0
105 120 0
113 129 0
113 129 0
107 122 0
115 131 0
118 134 0
112 126 0
121 137 0
108 123 0
113 128 0
103 121 0
122 138 0
112 128 0
117 135 0
126 143 0
131 146 0
123 139 0
131 147 0
116 132 0
125 140 0
127 144 0
124 141 0
134 150 0
128 145 0
121 139 0
127 144 0
130 148 0
125 141 0
128 144 0
129 145 0
120 138 0
129 148 0
139 157 0
135 152 0
137 154 0
127 146 0
133 149 0
139 155 0
126 144 0
132 148 0
147 165 0
139 156 0
133 151 0
136 153 0
131 150 0
140 156 0
138 156 0
144 159 0
137 154 0
146 162 0
144 161 0
138 156 0
150 167 0
128 145 0
137 153 0
138 153 0
138 155 0
150 167 0
134 150 0
148 167 0
148 165 0
144 161 0
145 163 0
147 162 0
141 158 0
144 161 0
139 157 0
143 161 0
146 164 0
142 159 0
143 158 0
148 165 0
152 170 0
142 161 0
149 167 0
153 171 0
144 163 0
146 162 0
154 171 0
146 163 0
145 162 0
153 170 0
148 164 0
152 169 0
153 171 0
141 159 0
150 170 0
153 171 0
146 165 0
155 173 0
147 165 0
147 164 0
141 158 0
154 170 0
153 170 0
154 171 0
153 171 0
157 174 0
147 162 0
152 170 0
156 172 0
154 174 0
147 165 0
156 172 0
155 174 0
150 167 0
159 177 0
161 179 0
163 180 0
155 174 0
148 165 0
150 168 0
155 174 0
155 175 0
151 169 0
152 169 0
160 178 0
151 169 0
160 178 0
162 180 0
153 170 0
155 173 0
157 176 0
156 176 0
164 183 0
161 180 0
153 171 0
162 182 0
163 181 0
158 176 0
160 177 0
159 179 0
163 181 0
152 169 0
160 180 0
157 176 0
158 177 0
166 184 0
156 176 0
159 177 0
162 182 0
162 181 0
162 180 0
167 186 0
163 181 0
161 179 0
159 179 0
161 180 0
166 186 0
161 181 0
163 183 0
164 183 0
167 187 0
160 179 0
162 181 0
165 185 0
158 178 0
163 181 0
162 182 0
162 182 0
164 185 0
162 182 0
162 181 0
160 179 0
163 183 0
166 188 0
166 187 0
169 188 0
166 186 0
171 195 51
174 198 80
171 195 62
168 193 72
167 192 62
169 192 84
171 196 84
169 193 57
167 191 67
164 188 51
170 195 84
169 193 62
170 194 67
170 194 88
171 195 62
171 195 62
169 193 80
173 196 57
170 194 67
171 194 72
167 192 76
170 195 84
166 190 92
169 194 95
159 184 67
171 194 80
163 187 72
169 192 92
172 195 102
171 194 72
170 193 95
170 194 95
168 193 92
166 190 72
170 194 92
172 195 88
168 191 76
168 192 80
163 186 80
170 193 80
168 191 72
165 189 92
167 191 108
166 190 95
166 190 80
165 189 99
168 191 95
163 186 44
168 192 88
166 189 88
167 189 105
166 189 72
166 188 102
160 183 80
160 183 76
167 190 95
165 188 92
162 185 105
161 184 99
160 183 99
167 191 117
162 185 99
167 190 108
165 187 72
158 181 92
151 174 80
164 186 80
163 185 95
159 182 95
159 181 84
159 181 76
155 177 95
163 186 80
159 180 102
155 177 76
160 183 102
159 180 92
157 179 88
151 173 76
153 176 84
144 165 76
156 178 88
147 169 88
154 175 102
145 168 84
149 170 84
147 168 80
147 168 72
147 169 76
145 166 99
143 164 76
140 161 62
135 155 84
144 164 67
139 159 86
136 157 65
128 149 72
122 144 95
104 127 94
103 126 105
94 118 114
87 113 113
87 113 113
87 113 107
90 115 115
82 109 107
91 117 136
90 115 116
91 118 139
94 118 124
81 108 113
90 117 124
95 121 136
95 120 118
101 125 121
94 121 134
104 128 133
102 126 122
102 125 132
99 125 139
93 119 121
76 105 128
105 128 132
98 122 136
80 108 136
85 111 123
85 111 135
97 121 141
91 116 135
86 112 137
99 119 122
88 111 131
77 104 131
84 107 126
87 110 118
90 113 132
82 105 136
88 111 121
79 105 130
74 101 134
69 99 131
68 97 115
68 96 105
79 107 118
76 105 115
72 102 110
66 97 121
64 94 100
67 98 114
60 93 114
62 93 107
61 92 103
58 91 111
60 93 126
59 92 108
58 91 117
57 89 109
61 94 113
55 87 102
59 92 100
57 90 108
57 91 114
57 91 118
57 91 118
57 91 115
58 91 122
57 91 114
58 92 102
59 92 121
57 90 102
58 91 117
58 91 121
58 91 113
58 91 118
56 89 109
58 92 121
56 89 103
56 90 107
58 91 105
59 93 121
58 91 111
57 91 114
57 90 110
57 91 115
57 90 114
59 92 114
58 92 110
59 92 114
59 93 122
57 91 113
57 91 110
58 92 120
57 90 111
56 90 105
57 90 105
57 91 115
58 92 102
59 92 117
58 91 120
58 91 120
55 88 95
57 91 118
57 90 105
56 89 105
56 90 115
57 91 111
56 89 105
57 90 114
59 92 117
57 90 111
57 90 115
56 88 107
56 89 99
57 90 110
54 86 103
56 88 103
58 91 121
57 89 115
56 89 99
56 89 110
56 88 113
55 87 92
58 90 95
60 87 74
68 91 62
92 109 31
101 115 25
103 117 0
96 111 0
104 120 0
113 128 0
122 136 0
96 109 0
92 106 0
114 130 0
119 134 0
115 130 0
106 122 0
115 132 0
114 130 0
122 138 0
122 139 0
101 118 0
103 119 0
114 127 0
124 140 0
125 141 0
122 137 0
125 141 0
115 128 0
123 141 0
130 146 0
115 130 0
118 135 0
121 137 0
134 150 0
127 144 0
139 157 0
127 144 0
124 142 0
122 140 0
144 162 0
132 149 0
130 147 0
130 146 0
136 155 0
129 146 0
135 150 0
137 153 0
138 157 0
132 150 0
130 147 0
138 154 0
138 156 0
135 153 0
143 162 0
132 150 0
133 149 0
137 156 0
139 156 0
138 157 0
143 163 0
144 161 0
134 150 0
141 158 0
149 166 0
148 166 0
144 162 0
145 164 0
135 151 0
144 162 0
144 163 0
142 159 0
140 157 0
154 173 0
143 160 0
154 171 0
151 168 0
151 167 0
143 161 0
147 164 0
150 166 0
146 162 0
143 160 0
146 165 0
151 167 0
142 159 0
141 156 0
148 167 0
146 162 0
154 173 0
147 167 0
150 169 0
147 166 0
150 168 0
150 168 0
159 175 0
140 157 0
149 166 0
154 172 0
157 176 0
145 164 0
146 160 0
148 168 0
155 173 0
157 174 0
153 169 0
150 166 0
159 177 0
150 168 0
154 172 0
155 174 0
164 184 0
150 167 0
154 171 0
152 170 0
151 170 0
152 169 0
151 169 0
153 172 0
151 170 0
160 178 0
153 170 0
156 175 0
150 169 0
153 169 0
156 174 0
156 177 0
154 173 0
160 179 0
156 173 0
159 178 0
163 184 0
160 179 0
157 176 0
153 172 0
161 179 0
163 183 0
164 183 0
156 174 0
156 175 0
155 173 0
157 174 0
156 176 0
158 177 0
161 180 0
161 179 0
161 180 0
161 178 0
162 181 0
163 183 0
157 176 0
161 178 0
163 182 0
162 182 0
157 174 0
164 185 0
162 182 0
164 183 0
165 186 0
162 181 0
158 176 0
159 179 0
168 186 0
161 181 0
165 185 0
164 182 0
166 186 0
165 185 0
163 181 0
167 188 0
163 182 0
165 186 0
165 184 0
165 186 0
166 187 0
161 181 0
165 184 0
162 181 0
165 185 0
169 193 80
171 195 80
171 195 67
168 193 67
171 196 62
171 195 67
169 193 44
168 192 62
166 191 62
165 190 67
167 190 76
170 193 72
167 193 80
167 191 76
171 195 102
169 193 80
171 195 80
168 192 80
168 192 57
170 194 88
167 191 88
172 195 80
172 196 88
170 194 76
169 194 80
169 192 76
168 192 95
169 193 76
172 194 88
171 195 111
166 190 84
166 188 80
163 188 84
170 194 92
171 194 88
171 195 84
167 190 95
173 196 111
163 187 88
166 189 92
172 195 99
161 185 57
167 190 88
165 189 88
169 192 99
169 193 92
170 192 117
165 188 105
160 184 95
167 191 99
166 189 102
164 188 95
160 184 92
158 180 67
170 193 92
165 188 99
164 186 99
161 184 92
167 189 95
160 182 108
163 186 88
165 188 80
167 189 95
166 189 105
164 187 76
162 185 99
166 188 108
164 187 108
164 187 105
160 183 95
156 177 80
167 189 95
151 174 67
160 183 95
160 183 102
156 178 105
159 181 105
163 186 99
155 177 84
156 178 95
158 180 88
154 175 92
155 177 88
149 170 67
153 174 105
155 177 80
145 166 95
144 165 76
141 162 76
146 166 67
150 171 80
148 169 86
149 169 92
141 161 57
125 145 57
141 161 76
136 157 88
127 149 70
118 139 86
100 122 79
100 124 105
98 123 110
94 118 112
83 109 110
83 108 110
85 111 127
82 109 115
98 123 124
93 118 128
94 119 131
94 119 128
98 123 123
109 133 127
100 124 134
101 125 126
72 100 110
95 120 122
91 117 120
88 114 112
90 117 121
91 116 119
91 118 123
87 114 121
95 120 136
101 125 128
93 119 140
101 124 136
96 117 126
88 113 134
108 130 140
91 115 135
86 111 125
89 113 131
82 106 124
79 103 115
82 105 121
82 107 120
91 112 118
85 110 122
83 107 116
83 108 119
76 103 97
78 105 124
71 101 126
59 92 100
66 98 124
68 98 105
62 94 110
75 103 107
68 99 115
65 96 111
59 89 109
62 93 103
62 94 103
63 94 107
57 90 111
62 95 111
57 90 106
57 89 100
61 92 94
58 90 94
57 90 105
57 91 119
57 90 110
57 90 120
55 88 104
59 92 125
54 86 108
58 92 114
57 91 117
56 89 103
56 89 105
56 89 111
56 90 106
57 90 113
57 91 117
57 90 106
58 92 117
58 91 117
57 90 111
56 89 100
58 92 122
57 90 111
57 91 113
58 92 122
55 88 104
56 89 107
57 89 107
58 91 117
56 89 114
56 88 107
56 89 103
57 89 108
56 89 100
57 90 115
58 92 129
56 89 110
57 90 102
56 89 108
59 93 122
56 89 108
54 86 94
56 90 102
57 90 117
56 88 117
55 88 97
57 91 114
56 89 99
57 90 103
54 86 95
55 87 113
57 90 108
57 90 102
54 86 90
56 88 94
55 88 102
55 87 90
55 86 99
54 86 94
55 87 94
56 87 97
62 92 99
85 106 72
90 108 44
102 117 25
107 122 18
96 110 0
109 125 0
99 112 0
96 108 0
105 121 0
118 132 0
104 118 0
115 131 0
107 123 0
129 147 0
111 128 0
112 126 0
119 134 0
119 137 0
117 134 0
120 135 0
119 136 0
110 128 0
131 148 0
118 134 0
121 139 0
116 131 0
123 142 0
115 131 0
131 146 0
123 137 0
116 133 0
127 144 0
130 148 0
128 144 0
134 152 0
132 148 0
122 137 0
121 138 0
130 147 0
128 145 0
147 165 0
134 151 0
128 144 0
133 150 0
139 157 0
129 146 0
150 169 0
130 148 0
134 152 0
143 161 0
137 153 0
143 159 0
141 160 0
136 155 0
140 159 0
133 149 0
139 156 0
135 153 0
133 150 0
137 154 0
140 158 0
144 160 0
139 157 0
145 162 0
148 166 0
153 172 0
151 170 0
144 163 0
140 156 0
142 157 0
148 168 0
138 154 0
152 173 0
144 161 0
146 162 0
143 159 0
146 166 0
145 162 0
148 166 0
146 163 0
137 151 0
149 168 0
144 161 0
152 170 0
156 174 0
143 160 0
150 167 0
147 164 0
154 173 0
146 163 0
149 164 0
148 165 0
154 172 0
151 168 0
147 165 0
144 162 0
154 171 0
149 166 0
151 170 0
155 173 0
150 167 0
153 170 0
146 163 0
150 166 0
158 175 0
156 173 0
150 168 0
149 167 0
154 172 0
154 171 0
156 175 0
159 178 0
150 169 0
150 170 0
150 165 0
158 176 0
154 172 0
162 181 0
156 175 0
152 169 0
161 180 0
151 169 0
156 174 0
156 172 0
154 172 0
161 180 0
156 174 0
160 180 0
164 181 0
156 173 0
156 176 0
160 179 0
158 178 0
160 179 0
155 171 0
158 176 0
159 179 0
159 176 0
157 175 0
153 172 0
164 184 0
161 180 0
164 183 0
159 177 0
159 178 0
164 182 0
162 182 0
161 180 0
165 184 0
161 179 0
163 183 0
159 177 0
162 183 0
160 179 0
163 183 0
162 181 0
158 178 0
161 180 0
166 186 0
166 185 0
162 182 0
163 182 0
162 182 0
169 190 0
164 184 0
160 177 0
161 180 0
163 184 0
161 181 0
167 187 0
164 183 0
164 185 0
167 188 0
162 182 0
167 186 0
161 181 0
163 182 0
168 188 0
167 191 72
168 192 62
170 194 84
170 194 76
172 196 67
168 192 62
171 195 51
171 195 76
165 189 57
174 198 76
165 189 57
170 194 92
173 197 76
162 187 76
170 194 92
169 193 72
166 189 44
169 192 88
168 192 72
162 186 72
170 193 99
170 194 84
169 192 57
171 194 88
169 193 95
168 192 95
169 192 80
169 192 72
173 195 84
168 191 80
172 196 80
166 188 88
163 187 99
170 194 92
165 188 72
163 186 102
169 192 105
163 186 67
168 191 111
168 191 99
168 190 95
164 187 76
165 189 84
168 192 99
166 190 88
167 191 88
164 188 72
164 187 72
167 190 105
160 184 80
164 187 88
164 187 76
166 189 99
166 189 105
167 189 80
170 192 111
162 185 102
162 185 86
161 183 105
159 182 92
160 183 88
165 188 125
163 186 92
168 191 105
166 188 120
161 183 84
160 183 99
163 186 102
166 188 128
159 181 102
153 177 84
162 184 105
161 183 88
168 190 102
158 180 84
162 183 95
159 181 92
161 183 108
157 179 88
155 177 76
158 179 80
149 171 84
159 182 114
152 174 84
153 174 80
162 184 84
153 174 72
151 172 84
138 158 76
142 163 88
148 169 88
139 158 72
138 158 76
145 166 67
138 158 76
154 175 80
144 164 95
137 157 57
134 153 94
119 140 99
101 123 97
97 119 92
112 135 126
89 115 113
97 122 132
87 111 111
94 119 118
97 121 120
97 121 132
87 113 114
102 125 135
95 119 119
70 99 103
101 125 121
94 119 114
86 112 113
99 122 124
91 116 129
95 119 120
108 131 134
103 127 136
102 126 128
97 122 128
78 107 122
104 128 131
89 114 114
94 119 120
102 125 140
111 133 121
92 114 119
104 125 118
105 125 128
91 116 123
90 114 123
96 116 115
92 116 123
87 110 130
91 114 127
83 107 117
91 114 119
69 98 114
86 110 113
75 103 108
74 103 106
65 96 117
75 103 111
67 98 113
68 97 105
64 96 117
68 99 112
65 95 110
72 102 105
62 93 96
64 93 99
60 91 100
60 92 95
58 90 97
59 89 97
57 90 105
56 89 113
56 89 106
56 88 114
56 88 111
55 88 98
56 89 110
57 90 110
55 89 103
58 91 121
57 91 110
56 89 102
59 93 121
56 88 104
57 91 120
56 89 103
56 88 110
56 89 108
56 89 108
57 90 103
58 91 115
56 89 107
59 93 120
59 93 110
57 90 105
57 91 102
56 88 117
56 90 103
57 90 108
58 91 115
57 91 108
57 91 110
58 92 114
56 90 97
55 87 88
56 89 110
57 90 110
55 88 100
56 88 102
58 91 103
58 91 117
54 86 88
55 87 103
54 87 94
59 93 126
58 92 118
53 85 90
54 86 92
57 90 110
57 90 105
52 83 84
54 86 94
55 87 115
55 87 97
56 88 99
54 86 99
54 86 94
54 86 88
55 87 97
56 88 105
53 84 94
55 86 86
60 87 80
84 102 62
103 121 31
99 115 18
100 115 0
97 114 0
105 119 0
98 113 0
108 123 0
106 121 0
109 125 0
114 132 0
116 131 0
107 123 0
115 131 0
121 138 0
113 128 0
113 128 0
116 131 0
107 124 0
116 131 0
116 132 0
110 126 0
119 134 0
119 137 0
127 145 0
118 134 0
119 137 0
126 143 0
123 141 0
134 153 0
131 148 0
127 145 0
130 149 0
137 155 0
129 146 0
128 146 0
136 154 0
122 139 0
131 147 0
139 156 0
137 154 0
133 151 0
135 153 0
130 147 0
132 149 0
135 152 0
135 152 0
129 145 0
137 155 0
133 150 0
137 156 0
135 152 0
133 151 0
143 161 0
133 149 0
139 156 0
140 157 0
128 145 0
143 163 0
139 155 0
139 157 0
139 158 0
140 159 0
146 164 0
149 167 0
142 159 0
140 155 0
139 158 0
134 151 0
137 157 0
148 165 0
151 168 0
139 157 0
150 168 0
148 165 0
144 162 0
138 155 0
147 164 0
148 167 0
150 169 0
150 167 0
144 161 0
144 163 0
147 164 0
150 169 0
149 167 0
153 169 0
149 167 0
152 170 0
141 158 0
153 172 0
147 165 0
150 167 0
151 169 0
149 167 0
147 165 0
151 171 0
155 172 0
144 161 0
151 167 0
153 171 0
151 168 0
149 167 0
148 165 0
151 169 0
154 173 0
147 165 0
149 168 0
156 173 0
148 165 0
154 174 0
153 170 0
156 175 0
159 178 0
157 176 0
150 167 0
159 177 0
155 172 0
153 172 0
149 168 0
153 172 0
145 162 0
157 175 0
152 169 0
155 174 0
159 178 0
150 168 0
156 175 0
162 180 0
166 187 0
162 182 0
165 185 0
159 178 0
158 177 0
162 182 0
162 181 0
155 173 0
154 170 0
155 175 0
158 177 0
159 180 0
160 178 0
162 179 0
158 176 0
162 181 0
165 185 0
159 179 0
156 174 0
160 179 0
159 179 0
160 179 0
164 184 0
162 179 0
159 179 0
165 183 0
164 184 0
166 184 0
163 184 0
162 183 0
162 182 0
163 181 0
161 182 0
163 182 0
164 185 0
165 184 0
163 180 0
162 183 0
160 179 0
165 185 0
165 185 0
162 181 0
160 180 0
168 186 0
165 184 0
159 179 0
167 186 0
162 180 0
167 188 0
162 181 0
172 196 57
167 192 84
166 189 67
168 192 67
168 192 72
170 195 72
169 194 84
173 196 76
171 195 76
166 191 67
168 192 72
170 194 67
166 189 84
172 196 80
167 191 72
172 195 72
170 193 88
169 192 76
170 194 88
162 186 44
169 192 84
171 194 92
167 192 84
171 194 88
169 192 67
173 196 88
175 198 105
164 187 76
171 195 80
169 193 80
172 195 84
175 198 99
167 191 80
168 192 95
168 191 102
164 188 92
174 197 92
165 189 92
166 190 92
167 191 84
169 194 111
171 194 95
164 187 99
167 190 105
167 191 84
164 188 95
164 187 105
165 189 105
172 195 111
164 188 114
170 194 95
170 193 120
165 188 121
165 188 102
169 191 99
166 189 111
162 186 95
163 185 88
163 187 92
161 185 92
147 171 65
162 184 84
162 185 92
164 188 111
160 182 102
163 186 95
165 187 72
153 175 84
165 188 108
161 184 99
159 181 97
158 180 111
158 180 105
160 182 84
158 180 95
164 186 84
160 182 99
156 178 102
157 178 92
156 177 92
162 183 111
163 186 67
157 177 72
153 174 88
158 179 120
153 174 95
159 181 105
147 168 76
138 159 76
152 172 88
152 173 84
143 163 72
147 168 95
144 165 72
135 156 67
143 163 84
141 162 72
149 170 94
134 154 86
131 151 102
120 141 78
112 134 105
95 119 90
86 112 110
91 115 99
93 117 115
93 117 112
100 124 126
79 106 104
89 113 121
88 113 99
99 123 121
95 119 113
92 117 110
88 113 108
91 117 124
100 123 132
97 121 126
97 122 118
92 116 105
89 116 127
87 113 121
99 123 127
85 113 121
106 128 134
81 107 115
103 127 140
92 117 114
84 109 118
92 116 133
96 120 115
93 114 120
95 117 117
90 113 115
91 116 104
84 107 103
101 121 114
88 112 125
88 114 125
79 106 105
82 107 123
78 104 106
82 108 119
72 99 107
72 101 113
61 93 100
71 99 107
72 101 111
73 101 97
68 97 97
69 98 103
64 94 97
64 95 118
62 93 107
56 88 100
64 95 108
55 88 105
61 93 102
57 90 111
56 89 114
56 89 94
59 92 111
57 90 110
55 87 105
55 88 105
54 87 107
57 90 112
57 91 108
58 91 108
57 90 100
57 90 115
58 92 111
55 88 100
56 88 102
55 88 88
58 92 113
57 90 113
57 90 110
57 90 118
57 90 110
59 93 125
57 90 113
56 89 114
56 88 97
56 89 111
55 87 103
58 92 125
58 92 114
57 90 118
58 91 110
57 90 114
57 90 110
57 90 107
56 89 105
58 91 107
58 92 118
57 90 103
55 87 102
57 91 114
54 86 90
56 89 94
56 89 111
58 91 120
57 90 111
57 91 114
56 89 107
54 86 103
56 88 107
56 88 117
55 87 111
55 87 90
55 87 105
57 90 112
55 88 100
54 86 99
57 89 103
55 86 102
56 88 103
57 85 90
71 90 67
89 107 40
108 124 18
93 106 0
95 110 0
112 126 0
121 135 0
109 123 0
111 126 0
110 124 0
105 120 0
105 122 0
121 136 0
103 117 0
112 127 0
103 117 0
122 139 0
112 128 0
109 126 0
101 117 0
127 145 0
108 124 0
123 138 0
129 145 0
118 134 0
125 143 0
121 138 0
122 140 0
125 141 0
122 139 0
132 149 0
127 145 0
122 139 0
126 144 0
134 152 0
132 148 0
131 148 0
120 136 0
117 136 0
131 148 0
141 159 0
130 148 0
122 138 0
130 148 0
140 158 0
131 149 0
132 150 0
135 153 0
133 149 0
136 155 0
143 162 0
141 160 0
136 154 0
135 152 0
137 155 0
142 160 0
136 153 0
130 149 0
141 158 0
137 155 0
139 158 0
142 163 0
143 160 0
141 158 0
138 157 0
141 160 0
140 159 0
141 158 0
138 153 0
141 156 0
146 165 0
143 162 0
146 164 0
145 163 0
141 160 0
144 163 0
153 170 0
147 166 0
147 165 0
142 160 0
148 166 0
147 166 0
146 164 0
141 158 0
150 169 0
146 166 0
146 164 0
152 171 0
150 168 0
145 163 0
150 170 0
147 165 0
151 169 0
148 167 0
149 166 0
150 169 0
144 159 0
151 170 0
146 163 0
152 171 0
148 166 0
142 159 0
151 170 0
149 166 0
158 178 0
150 169 0
153 171 0
150 169 0
154 172 0
149 168 0
154 173 0
154 173 0
160 179 0
154 172 0
154 171 0
154 171 0
159 177 0
153 171 0
153 170 0
150 168 0
154 174 0
157 176 0
159 179 0
154 171 0
157 175 0
153 173 0
157 176 0
156 174 0
155 174 0
158 177 0
160 180 0
158 179 0
155 174 0
156 173 0
161 181 0
155 174 0
157 175 0
160 180 0
161 179 0
163 183 0
160 179 0
159 180 0
158 176 0
157 173 0
155 175 0
161 180 0
157 177 0
157 177 0
159 177 0
160 178 0
162 182 0
160 181 0
163 182 0
158 176 0
159 177 0
157 176 0
159 177 0
162 181 0
161 181 0
159 179 0
164 185 0
166 185 0
165 184 0
169 188 0
162 182 0
166 186 0
161 180 0
161 180 0
166 186 0
163 184 0
162 183 0
166 186 0
164 186 0
166 186 0
165 185 0
164 183 0
164 184 0
167 188 0
165 186 0
166 188 0
164 183 0
171 194 44
172 195 57
170 194 88
172 196 76
171 195 84
170 195 67
173 196 102
171 194 72
168 193 72
175 198 92
171 195 88
169 193 84
166 191 72
170 193 72
173 198 95
163 188 76
167 190 72
167 191 76
175 199 95
170 195 99
167 191 62
169 193 84
171 194 99
166 190 92
168 191 102
171 195 95
168 193 102
174 197 99
167 191 88
171 193 92
169 192 92
171 194 95
168 192 105
169 192 67
168 191 84
169 192 95
171 195 88
166 189 102
165 187 92
165 189 76
167 190 84
168 192 111
170 193 105
167 191 102
171 193 108
166 190 88
165 189 80
163 186 99
167 191 92
166 190 99
173 196 99
165 188 80
169 191 84
167 190 92
162 185 95
160 183 111
160 183 84
166 189 105
161 183 80
162 186 95
168 191 114
161 185 84
166 188 88
164 188 114
164 186 88
166 189 111
160 182 92
173 196 95
167 189 80
151 175 102
163 185 114
157 179 95
155 177 84
160 184 84
165 188 117
160 183 108
160 182 84
162 184 102
159 182 92
160 180 122
152 175 92
150 172 67
163 184 105
157 178 92
153 174 67
156 177 105
148 170 80
159 180 102
141 163 80
147 168 76
152 173 62
145 165 51
153 173 88
141 160 76
137 157 84
144 164 92
136 155 76
141 161 88
142 161 94
134 153 86
128 148 84
115 135 88
111 132 90
111 132 111
96 118 102
99 123 120
94 119 111
92 116 115
92 117 111
83 109 102
98 123 117
104 128 137
100 123 117
96 121 120
80 106 109
102 125 121
91 115 125
97 121 127
92 116 103
100 124 131
99 122 120
86 113 130
99 124 132
96 121 124
96 120 133
96 120 132
108 131 126
97 120 121
92 116 128
84 109 121
93 116 129
95 118 134
91 115 120
98 119 120
83 107 125
101 124 107
89 115 114
94 118 108
89 112 117
94 117 109
84 108 107
81 108 110
82 108 107
78 104 110
80 107 112
70 100 114
70 99 97
71 100 90
66 96 104
66 96 113
70 99 111
61 92 103
65 96 110
62 94 114
55 88 99
59 91 107
61 92 88
55 87 100
61 92 103
63 94 100
57 90 102
58 91 108
57 90 97
57 90 111
56 89 108
57 90 115
55 87 107
56 89 108
57 90 110
58 92 118
55 88 107
58 91 108
56 88 95
58 92 120
56 89 102
55 88 97
55 88 99
58 91 118
55 87 113
57 91 107
55 88 90
56 88 107
55 88 105
56 89 97
55 88 105
58 92 120
57 90 115
55 88 108
56 89 99
57 89 99
58 91 108
56 89 107
56 89 110
56 89 105
56 89 111
56 89 111
57 90 105
56 89 108
56 89 110
57 91 108
58 91 117
57 90 110
55 88 99
55 87 110
56 89 111
56 89 108
54 86 90
53 85 88
56 89 107
56 89 107
54 86 90
56 88 95
55 87 95
53 84 88
56 87 111
52 82 82
69 95 97
80 102 67
92 107 31
90 106 36
107 121 18
96 109 0
105 120 0
93 107 0
111 125 0
100 115 0
109 125 0
102 117 0
117 134 0
117 132 0
120 135 0
118 135 0
113 130 0
114 130 0
112 130 0
111 128 0
108 126 0
114 131 0
115 129 0
112 129 0
114 130 0
113 128 0
113 129 0
123 139 0
110 124 0
123 141 0
120 138 0
122 140 0
121 139 0
127 145 0
119 136 0
126 143 0
134 154 0
118 135 0
131 150 0
127 144 0
128 146 0
121 138 0
126 145 0
133 151 0
130 148 0
119 136 0
146 165 0
126 143 0
133 151 0
136 153 0
130 147 0
143 161 0
139 159 0
131 149 0
136 154 0
140 160 0
133 149 0
137 153 0
141 158 0
133 151 0
133 150 0
146 165 0
141 157 0
134 152 0
140 157 0
144 163 0
133 152 0
141 159 0
147 165 0
141 160 0
151 169 0
152 169 0
146 164 0
151 171 0
148 167 0
150 168 0
147 165 0
148 167 0
146 166 0
143 160 0
144 160 0
145 161 0
148 165 0
151 169 0
142 160 0
151 168 0
141 158 0
148 167 0
146 164 0
148 165 0
132 150 0
156 176 0
153 171 0
147 166 0
144 161 0
149 166 0
153 171 0
152 170 0
156 175 0
145 164 0
151 171 0
152 171 0
151 170 0
150 169 0
153 170 0
152 171 0
149 168 0
152 168 0
154 169 0
159 177 0
148 169 0
153 171 0
158 177 0
155 173 0
155 173 0
156 175 0
153 171 0
156 176 0
159 178 0
156 174 0
156 175 0
151 170 0
159 180 0
150 169 0
162 182 0
153 171 0
160 181 0
155 173 0
148 167 0
155 172 0
160 179 0
158 176 0
156 175 0
156 175 0
161 179 0
155 172 0
163 180 0
151 169 0
157 176 0
152 171 0
162 183 0
155 174 0
156 173 0
156 175 0
165 186 0
154 172 0
163 182 0
164 183 0
158 175 0
163 183 0
162 182 0
159 179 0
166 186 0
159 180 0
160 180 0
158 178 0
155 173 0
161 181 0
160 179 0
164 183 0
161 178 0
155 176 0
162 183 0
165 186 0
164 185 0
162 181 0
161 181 0
164 185 0
163 182 0
162 183 0
165 186 0
166 185 0
165 186 0
164 184 0
164 186 0
166 186 0
164 184 0
161 180 0
167 188 0
166 186 0
163 184 0
162 181 0
163 185 0
169 191 0
167 190 67
171 195 80
171 195 76
172 197 80
172 196 76
170 194 72
171 195 76
170 194 67
171 195 99
170 194 88
169 193 84
168 191 102
171 195 84
171 195 80
167 192 76
164 187 51
169 194 102
169 192 67
172 196 99
176 199 114
167 191 72
167 192 88
173 197 80
171 195 95
169 192 62
167 190 84
170 193 80
170 193 95
171 194 111
167 191 99
165 187 80
168 191 95
169 192 99
167 190 84
163 186 80
170 194 95
162 186 80
170 193 99
170 193 108
170 192 95
166 189 67
163 186 72
172 194 99
164 187 108
170 194 114
156 179 76
167 190 99
171 194 111
165 189 99
166 188 92
169 192 108
170 193 111
168 190 99
170 191 102
157 180 102
166 189 102
171 194 111
164 187 94
166 190 92
172 192 105
158 181 99
167 189 105
165 187 95
165 187 95
164 187 105
159 181 88
162 184 99
158 180 88
159 182 99
163 185 95
159 181 108
161 183 80
161 182 102
162 184 95
157 179 95
147 169 84
157 177 95
151 173 92
149 170 88
155 177 95
162 184 108
148 169 92
160 181 108
152 174 88
148 169 102
154 175 99
135 157 62
147 168 88
158 180 111
148 169 84
151 171 88
159 179 105
152 172 84
145 165 99
145 166 80
136 155 92
126 146 72
134 154 72
126 146 62
122 141 57
129 148 62
126 145 97
121 141 95
116 137 82
103 124 100
107 129 111
87 111 103
101 124 131
69 97 103
79 106 106
104 128 122
105 128 122
91 116 113
96 120 117
98 122 111
94 119 122
92 117 119
99 124 121
91 117 111
90 116 105
101 125 115
94 120 125
98 124 133
93 118 118
87 114 121
101 123 123
97 119 104
93 116 118
87 114 125
104 126 116
84 108 103
87 111 115
100 122 121
96 117 101
90 112 109
90 115 114
104 124 107
84 110 108
86 112 110
90 112 96
91 115 100
75 101 121
87 111 105
82 108 97
76 104 115
64 94 97
72 101 111
64 94 107
70 99 99
71 100 108
74 102 106
78 104 94
62 94 103
62 94 103
68 97 92
62 92 108
59 89 95
60 92 111
57 90 105
62 93 100
55 87 108
57 91 113
57 90 103
57 90 117
56 88 105
56 89 105
55 87 90
55 87 99
55 88 94
57 90 113
55 88 97
56 88 100
57 90 103
56 89 103
55 88 105
58 91 114
56 89 100
55 88 102
57 90 102
57 90 110
56 89 114
57 90 111
56 88 104
56 89 110
57 90 94
58 91 113
56 88 97
54 87 92
56 89 95
57 90 102
56 88 95
57 90 105
55 88 105
56 89 97
56 89 108
54 86 99
57 91 103
56 89 103
57 90 105
56 89 110
54 86 110
56 88 92
54 86 100
56 89 108
57 91 110
53 84 84
56 89 114
54 87 88
54 86 97
54 86 97
52 83 90
52 82 88
53 84 80
53 85 88
64 92 78
78 100 70
89 106 57
87 102 18
96 112 25
99 113 0
87 103 0
108 123 0
108 123 0
101 118 0
106 121 0
118 134 0
101 116 0
119 137 0
106 122 0
103 117 0
111 127 0
97 110 0
113 129 0
102 118 0
118 135 0
104 121 0
112 128 0
110 126 0
114 131 0
115 129 0
125 141 0
123 139 0
122 137 0
119 136 0
128 146 0
132 149 0
127 143 0
132 149 0
113 130 0
130 147 0
133 150 0
126 144 0
127 144 0
122 138 0
130 149 0
130 147 0
128 145 0
124 142 0
135 153 0
130 148 0
132 151 0
132 151 0
137 155 0
137 153 0
135 152 0
126 146 0
136 153 0
133 151 0
130 146 0
131 149 0
137 156 0
145 163 0
148 167 0
146 165 0
139 156 0
137 155 0
142 158 0
149 166 0
134 153 0
150 170 0
140 158 0
153 173 0
132 149 0
134 153 0
143 160 0
152 172 0
138 156 0
138 157 0
149 168 0
144 162 0
146 165 0
152 168 0
147 166 0
143 163 0
154 172 0
148 165 0
146 166 0
151 168 0
150 168 0
156 172 0
146 163 0
142 160 0
153 172 0
146 164 0
146 164 0
144 163 0
151 169 0
149 168 0
153 173 0
153 170 0
143 161 0
147 165 0
151 169 0
154 174 0
150 171 0
149 170 0
156 176 0
153 172 0
153 172 0
148 164 0
146 165 0
156 177 0
150 168 0
150 169 0
159 178 0
153 173 0
151 171 0
153 172 0
152 170 0
152 171 0
148 166 0
155 173 0
154 172 0
158 177 0
154 172 0
153 171 0
155 171 0
152 173 0
162 183 0
152 171 0
155 174 0
150 169 0
154 172 0
154 173 0
157 177 0
160 178 0
152 171 0
156 176 0
157 178 0
157 177 0
160 181 0
162 182 0
165 183 0
160 178 0
161 178 0
159 176 0
155 173 0
155 174 0
162 184 0
158 177 0
153 170 0
162 182 0
163 183 0
167 189 0
159 178 0
156 174 0
160 178 0
167 185 0
158 176 0
165 185 0
155 174 0
166 186 0
164 183 0
156 176 0
162 184 0
158 177 0
158 179 0
162 182 0
161 180 0
168 187 0
163 183 0
165 187 0
163 182 0
162 183 0
164 187 0
167 186 0
162 180 0
165 185 0
164 184 0
168 188 0
166 189 0
154 173 0
161 180 0
166 185 0
167 187 0
162 183 0
164 184 0
167 188 0
164 185 0
158 178 0
171 195 67
171 195 62
172 196 72
172 196 84
171 195 84
170 195 92
170 193 57
167 192 76
175 198 95
167 192 99
166 191 92
175 198 95
166 190 84
174 197 76
172 195 76
173 196 88
172 195 62
173 198 92
168 192 72
171 195 88
170 193 84
167 190 99
170 194 92
166 189 76
167 191 76
172 195 122
169 191 102
174 198 95
169 193 102
172 195 76
165 190 95
164 189 102
169 192 92
169 191 95
169 192 67
168 190 99
168 192 99
160 183 88
171 193 88
167 189 95
165 189 88
168 191 105
169 192 92
174 198 102
166 191 95
159 182 99
167 189 99
166 190 102
167 191 95
164 186 80
163 186 92
160 184 92
167 191 84
158 180 80
169 191 88
158 180 84
164 187 92
156 180 108
160 184 102
165 189 102
154 176 92
159 182 117
162 184 102
164 186 111
158 181 111
165 187 94
154 178 92
162 185 99
158 180 105
158 179 88
159 180 111
150 173 102
161 183 108
153 175 67
153 175 92
159 181 102
159 180 92
162 184 92
153 175 102
155 177 80
154 175 99
157 178 114
155 177 92
156 178 95
155 176 88
148 169 80
148 169 72
148 169 95
148 168 102
150 171 80
140 162 88
140 160 76
151 171 67
139 159 92
138 157 84
135 155 84
135 155 80
136 156 80
138 157 72
138 157 72
145 164 72
131 151 88
127 146 96
103 123 74
104 127 92
103 125 120
88 113 99
81 107 118
93 118 122
89 114 100
88 113 114
86 112 107
84 111 114
96 120 129
85 112 114
95 120 117
91 116 113
84 110 117
97 121 129
96 121 128
93 119 129
96 121 117
95 119 125
101 126 114
99 124 124
104 127 124
89 115 121
90 116 126
91 116 129
97 120 107
104 125 118
101 121 95
105 125 106
102 122 90
94 119 107
92 117 103
98 118 102
96 116 106
102 125 120
94 115 99
104 128 97
85 107 95
85 110 102
82 108 107
81 107 110
77 103 95
78 105 114
69 99 110
68 97 102
71 100 103
65 94 108
69 97 94
59 89 97
63 95 105
69 98 94
64 96 107
65 95 95
56 89 107
54 86 95
63 95 113
57 90 111
55 87 88
57 90 105
56 88 100
56 89 99
55 88 90
57 90 100
57 91 114
54 86 113
56 88 89
57 90 118
55 87 103
53 85 88
58 91 110
56 88 100
57 90 107
57 90 99
56 89 107
53 85 92
57 90 110
54 86 88
57 90 102
57 90 95
57 90 102
57 90 113
56 88 95
57 89 113
57 89 108
55 87 108
53 85 78
55 87 99
55 88 97
58 91 108
56 88 108
56 88 108
55 88 103
55 87 102
56 88 99
55 87 100
56 89 105
54 86 80
56 88 108
57 90 111
54 86 82
53 84 94
52 84 80
53 84 88
55 87 102
54 85 94
55 87 95
55 87 97
54 86 105
64 91 82
74 97 78
91 109 54
80 96 25
100 113 0
93 107 0
101 117 0
108 123 0
105 119 0
101 116 0
109 124 0
104 121 0
117 132 0
106 123 0
116 131 0
111 127 0
104 119 0
106 123 0
109 126 0
124 139 0
110 126 0
109 127 0
127 142 0
113 129 0
105 120 0
122 138 0
123 139 0
115 133 0
130 149 0
127 144 0
117 133 0
122 139 0
124 140 0
123 140 0
120 136 0
129 146 0
131 149 0
120 138 0
138 155 0
127 143 0
129 146 0
126 143 0
130 146 0
139 158 0
134 152 0
133 151 0
126 145 0
140 159 0
125 144 0
129 147 0
122 137 0
138 157 0
132 148 0
140 158 0
132 150 0
132 151 0
135 154 0
142 162 0
134 152 0
143 161 0
143 161 0
131 148 0
138 155 0
136 152 0
137 154 0
138 155 0
140 158 0
142 159 0
137 156 0
135 154 0
148 168 0
144 164 0
143 162 0
134 151 0
148 167 0
141 158 0
146 164 0
149 168 0
146 163 0
141 160 0
138 156 0
149 167 0
137 153 0
143 163 0
150 168 0
158 175 0
144 160 0
159 177 0
149 166 0
153 171 0
149 168 0
146 166 0
147 165 0
144 163 0
157 177 0
150 167 0
148 166 0
149 168 0
149 167 0
149 169 0
149 167 0
149 167 0
148 165 0
152 171 0
152 171 0
155 174 0
156 176 0
149 169 0
156 176 0
150 170 0
155 172 0
150 168 0
156 175 0
152 170 0
157 175 0
156 174 0
156 175 0
152 171 0
157 174 0
152 170 0
150 169 0
157 175 0
154 174 0
155 172 0
160 178 0
155 174 0
159 178 0
155 175 0
156 176 0
151 169 0
157 175 0
151 170 0
155 174 0
161 179 0
158 178 0
160 179 0
161 179 0
154 174 0
158 177 0
163 182 0
159 181 0
161 180 0
155 173 0
163 183 0
160 178 0
161 178 0
156 175 0
161 179 0
163 183 0
161 181 0
158 177 0
156 175 0
163 183 0
155 174 0
161 180 0
155 173 0
158 175 0
163 183 0
161 182 0
166 184 0
163 182 0
166 188 0
163 184 0
165 186 0
158 176 0
166 186 0
156 175 0
167 186 0
159 178 0
163 184 0
165 185 0
163 184 0
165 186 0
168 187 0
160 180 0
162 183 0
168 188 0
162 182 0
163 184 0
163 182 0
166 188 0
164 183 0
161 180 0
166 187 0
165 186 0
164 184 0
161 179 0
168 189 0
172 196 99
174 198 80
170 195 117
172 196 72
174 197 80
165 189 62
170 194 80
173 196 88
167 191 57
168 192 67
172 195 95
169 192 76
172 196 95
171 195 102
171 195 99
168 192 80
170 194 95
172 195 84
170 194 72
172 194 102
171 194 76
168 192 72
170 194 92
173 197 99
168 191 88
169 193 105
172 194 99
171 194 92
170 193 108
166 190 92
167 191 88
172 196 105
170 194 92
162 185 92
174 197 102
166 190 92
172 196 108
171 194 114
165 188 67
168 192 111
172 195 108
169 192 99
164 188 102
164 187 72
168 191 102
162 185 88
170 193 102
165 189 105
172 196 125
168 192 88
169 192 120
169 193 99
163 186 82
164 187 100
163 186 111
161 185 95
164 187 102
166 187 108
160 182 99
172 194 111
159 183 99
165 188 95
161 184 100
159 183 90
158 180 99
158 180 99
164 187 111
158 181 78
161 184 105
154 176 92
164 186 114
163 187 102
163 185 113
154 176 102
168 191 117
157 179 88
151 172 84
152 174 111
162 183 105
158 180 108
153 175 76
159 182 111
153 174 92
147 168 72
157 178 99
147 168 108
152 173 92
150 170 84
147 168 95
150 171 102
139 160 84
147 167 102
140 160 99
136 155 72
146 166 99
139 159 80
144 164 84
144 163 80
131 151 72
124 143 80
127 146 70
118 137 57
118 136 62
122 140 94
122 143 113
115 136 108
112 132 108
92 116 99
88 113 103
95 120 111
85 111 99
100 122 107
92 115 107
87 111 107
105 128 128
87 112 119
85 111 124
99 122 126
103 126 117
96 121 111
96 120 110
90 116 117
101 124 118
120 141 147
103 126 122
92 118 120
97 121 125
99 121 107
87 112 124
98 121 126
101 123 108
101 123 125
100 122 101
89 112 110
100 122 87
91 115 94
106 125 102
89 113 105
100 123 103
100 123 107
96 121 110
94 119 110
84 109 92
88 113 100
78 104 90
79 106 103
75 102 90
69 97 99
63 92 82
69 99 97
69 95 95
60 91 103
70 97 92
67 96 99
58 87 94
70 99 103
59 90 99
61 90 88
53 84 80
62 93 107
58 90 94
57 90 115
59 91 107
58 91 113
54 86 82
55 87 94
56 89 107
55 88 90
56 89 109
55 87 99
55 86 97
55 87 88
55 88 100
57 89 103
58 91 107
53 84 99
57 90 115
55 88 102
55 88 97
58 92 110
56 89 110
54 86 97
54 86 103
56 88 84
53 85 90
56 89 108
57 89 99
57 90 108
54 87 99
53 85 90
56 89 107
55 87 102
55 87 90
56 89 100
56 89 99
55 88 102
55 88 97
54 86 78
55 87 100
55 88 99
53 85 88
56 88 100
55 88 108
55 88 105
56 89 107
56 89 97
53 85 80
52 83 84
52 84 84
54 84 88
57 84 88
82 101 60
86 105 67
87 104 44
84 99 0
98 113 18
107 122 0
98 113 0
102 117 0
106 121 0
101 114 0
100 116 0
109 121 0
99 114 0
102 119 0
108 123 0
118 135 0
118 134 0
109 125 0
120 135 0
102 118 0
109 124 0
122 139 0
120 136 0
110 127 0
119 135 0
113 131 0
122 137 0
110 126 0
130 146 0
123 140 0
114 132 0
117 134 0
126 143 0
115 132 0
126 144 0
122 139 0
127 145 0
123 141 0
134 151 0
130 147 0
119 138 0
129 147 0
138 157 0
130 145 0
136 153 0
133 152 0
122 141 0
131 149 0
132 151 0
128 145 0
125 144 0
135 152 0
135 154 0
135 152 0
138 156 0
136 152 0
129 147 0
147 166 0
140 157 0
146 165 0
137 157 0
141 160 0
137 155 0
149 167 0
139 158 0
134 151 0
138 155 0
135 153 0
132 149 0
131 149 0
140 159 0
140 156 0
149 169 0
145 164 0
148 168 0
143 161 0
140 156 0
144 162 0
144 162 0
150 169 0
141 159 0
150 171 0
146 166 0
149 168 0
142 161 0
147 164 0
139 157 0
143 162 0
144 162 0
153 172 0
145 164 0
149 167 0
142 160 0
152 171 0
149 169 0
143 163 0
146 163 0
153 170 0
146 162 0
151 170 0
157 175 0
147 165 0
151 170 0
159 178 0
151 169 0
153 171 0
157 177 0
150 169 0
155 174 0
159 179 0
155 175 0
150 166 0
157 177 0
158 176 0
148 168 0
156 176 0
155 174 0
157 176 0
154 172 0
154 174 0
150 166 0
154 173 0
154 173 0
161 180 0
152 174 0
154 172 0
161 180 0
157 177 0
158 176 0
157 175 0
149 166 0
155 173 0
150 168 0
154 175 0
153 171 0
164 184 0
159 178 0
161 180 0
159 179 0
164 185 0
159 178 0
158 176 0
156 175 0
155 173 0
166 187 0
154 171 0
163 182 0
156 174 0
160 179 0
160 180 0
161 181 0
159 181 0
159 179 0
162 181 0
161 181 0
165 184 0
160 180 0
162 183 0
162 182 0
160 179 0
161 180 0
165 185 0
158 178 0
166 187 0
163 182 0
161 182 0
159 179 0
162 183 0
160 181 0
159 176 0
158 177 0
163 182 0
165 183 0
160 180 0
160 179 0
165 185 0
163 182 0
162 183 0
161 180 0
167 188 0
164 186 0
169 188 0
168 189 0
165 185 0
164 186 0
168 190 0
166 187 0
162 181 0
167 189 0
172 196 88
172 196 72
174 197 84
168 191 57
169 193 76
170 194 80
167 190 80
172 195 92
169 193 88
169 193 76
170 193 99
164 188 51
168 193 84
172 195 95
172 195 92
175 198 102
172 195 84
167 190 80
172 196 99
172 195 108
170 194 105
175 198 84
173 196 102
166 190 99
169 193 95
169 193 95
170 193 122
172 195 105
160 183 80
175 199 111
166 190 76
163 186 84
168 191 95
164 187 105
167 190 80
169 193 114
170 193 95
167 190 88
171 195 111
167 190 102
171 194 105
164 187 92
167 190 84
171 194 111
163 186 105
162 185 108
162 187 92
172 196 105
161 184 84
168 191 105
167 191 95
163 187 92
162 185 88
162 186 72
160 183 80
168 191 102
168 190 99
164 186 88
154 177 60
157 180 92
165 188 99
160 184 72
161 184 99
164 187 108
159 182 72
152 174 80
161 183 95
156 180 114
162 185 88
160 183 92
158 180 108
156 179 99
159 180 92
159 180 95
159 180 102
169 191 122
157 178 84
155 177 102
152 172 80
159 181 102
155 176 114
156 176 99
146 168 95
153 173 99
153 172 92
150 171 99
146 166 80
152 173 102
161 182 122
145 165 88
142 163 67
144 164 95
140 160 92
154 173 102
146 167 84
141 162 97
146 166 102
144 163 72
136 156 76
138 157 84
131 150 62
123 141 84
135 155 72
134 153 100
128 146 67
107 127 92
113 134 110
104 125 107
107 127 88
76 100 92
89 113 110
92 117 113
82 107 92
87 111 126
87 112 110
112 134 131
92 116 107
95 119 124
91 116 108
91 117 110
96 121 117
94 119 110
96 120 102
96 121 127
94 117 118
92 117 122
107 128 104
94 119 122
100 122 110
96 119 113
111 130 102
93 116 115
105 125 92
118 137 93
103 124 110
112 131 120
106 127 100
100 119 78
97 120 107
96 119 97
87 110 99
88 113 97
98 121 94
89 114 78
80 101 105
71 99 95
78 104 90
84 109 95
65 96 107
73 98 90
69 98 92
70 98 102
61 89 80
64 92 86
67 94 88
57 88 100
70 98 88
55 85 82
56 87 82
57 88 97
56 88 105
59 91 109
57 88 84
53 84 90
57 90 99
55 88 103
56 89 94
51 82 70
57 90 108
56 89 100
55 87 100
57 90 102
56 88 107
56 88 107
56 88 105
56 89 113
55 88 108
55 87 95
55 87 95
55 88 99
56 88 110
56 89 105
56 88 88
56 88 99
55 87 100
53 85 94
54 87 84
54 85 92
55 88 105
54 85 94
56 89 111
55 87 105
56 89 95
56 89 94
56 90 104
54 85 88
55 87 100
57 89 108
55 87 99
54 86 95
56 89 103
55 86 105
54 85 80
53 84 92
54 86 94
55 87 94
51 81 70
52 83 82
60 86 76
76 98 62
79 97 47
99 115 40
92 108 18
96 111 0
98 114 0
97 111 0
105 121 0
99 114 0
86 102 0
94 109 0
99 115 0
100 114 0
111 126 0
89 104 0
105 121 0
108 123 0
113 129 0
105 120 0
116 132 0
118 135 0
105 120 0
125 141 0
114 131 0
111 128 0
113 130 0
121 140 0
125 142 0
116 134 0
112 128 0
113 130 0
132 150 0
130 149 0
119 137 0
116 133 0
124 140 0
122 139 0
132 151 0
130 148 0
117 135 0
122 139 0
128 144 0
129 148 0
137 154 0
127 145 0
137 156 0
136 155 0
143 162 0
134 153 0
134 150 0
139 157 0
143 160 0
132 148 0
139 158 0
131 149 0
137 154 0
124 142 0
128 146 0
133 152 0
135 152 0
146 166 0
132 152 0
137 157 0
138 157 0
143 163 0
142 161 0
141 160 0
144 160 0
141 159 0
142 162 0
150 169 0
145 164 0
147 166 0
147 166 0
140 158 0
156 174 0
145 162 0
145 163 0
149 169 0
140 157 0
147 167 0
147 164 0
139 158 0
146 165 0
144 162 0
139 157 0
147 166 0
147 167 0
148 166 0
147 166 0
149 168 0
149 168 0
149 166 0
148 165 0
152 171 0
152 169 0
143 161 0
152 170 0
156 172 0
149 167 0
149 165 0
153 170 0
148 166 0
149 167 0
149 167 0
152 172 0
155 174 0
145 164 0
149 169 0
157 176 0
147 166 0
155 173 0
159 179 0
151 172 0
153 172 0
150 169 0
159 177 0
155 173 0
157 175 0
158 177 0
147 166 0
162 183 0
154 172 0
150 168 0
156 175 0
151 171 0
157 177 0
153 171 0
153 171 0
161 181 0
150 168 0
159 178 0
153 173 0
161 181 0
154 173 0
154 173 0
160 178 0
158 177 0
159 179 0
159 178 0
167 187 0
161 181 0
159 177 0
158 176 0
162 181 0
158 177 0
162 180 0
160 179 0
161 181 0
159 180 0
164 182 0
154 170 0
166 187 0
160 180 0
153 172 0
158 177 0
158 177 0
161 180 0
162 182 0
157 177 0
165 185 0
162 182 0
163 183 0
162 182 0
160 179 0
167 187 0
164 185 0
162 181 0
160 181 0
164 186 0
161 181 0
159 180 0
162 181 0
159 178 0
162 181 0
163 184 0
164 184 0
163 183 0
165 185 0
162 183 0
160 180 0
164 183 0
163 185 0
166 187 0
168 189 0
160 180 0
164 184 0
166 187 0
163 185 0
166 187 0
164 185 0
172 195 95
172 196 84
171 195 72
172 195 95
173 197 80
172 196 76
174 198 76
170 194 80
169 193 95
164 188 67
164 188 72
176 199 102
172 196 72
167 191 92
171 195 88
172 196 95
175 197 95
170 192 95
177 200 108
172 196 95
165 189 80
167 190 88
170 194 99
169 193 111
170 193 105
171 194 102
166 189 76
173 196 84
170 193 84
164 187 84
169 193 95
166 189 117
163 187 95
171 195 95
169 193 95
170 193 92
172 195 95
167 190 95
173 196 108
164 187 80
167 191 102
166 189 88
166 189 92
163 185 88
168 191 108
164 187 99
168 190 95
172 196 99
165 188 105
167 191 105
164 187 95
163 186 99
158 181 95
171 194 105
165 189 111
162 185 92
168 191 94
166 189 99
163 186 92
157 180 102
154 176 80
158 180 72
162 185 92
162 184 105
159 182 111
153 176 80
158 181 102
163 186 88
161 182 114
162 185 108
162 185 99
159 182 72
163 185 95
153 176 95
164 187 99
161 183 95
154 175 95
157 179 105
152 174 88
158 180 133
159 180 111
154 176 88
152 174 102
161 182 114
156 177 92
152 174 117
151 172 92
149 170 114
161 182 105
153 172 102
148 168 76
149 170 92
146 167 95
164 184 114
133 152 80
134 155 72
138 157 67
136 155 92
138 156 84
128 147 44
150 169 99
136 155 95
126 145 72
137 156 88
122 140 86
128 146 103
119 138 108
106 125 95
107 126 90
106 127 82
79 105 94
91 115 104
92 115 100
97 121 117
103 126 114
96 120 126
93 118 110
101 124 114
105 129 128
95 120 115
102 126 120
84 111 115
100 124 117
91 117 107
108 129 104
94 118 108
101 124 121
99 121 117
96 119 104
106 128 114
100 123 106
104 126 105
106 129 110
94 119 100
99 122 102
107 126 105
110 131 84
101 121 93
94 116 90
102 125 92
90 111 91
104 125 94
104 127 82
95 116 95
87 112 96
78 105 95
71 98 103
76 103 97
64 91 90
70 97 97
68 96 88
73 100 67
70 98 95
63 91 86
67 95 90
72 100 88
54 84 84
74 102 94
55 86 80
56 88 97
57 89 118
58 90 92
58 89 76
50 81 82
54 85 103
56 89 103
54 86 88
55 87 100
56 88 108
57 90 114
55 87 90
55 87 88
54 86 84
55 87 94
55 86 90
57 90 108
54 87 103
51 82 95
56 88 102
53 85 82
53 86 82
55 87 103
56 89 102
55 87 100
55 88 102
55 87 99
54 86 102
56 88 111
52 83 82
54 86 84
54 86 94
54 86 92
54 86 80
52 83 86
54 86 95
54 85 94
56 88 103
54 86 84
53 84 92
54 86 95
52 83 88
52 83 82
54 86 80
52 82 86
55 87 90
59 87 72
74 96 60
79 98 54
78 94 40
86 102 25
96 111 18
93 108 0
97 110 0
100 114 0
101 116 0
106 122 0
109 124 0
98 114 0
102 117 0
97 111 0
118 134 0
107 124 0
117 133 0
103 119 0
107 123 0
107 125 0
108 123 0
112 130 0
112 129 0
103 120 0
114 129 0
117 133 0
104 120 0
119 138 0
112 128 0
109 125 0
105 121 0
119 135 0
122 139 0
128 144 0
116 131 0
135 154 0
124 142 0
123 142 0
121 137 0
134 152 0
122 141 0
131 149 0
127 145 0
120 137 0
126 143 0
129 148 0
133 154 0
141 159 0
134 152 0
136 157 0
136 153 0
137 154 0
134 153 0
133 152 0
128 147 0
123 141 0
131 149 0
134 153 0
129 148 0
146 166 0
135 153 0
123 140 0
138 158 0
146 165 0
150 170 0
144 161 0
138 157 0
133 150 0
134 152 0
144 161 0
138 155 0
147 165 0
142 159 0
148 167 0
131 149 0
149 169 0
145 164 0
147 166 0
151 170 0
156 176 0
136 155 0
142 162 0
146 165 0
144 164 0
153 171 0
150 169 0
152 173 0
152 171 0
139 156 0
151 170 0
146 163 0
152 172 0
154 173 0
155 173 0
147 167 0
147 167 0
149 167 0
149 166 0
154 175 0
145 164 0
153 175 0
152 172 0
149 168 0
147 163 0
149 169 0
147 166 0
158 179 0
150 167 0
145 161 0
154 172 0
146 165 0
151 169 0
149 169 0
151 171 0
151 170 0
153 169 0
157 177 0
145 164 0
153 171 0
146 165 0
158 175 0
161 180 0
151 170 0
153 172 0
152 173 0
156 176 0
156 176 0
147 166 0
154 172 0
160 179 0
152 169 0
158 177 0
162 181 0
155 173 0
161 181 0
161 180 0
160 180 0
155 174 0
157 178 0
160 181 0
151 169 0
164 184 0
159 178 0
159 178 0
160 179 0
161 180 0
162 181 0
156 176 0
162 183 0
165 185 0
164 184 0
161 180 0
155 174 0
162 181 0
161 182 0
162 182 0
161 181 0
164 183 0
157 176 0
162 181 0
165 185 0
165 184 0
161 180 0
164 184 0
156 174 0
159 180 0
158 178 0
163 182 0
164 184 0
163 185 0
166 186 0
164 184 0
158 179 0
166 187 0
164 184 0
160 179 0
162 181 0
161 182 0
161 181 0
162 183 0
165 187 0
167 187 0
164 185 0
162 181 0
166 187 0
164 186 0
163 184 0
166 186 0
166 187 0
162 183 0
166 186 0
166 187 0
161 181 0
165 184 0
171 195 72
173 198 80
175 199 99
173 197 84
167 190 76
172 194 80
174 198 111
166 190 67
172 196 99
172 194 80
170 193 76
171 194 80
172 195 95
169 193 84
175 198 99
165 189 95
163 186 80
173 197 80
170 194 92
165 189 80
174 197 92
170 194 99
175 198 84
174 196 105
171 194 105
173 197 111
166 190 84
173 197 108
173 195 95
171 195 92
165 188 99
164 188 72
166 190 105
168 192 95
162 186 80
168 191 76
171 195 102
168 191 108
165 188 92
171 193 102
166 189 92
164 188 99
166 189 102
170 194 111
167 190 108
157 181 72
160 184 99
170 193 111
162 187 97
163 185 95
163 185 72
162 186 82
163 186 100
165 188 102
166 189 76
166 188 103
166 189 102
165 188 108
168 190 88
159 182 92
164 187 80
159 182 102
160 183 95
160 184 114
151 174 76
166 188 88
163 186 102
160 183 99
156 179 76
155 178 95
158 180 95
150 172 72
165 188 120
155 176 80
159 180 99
156 178 88
156 178 88
149 170 84
160 182 105
161 183 84
161 183 99
153 175 95
148 169 99
155 177 105
163 185 102
154 175 111
154 176 108
156 177 120
146 167 95
160 181 88
149 170 84
145 165 95
148 168 99
148 167 80
140 160 108
145 164 99
137 158 80
139 159 92
137 157 80
148 167 102
135 154 80
130 147 88
129 149 72
133 151 67
137 155 88
123 141 78
116 133 99
110 130 74
108 128 105
93 114 76
115 133 111
100 122 94
79 102 86
92 116 108
90 115 115
90 115 113
78 104 103
97 122 117
104 127 117
99 124 120
100 123 111
84 111 99
90 113 124
99 121 121
89 112 115
93 115 88
110 133 109
103 124 105
109 128 90
96 117 97
110 131 82
94 117 104
109 128 84
112 133 99
111 129 82
111 132 90
108 129 92
96 118 102
101 123 92
104 126 92
113 133 85
96 118 90
95 118 84
106 127 90
82 107 84
84 106 78
76 100 90
66 92 86
83 107 78
75 102 94
71 98 84
81 106 86
61 91 99
60 87 84
57 88 88
64 93 84
56 85 94
55 86 92
61 90 84
57 87 80
51 80 54
55 85 88
54 86 92
54 86 103
56 89 80
56 88 94
55 86 88
53 84 84
54 86 110
53 85 86
55 86 99
53 85 90
52 83 92
55 87 99
56 88 100
56 89 102
55 88 90
57 89 100
55 87 97
55 87 88
55 87 90
56 89 94
54 86 92
55 88 97
53 85 88
55 86 88
56 89 99
55 88 100
55 88 100
54 86 97
54 86 86
53 85 80
53 84 82
55 86 97
54 86 99
53 84 95
51 81 88
55 87 94
53 84 76
54 86 72
52 84 88
55 86 86
62 91 95
64 86 57
89 108 60
86 105 44
91 106 31
91 105 18
89 105 0
94 110 0
96 111 0
101 116 0
100 117 0
103 120 0
102 118 0
101 117 0
93 109 0
102 119 0
95 110 0
106 121 0
103 118 0
103 121 0
115 131 0
112 127 0
105 121 0
111 127 0
109 126 0
109 125 0
118 134 0
124 141 0
117 135 0
123 139 0
119 133 0
111 128 0
125 143 0
119 137 0
119 138 0
128 146 0
108 125 0
112 130 0
123 141 0
115 134 0
124 141 0
127 142 0
144 163 0
129 147 0
128 145 0
120 140 0
131 150 0
125 142 0
136 154 0
134 152 0
132 149 0
133 152 0
118 135 0
136 153 0
123 139 0
137 155 0
135 155 0
127 145 0
146 165 0
136 154 0
130 148 0
141 160 0
140 157 0
138 157 0
130 149 0
139 160 0
138 158 0
140 158 0
138 158 0
143 161 0
135 153 0
142 161 0
152 172 0
148 166 0
150 169 0
137 155 0
145 164 0
137 157 0
149 167 0
134 154 0
153 173 0
147 166 0
148 168 0
146 164 0
150 169 0
143 163 0
142 162 0
144 163 0
152 172 0
144 162 0
148 166 0
136 155 0
147 164 0
143 162 0
137 154 0
153 173 0
144 161 0
149 167 0
148 167 0
145 164 0
157 176 0
152 169 0
143 162 0
152 172 0
147 163 0
152 170 0
151 170 0
143 163 0
151 171 0
146 164 0
151 170 0
147 165 0
157 179 0
152 171 0
154 173 0
150 168 0
151 170 0
154 174 0
156 177 0
154 173 0
155 173 0
157 176 0
156 176 0
154 174 0
147 167 0
149 166 0
149 168 0
156 174 0
161 181 0
154 174 0
152 172 0
161 182 0
154 172 0
150 170 0
155 175 0
161 181 0
162 182 0
159 177 0
151 170 0
157 176 0
157 173 0
153 172 0
157 176 0
158 180 0
153 172 0
163 182 0
158 176 0
166 187 0
157 178 0
160 180 0
159 180 0
153 172 0
157 177 0
159 180 0
165 185 0
158 180 0
156 174 0
163 184 0
167 188 0
163 184 0
161 182 0
162 183 0
165 184 0
157 177 0
163 181 0
162 183 0
161 182 0
161 181 0
164 183 0
163 181 0
158 179 0
165 185 0
161 180 0
163 183 0
164 184 0
164 185 0
160 181 0
161 181 0
166 186 0
161 182 0
165 185 0
163 183 0
165 184 0
163 184 0
169 190 0
163 184 0
163 183 0
167 189 0
164 185 0
165 186 0
164 185 0
163 185 0
168 190 0
166 187 0
161 181 0
162 182 0
165 187 0
166 187 0
176 199 92
171 195 62
172 197 99
171 195 99
172 196 95
174 198 92
171 195 72
174 198 102
173 195 84
169 192 76
175 198 84
177 200 95
170 194 80
174 198 99
176 199 102
173 197 114
172 195 88
169 192 95
172 196 88
174 198 108
171 193 99
171 194 88
176 199 120
170 194 102
168 192 95
169 192 95
170 194 114
168 191 72
171 193 76
172 195 122
171 195 80
166 189 76
169 193 111
169 194 122
174 196 102
171 194 80
166 189 105
169 192 108
164 187 80
168 191 102
170 193 95
173 195 92
167 191 88
169 193 108
162 185 84
165 188 111
167 190 84
164 188 95
168 190 76
168 192 95
165 188 72
163 186 92
167 191 95
166 189 122
157 181 84
164 188 105
159 183 95
162 186 72
162 186 92
163 187 102
163 185 94
161 183 72
160 183 80
164 187 107
169 192 114
158 181 86
158 181 47
159 182 78
158 180 84
162 186 76
158 180 88
159 182 88
167 189 102
158 181 117
158 180 95
155 177 102
162 184 92
157 179 84
152 173 99
159 181 84
148 170 84
158 180 99
159 181 95
149 171 111
157 178 102
159 179 122
155 176 102
154 176 105
154 175 95
154 174 80
142 163 95
147 168 88
142 162 88
141 161 76
154 174 105
158 177 120
145 164 111
138 158 72
139 158 84
138 157 102
141 161 92
147 165 95
136 155 76
129 147 62
125 143 76
126 143 70
130 148 92
114 132 70
112 131 88
109 127 76
111 130 95
94 115 92
96 118 100
89 112 92
91 114 100
96 120 117
104 128 119
96 121 102
92 116 115
93 119 118
101 124 110
105 129 110
91 116 110
96 119 110
100 122 105
105 126 112
99 122 105
109 130 107
108 128 111
106 127 102
97 121 100
101 122 94
107 128 84
118 138 102
110 130 94
107 128 94
112 132 97
100 123 92
108 129 105
111 132 76
100 121 78
99 121 95
98 118 76
96 120 80
87 110 86
83 107 80
92 115 76
91 115 82
84 106 70
71 97 90
66 94 84
76 103 92
65 94 86
64 92 94
60 89 82
54 85 87
62 89 84
64 92 72
57 86 76
69 96 86
55 86 94
52 84 82
58 90 99
53 84 95
53 85 95
52 83 92
50 81 70
53 84 95
54 85 86
52 83 90
55 87 90
53 85 90
54 85 95
55 86 95
55 88 100
52 83 88
53 85 99
52 84 86
55 86 105
53 85 88
51 81 72
56 88 100
53 85 90
50 80 80
53 84 76
55 87 107
54 85 84
55 86 94
54 86 76
52 82 74
52 83 88
53 84 92
53 85 95
54 85 99
52 83 84
53 84 86
52 83 80
51 82 67
51 82 78
70 94 74
68 92 62
83 103 47
71 89 44
87 103 25
89 105 0
84 99 18
97 112 0
93 108 0
89 105 0
99 113 0
88 103 0
103 120 0
98 114 0
100 116 0
93 109 0
98 114 0
113 128 0
103 119 0
101 116 0
117 132 0
115 130 0
103 120 0
101 117 0
114 128 0
113 130 0
112 128 0
107 124 0
115 130 0
106 124 0
98 116 0
111 128 0
119 137 0
114 129 0
114 130 0
124 140 0
131 149 0
117 133 0
123 139 0
121 137 0
125 142 0
125 142 0
125 143 0
123 141 0
131 150 0
121 139 0
132 150 0
135 153 0
125 143 0
121 140 0
126 144 0
129 147 0
130 148 0
126 143 0
129 146 0
126 146 0
123 141 0
127 144 0
133 151 0
126 144 0
136 156 0
132 150 0
133 152 0
137 156 0
134 152 0
136 155 0
132 152 0
149 169 0
143 163 0
144 164 0
139 158 0
141 159 0
138 157 0
130 147 0
147 167 0
146 164 0
148 168 0
144 162 0
135 155 0
140 158 0
139 158 0
143 164 0
147 167 0
147 165 0
147 166 0
141 159 0
153 174 0
146 164 0
148 167 0
143 161 0
145 164 0
146 166 0
147 168 0
146 166 0
151 170 0
147 166 0
152 171 0
141 158 0
144 163 0
149 167 0
149 168 0
148 169 0
150 170 0
145 166 0
153 172 0
145 164 0
149 169 0
152 170 0
152 171 0
156 177 0
148 166 0
156 175 0
150 171 0
152 169 0
157 177 0
153 172 0
154 173 0
154 172 0
158 177 0
155 171 0
161 181 0
160 180 0
157 178 0
151 170 0
156 174 0
155 174 0
153 175 0
153 174 0
153 171 0
163 183 0
157 176 0
154 172 0
160 180 0
155 175 0
152 170 0
158 176 0
158 179 0
150 170 0
157 177 0
157 177 0
161 181 0
155 176 0
163 183 0
152 170 0
154 174 0
156 175 0
158 177 0
160 182 0
161 181 0
156 176 0
160 180 0
158 176 0
159 179 0
161 182 0
159 177 0
162 182 0
160 180 0
159 179 0
158 179 0
157 178 0
160 181 0
166 187 0
157 177 0
160 180 0
159 179 0
163 183 0
164 183 0
161 180 0
164 183 0
163 183 0
161 181 0
163 182 0
163 182 0
162 183 0
164 185 0
163 184 0
164 184 0
168 188 0
165 187 0
163 183 0
164 184 0
165 184 0
163 183 0
155 172 0
160 180 0
164 186 0
165 187 0
165 187 0
165 184 0
157 178 0
164 185 0
165 185 0
162 184 0
166 186 0
163 183 0
161 181 0
165 186 0
164 184 0
162 182 0
167 188 0
168 189 0
174 197 88
172 196 99
171 194 105
174 197 88
173 196 88
171 194 99
168 191 80
174 198 95
176 198 84
172 196 88
174 198 80
170 194 111
171 193 80
175 198 102
175 198 92
170 194 80
168 193 84
171 194 99
169 193 105
174 196 111
170 194 88
171 195 99
165 188 95
173 196 99
175 199 122
169 193 95
171 194 111
171 195 114
167 191 95
173 197 120
173 196 88
163 186 92
170 193 117
170 192 84
170 193 88
173 196 111
172 195 111
175 198 114
171 194 99
169 192 92
165 189 92
170 194 105
165 188 95
164 188 102
170 192 125
165 188 117
159 183 88
170 193 105
158 180 80
166 190 105
171 195 105
168 191 102
163 187 90
163 186 108
160 183 95
163 186 95
160 182 88
164 186 107
164 187 88
160 182 78
171 194 125
164 187 102
159 182 113
160 182 92
159 182 103
162 185 102
166 189 72
167 191 88
162 184 86
161 184 95
160 183 80
158 180 88
163 186 92
149 171 76
158 180 117
158 180 99
159 181 84
156 178 84
157 179 99
155 176 88
159 181 99
158 179 72
163 184 99
152 174 105
155 177 99
148 170 84
158 179 120
150 171 105
152 172 88
146 167 111
155 175 95
153 173 88
143 161 92
145 165 92
146 166 92
156 175 120
137 156 99
130 150 80
142 162 80
146 166 102
138 158 84
138 156 72
134 153 92
137 155 67
133 151 80
127 145 62
137 156 86
123 140 80
111 128 88
112 130 65
97 117 78
108 128 90
113 132 94
81 104 84
101 124 111
89 112 111
93 116 97
93 117 108
101 125 113
97 121 113
109 131 124
79 104 99
91 115 110
90 115 107
109 130 113
107 129 105
98 122 88
114 133 102
116 137 94
109 131 100
119 139 103
102 124 94
108 130 100
122 141 80
117 137 84
114 134 82
112 132 84
101 121 99
113 136 97
111 132 89
100 121 82
105 126 86
108 127 78
98 119 88
95 115 72
99 121 78
92 113 70
83 106 80
87 110 78
75 100 74
75 97 70
82 103 65
69 95 76
60 87 86
64 91 74
63 91 76
54 84 76
52 82 82
64 91 72
60 90 86
57 86 80
55 87 78
55 85 82
52 83 78
53 84 86
54 86 100
53 85 90
52 84 82
51 82 80
53 84 86
51 81 80
53 84 88
53 84 88
53 84 92
51 82 83
53 84 84
52 83 74
53 84 92
53 84 90
53 84 82
52 83 82
52 84 86
53 84 80
54 86 87
52 83 90
53 84 80
51 82 88
53 85 82
52 83 80
52 82 76
51 81 86
53 84 76
52 83 86
51 81 78
52 83 92
55 84 80
50 75 60
69 92 76
69 88 51
77 95 47
83 99 36
78 94 0
95 109 0
82 98 0
98 113 0
90 105 0
98 114 0
93 108 0
98 113 0
94 108 0
89 104 0
107 123 0
85 101 0
100 114 0
98 115 0
97 110 0
106 121 0
101 118 0
105 123 0
112 130 0
113 131 0
112 129 0
106 123 0
108 126 0
112 129 0
106 122 0
115 131 0
108 125 0
119 135 0
114 132 0
118 136 0
117 136 0
123 142 0
109 126 0
118 134 0
106 122 0
123 141 0
125 142 0
128 145 0
139 157 0
129 148 0
132 149 0
131 149 0
113 130 0
124 141 0
119 138 0
127 146 0
127 145 0
130 149 0
134 152 0
141 159 0
140 158 0
134 155 0
126 145 0
131 149 0
134 152 0
128 145 0
129 148 0
133 149 0
127 143 0
137 156 0
141 160 0
139 158 0
140 160 0
134 153 0
147 166 0
149 167 0
142 161 0
130 147 0
145 165 0
142 159 0
145 165 0
141 160 0
147 165 0
141 160 0
145 164 0
141 160 0
145 161 0
146 165 0
147 165 0
147 166 0
138 157 0
147 167 0
147 166 0
138 159 0
145 164 0
148 166 0
142 162 0
145 166 0
148 167 0
144 162 0
140 158 0
149 168 0
145 164 0
152 172 0
150 169 0
144 163 0
139 157 0
153 168 0
153 171 0
150 170 0
154 173 0
152 169 0
144 164 0
158 180 0
161 182 0
149 169 0
153 171 0
155 173 0
149 167 0
151 168 0
148 167 0
156 174 0
155 174 0
156 173 0
153 173 0
154 174 0
148 167 0
150 168 0
152 171 0
148 164 0
156 176 0
153 172 0
151 169 0
159 180 0
150 166 0
160 179 0
155 174 0
156 174 0
155 176 0
156 176 0
154 173 0
156 174 0
160 180 0
155 175 0
153 172 0
155 176 0
155 176 0
160 180 0
154 175 0
159 179 0
161 180 0
159 179 0
158 178 0
164 183 0
160 180 0
156 175 0
165 185 0
162 181 0
153 173 0
160 180 0
158 177 0
162 184 0
154 172 0
159 179 0
164 183 0
156 175 0
159 179 0
161 180 0
162 183 0
160 180 0
161 181 0
162 183 0
162 180 0
161 183 0
164 184 0
159 177 0
166 187 0
164 184 0
161 180 0
163 184 0
163 183 0
164 185 0
161 181 0
164 184 0
160 181 0
165 186 0
161 179 0
163 185 0
167 188 0
161 182 0
171 192 0
160 181 0
168 190 0
163 182 0
164 185 0
165 186 0
169 190 0
161 183 0
165 185 0
158 178 0
165 185 0
162 183 0
163 184 0
166 186 0
161 180 0
161 183 0
169 190 0
168 189 0
163 184 0
172 196 76
169 193 88
167 190 51
174 197 80
169 192 76
174 198 105
175 198 102
172 196 80
170 193 95
173 196 95
174 198 95
168 193 80
170 192 102
170 193 88
170 194 99
168 192 88
171 194 80
173 196 105
173 196 108
170 194 108
172 195 105
166 190 88
168 190 111
167 191 76
170 193 95
173 196 84
173 196 88
169 192 88
172 195 95
170 193 80
166 189 88
172 196 92
172 195 108
172 196 80
170 193 102
171 194 111
168 192 99
166 189 105
167 191 99
164 187 76
167 191 105
172 195 117
166 189 80
164 189 105
170 194 105
169 192 92
161 184 84
170 194 102
172 195 125
161 184 94
167 191 102
160 183 84
160 184 92
162 186 80
159 181 95
165 187 88
160 183 88
162 185 88
169 192 92
163 186 99
161 185 105
158 181 99
160 183 111
164 186 105
165 188 102
161 184 108
156 179 99
167 191 99
160 183 92
157 180 95
163 186 117
157 179 84
163 185 103
153 175 84
155 177 84
154 176 92
155 177 102
154 176 84
157 179 76
161 183 108
147 168 62
154 176 92
149 169 111
152 172 105
160 181 105
147 167 95
153 175 88
153 174 99
156 177 95
156 176 95
156 177 95
139 160 84
156 176 102
148 167 92
142 162 99
144 163 99
139 158 95
150 170 76
141 161 88
134 153 84
147 165 99
133 151 92
138 157 99
140 159 99
136 155 99
128 146 76
123 141 62
108 126 51
117 136 70
115 131 95
121 141 94
105 125 94
110 129 82
92 114 82
81 103 68
84 108 84
90 112 92
96 120 113
102 125 115
107 128 117
103 126 95
78 104 100
102 125 103
98 120 115
96 117 80
103 125 117
106 128 108
107 127 80
103 125 92
101 124 107
108 129 78
110 131 88
116 136 90
109 131 94
118 139 84
117 134 76
111 129 74
121 140 78
107 126 80
102 124 82
111 132 72
104 125 72
105 125 62
100 122 84
97 117 78
89 112 70
91 113 62
84 105 78
86 109 72
89 110 70
90 109 57
98 118 62
90 109 65
77 99 67
76 99 67
76 98 47
73 98 80
61 86 51
52 81 67
60 87 76
59 87 72
56 84 67
50 80 62
54 85 84
52 83 84
50 80 76
52 82 88
54 85 84
54 86 95
54 85 97
52 82 84
52 84 84
54 85 95
54 86 100
50 80 72
52 83 80
53 85 92
51 82 67
54 85 90
54 85 88
54 85 92
52 82 88
52 83 84
54 86 84
52 83 95
50 79 74
52 83 84
54 85 82
52 82 70
50 80 76
53 82 86
58 87 70
66 88 72
65 87 47
80 98 47
99 117 44
71 88 36
87 102 18
94 107 0
88 102 0
86 101 0
92 107 0
93 107 0
87 100 0
85 100 0
87 102 0
92 107 0
91 106 0
103 118 0
103 119 0
108 122 0
103 119 0
87 104 0
97 112 0
92 108 0
102 118 0
101 117 0
98 115 0
115 133 0
122 139 0
112 130 0
99 115 0
104 122 0
111 127 0
102 119 0
119 137 0
109 126 0
117 135 0
109 129 0
126 144 0
116 132 0
133 150 0
109 126 0
129 146 0
123 140 0
121 138 0
127 145 0
112 130 0
118 136 0
123 140 0
129 147 0
117 134 0
124 143 0
127 143 0
130 148 0
134 151 0
120 138 0
126 146 0
127 146 0
125 143 0
138 155 0
139 157 0
126 145 0
131 147 0
139 159 0
134 153 0
141 161 0
134 152 0
133 152 0
129 147 0
136 153 0
133 153 0
138 158 0
133 152 0
141 161 0
137 155 0
144 162 0
139 157 0
138 157 0
134 152 0
138 157 0
141 160 0
138 158 0
149 169 0
136 154 0
134 154 0
141 159 0
139 159 0
143 162 0
140 158 0
145 164 0
144 163 0
145 163 0
147 168 0
151 171 0
146 165 0
137 156 0
153 172 0
145 165 0
146 165 0
147 166 0
140 158 0
147 165 0
149 166 0
155 175 0
155 174 0
151 172 0
142 161 0
153 172 0
143 163 0
144 164 0
156 176 0
147 166 0
149 169 0
155 173 0
145 165 0
161 181 0
147 166 0
153 173 0
148 166 0
155 174 0
152 171 0
152 171 0
155 172 0
155 175 0
152 172 0
147 167 0
152 171 0
157 179 0
153 172 0
156 177 0
153 174 0
153 172 0
161 183 0
154 175 0
157 177 0
162 182 0
155 174 0
157 174 0
160 180 0
156 175 0
155 173 0
156 174 0
160 177 0
153 172 0
161 180 0
157 176 0
158 177 0
160 180 0
158 177 0
164 184 0
159 178 0
156 175 0
151 168 0
159 176 0
162 183 0
161 180 0
155 173 0
157 177 0
158 178 0
160 178 0
161 181 0
152 171 0
158 178 0
162 182 0
160 181 0
161 180 0
160 179 0
161 180 0
162 182 0
159 180 0
163 184 0
162 183 0
163 185 0
160 181 0
162 180 0
160 180 0
159 180 0
158 179 0
163 184 0
158 178 0
162 182 0
163 183 0
161 180 0
161 181 0
164 183 0
162 183 0
164 185 0
161 181 0
165 185 0
161 183 0
165 185 0
163 183 0
161 181 0
167 187 0
168 188 0
166 186 0
167 188 0
168 189 0
167 190 0
168 187 0
167 188 0
165 187 0
163 182 0
162 182 0
165 187 0
165 186 0
165 188 0
169 190 0
162 182 0
175 199 108
173 197 88
168 193 102
170 194 72
167 191 88
169 193 80
173 197 108
170 193 76
177 201 99
170 193 80
172 195 105
172 196 92
172 196 76
172 194 95
172 195 92
172 195 102
167 190 88
168 191 76
172 195 105
167 190 105
167 190 80
171 194 95
173 196 95
170 194 92
173 196 108
169 193 102
167 191 99
169 192 99
171 194 108
166 190 84
167 190 95
170 193 84
170 192 92
169 193 105
165 188 92
167 191 92
166 189 95
164 187 99
172 194 114
166 190 95
162 184 99
174 197 114
168 192 80
162 185 76
171 194 111
169 193 99
173 197 99
169 193 102
166 189 111
167 190 114
165 188 115
162 186 99
166 189 80
165 188 103
162 185 114
162 185 88
163 187 94
162 185 90
162 185 95
151 174 92
168 190 105
168 191 99
154 177 84
160 183 105
166 188 100
158 182 105
159 181 88
159 182 102
155 177 88
165 188 86
159 181 111
156 178 95
159 181 84
164 186 105
160 181 95
150 172 108
155 177 99
157 179 84
155 177 108
148 169 80
162 183 114
158 179 108
158 179 99
156 177 108
150 171 92
142 163 99
155 176 92
150 171 80
155 176 95
156 176 105
138 158 88
146 166 76
146 167 102
149 168 88
148 168 99
154 174 95
141 161 84
147 166 76
133 152 84
138 158 67
141 159 76
122 140 88
131 150 57
138 157 67
139 157 105
121 140 72
129 147 95
121 138 80
119 136 76
118 136 67
118 136 72
102 119 62
98 117 72
118 136 90
119 137 116
103 123 92
102 123 97
109 130 115
90 114 111
89 113 102
94 117 107
92 116 110
95 119 94
104 126 100
100 123 107
99 121 80
108 130 109
104 125 76
108 129 105
122 142 93
112 133 80
116 134 78
110 130 76
107 129 78
116 133 92
115 135 79
120 140 80
110 128 67
111 131 70
118 139 62
112 132 74
116 137 57
98 119 76
95 115 76
108 127 57
97 118 74
98 118 60
93 113 65
94 112 62
100 122 76
100 121 65
97 117 60
79 100 57
91 109 57
88 108 62
88 107 44
87 107 44
89 106 25
87 105 44
88 108 44
68 91 57
77 98 65
65 88 54
55 80 65
52 81 74
54 83 76
54 85 78
50 81 65
51 81 76
51 81 84
52 83 90
49 78 78
51 82 70
53 83 80
51 81 72
52 82 94
52 83 78
52 83 86
50 80 84
50 81 74
48 77 76
51 82 80
52 82 78
59 89 82
54 83 80
58 86 67
60 86 76
61 83 47
80 101 72
72 90 40
79 96 0
89 106 36
80 95 25
84 98 31
88 102 18
89 105 0
91 106 0
87 101 0
92 107 0
101 116 0
98 113 0
97 113 0
100 115 0
96 111 0
95 111 0
94 109 0
98 114 0
94 110 0
103 119 0
100 116 0
96 111 0
110 127 0
106 123 0
112 128 0
106 122 0
113 129 0
107 124 0
105 122 0
116 132 0
109 124 0
108 123 0
112 130 0
114 131 0
116 134 0
111 128 0
112 129 0
114 131 0
120 138 0
113 130 0
120 139 0
122 140 0
116 134 0
114 131 0
128 145 0
121 138 0
128 146 0
120 138 0
127 144 0
120 136 0
130 149 0
127 145 0
144 162 0
123 140 0
124 142 0
131 150 0
125 144 0
131 148 0
117 135 0
128 145 0
132 151 0
134 152 0
132 152 0
135 154 0
126 144 0
134 151 0
134 151 0
139 157 0
136 155 0
126 145 0
141 161 0
140 158 0
125 143 0
140 159 0
137 156 0
140 158 0
145 164 0
142 161 0
142 158 0
139 159 0
138 158 0
149 167 0
142 162 0
139 157 0
144 163 0
141 160 0
137 155 0
145 164 0
137 156 0
141 160 0
138 155 0
140 159 0
152 174 0
144 164 0
141 158 0
153 172 0
149 169 0
146 167 0
149 168 0
141 158 0
148 166 0
148 166 0
147 166 0
148 168 0
151 170 0
142 162 0
151 172 0
148 166 0
152 171 0
148 165 0
159 178 0
150 167 0
154 174 0
150 171 0
148 168 0
157 177 0
149 170 0
157 176 0
147 166 0
150 168 0
154 173 0
154 174 0
157 177 0
155 176 0
160 181 0
156 175 0
154 173 0
159 179 0
157 175 0
146 164 0
145 164 0
159 178 0
158 178 0
155 174 0
150 168 0
151 170 0
160 179 0
157 176 0
163 183 0
157 178 0
158 177 0
161 181 0
158 178 0
153 172 0
155 174 0
157 174 0
155 175 0
164 184 0
158 177 0
159 178 0
157 177 0
158 178 0
159 178 0
161 180 0
157 176 0
159 180 0
160 179 0
156 178 0
158 178 0
157 176 0
163 183 0
162 184 0
163 185 0
157 175 0
160 180 0
164 182 0
163 184 0
163 183 0
161 182 0
161 181 0
162 184 0
162 183 0
165 183 0
169 189 0
160 180 0
160 180 0
163 183 0
167 187 0
160 179 0
160 183 0
165 185 0
159 178 0
161 181 0
163 183 0
165 185 0
163 184 0
164 183 0
161 182 0
166 184 0
167 188 0
165 186 0
166 186 0
163 185 0
164 185 0
162 183 0
166 186 0
167 187 0
167 189 0
161 182 0
169 189 0
169 190 0
164 184 0
168 190 0
162 183 0
164 185 0
164 185 0
168 189 0
164 185 0
162 182 0
166 187 0
165 184 0
171 194 84
173 195 84
170 194 76
173 196 95
169 192 92
173 195 99
171 194 102
171 195 80
170 193 88
168 192 80
170 193 102
175 198 108
169 193 76
172 196 84
170 194 72
170 193 80
170 195 102
173 196 95
170 193 88
172 196 92
172 195 111
164 187 84
176 200 114
165 188 95
165 187 80
172 195 84
168 192 80
168 191 76
168 191 92
172 196 99
173 196 99
169 193 88
171 194 111
169 192 92
170 194 108
163 186 92
164 189 92
164 187 88
168 191 62
169 192 105
170 194 95
169 193 80
164 188 99
164 187 105
164 187 99
165 188 102
166 189 111
164 187 80
164 187 92
167 190 95
162 185 105
163 187 117
154 177 80
162 185 78
164 187 99
164 188 90
158 182 92
163 185 105
160 183 72
160 183 108
157 179 95
163 186 95
168 191 108
162 185 111
161 184 99
159 182 95
158 181 102
162 185 111
155 177 95
161 184 111
166 189 108
160 183 84
161 183 95
157 179 92
160 182 99
164 185 114
146 168 108
160 182 111
162 184 95
154 176 111
153 175 88
157 179 76
165 187 111
154 176 80
153 174 95
155 175 88
154 176 92
149 170 88
151 172 76
146 166 102
152 172 72
147 168 99
142 163 99
143 163 67
147 167 105
141 159 108
146 166 102
152 171 99
140 161 80
143 161 92
141 159 88
131 149 57
134 152 95
140 158 105
126 145 62
137 156 80
130 147 88
128 145 95
133 150 88
113 129 70
124 140 88
116 132 82
104 122 74
109 126 88
119 139 92
103 122 78
109 129 94
90 112 97
101 122 95
89 111 75
99 121 121
104 126 113
87 110 90
99 123 113
103 126 107
112 133 86
105 128 70
111 134 94
109 128 110
110 130 94
112 133 95
110 129 67
110 132 90
119 139 94
111 131 60
110 130 82
115 133 76
113 134 65
112 131 70
120 139 76
100 122 76
117 137 67
108 128 70
101 123 70
107 128 62
110 130 65
109 129 70
105 127 55
100 119 57
98 118 51
88 108 62
89 109 57
97 117 62
95 113 51
91 109 47
89 106 31
91 109 40
98 114 25
103 120 25
85 100 18
91 106 25
76 92 31
87 105 25
74 89 25
95 112 25
64 85 31
77 94 44
73 94 44
68 90 40
78 98 57
65 88 57
67 89 51
72 94 60
75 99 70
61 83 44
68 90 67
71 92 54
79 97 25
67 90 65
74 93 31
74 95 54
74 94 54
72 89 25
79 95 18
54 73 44
81 97 31
80 95 25
91 107 0
91 106 18
99 114 0
77 91 0
106 120 0
105 119 0
88 102 0
93 109 0
90 104 0
95 111 0
110 127 0
76 90 0
102 116 0
84 100 0
94 108 0
99 115 0
102 119 0
101 117 0
97 112 0
97 111 0
68 85 0
102 116 0
99 116 0
107 123 0
104 121 0
113 128 0
99 115 0
97 113 0
116 133 0
103 119 0
112 128 0
111 128 0
105 122 0
115 133 0
114 131 0
112 129 0
110 127 0
111 128 0
128 146 0
122 141 0
115 133 0
120 138 0
112 128 0
123 139 0
117 135 0
117 131 0
113 131 0
116 134 0
120 139 0
122 139 0
133 153 0
123 142 0
139 157 0
130 147 0
133 152 0
124 142 0
129 148 0
125 143 0
125 142 0
135 154 0
138 157 0
126 146 0
132 151 0
137 155 0
119 137 0
145 165 0
136 155 0
128 146 0
150 171 0
133 153 0
132 151 0
139 159 0
139 159 0
137 155 0
137 155 0
143 163 0
145 164 0
136 156 0
143 162 0
136 155 0
146 165 0
144 163 0
142 162 0
141 160 0
136 154 0
132 150 0
149 168 0
137 156 0
145 162 0
143 164 0
146 163 0
141 161 0
145 165 0
147 165 0
143 164 0
150 170 0
145 165 0
146 165 0
143 161 0
149 169 0
147 165 0
153 172 0
150 170 0
150 168 0
147 167 0
153 173 0
149 168 0
153 173 0
146 166 0
154 175 0
149 168 0
147 166 0
156 175 0
153 172 0
149 168 0
150 170 0
152 169 0
148 168 0
150 172 0
145 163 0
153 173 0
144 164 0
155 175 0
149 169 0
152 172 0
154 173 0
153 172 0
155 175 0
156 176 0
153 172 0
148 167 0
155 174 0
156 177 0
150 169 0
152 172 0
158 178 0
156 176 0
160 179 0
154 175 0
156 175 0
149 170 0
156 177 0
155 174 0
153 172 0
158 180 0
155 176 0
161 183 0
147 166 0
150 170 0
158 178 0
161 182 0
161 180 0
154 174 0
158 178 0
158 178 0
166 187 0
155 172 0
159 178 0
158 180 0
160 179 0
158 177 0
164 184 0
159 180 0
163 184 0
164 184 0
162 181 0
164 185 0
156 176 0
159 178 0
161 181 0
162 179 0
159 178 0
162 183 0
161 181 0
157 177 0
158 178 0
162 184 0
161 181 0
159 178 0
155 174 0
159 181 0
162 181 0
160 181 0
161 182 0
161 182 0
158 178 0
162 184 0
163 184 0
164 186 0
164 184 0
162 183 0
165 186 0
164 184 0
162 183 0
159 181 0
167 187 0
160 180 0
159 179 0
163 184 0
165 185 0
165 189 0
164 185 0
165 186 0
166 186 0
161 182 0
167 188 0
167 188 0
167 187 0
169 192 0
167 187 0
163 183 0
165 186 0
168 189 0
173 196 88
167 191 67
170 193 84
168 193 72
175 198 76
169 192 99
178 200 108
169 192 84
171 194 95
174 196 92
169 192 72
177 201 114
167 191 72
167 191 80
167 191 102
170 192 88
174 197 102
170 194 92
173 195 105
173 197 84
174 197 105
174 197 99
171 194 84
168 191 88
169 192 102
169 192 92
167 190 111
170 193 88
171 194 80
173 195 108
174 198 99
168 191 88
164 188 95
165 189 95
164 188 80
170 194 108
168 192 92
169 191 95
167 190 111
162 185 105
164 186 92
165 188 92
165 189 88
170 192 80
165 188 92
168 191 117
164 188 120
166 190 92
165 188 102
166 189 86
170 194 102
163 185 100
161 184 102
164 187 94
162 186 88
169 192 95
158 181 95
161 184 76
163 187 99
163 186 99
160 183 80
165 188 92
154 177 94
159 182 92
162 185 105
156 178 108
160 182 92
158 181 76
161 184 80
157 180 86
163 186 97
160 182 113
158 179 84
154 175 84
160 182 99
162 183 102
159 181 84
157 180 72
157 178 88
156 178 102
164 185 108
152 174 92
155 177 117
161 183 95
159 180 105
157 178 84
145 165 102
162 183 117
168 188 105
162 182 105
149 170 108
144 165 72
139 160 62
150 170 102
135 155 57
151 171 99
147 167 84
129 149 76
152 172 99
142 159 102
133 153 67
142 161 67
132 151 84
124 142 84
135 154 80
135 154 92
129 146 84
120 136 80
113 131 62
133 150 80
119 137 72
118 134 67
118 136 70
119 136 51
101 119 62
101 119 74
88 107 80
107 126 80
105 126 100
110 128 103
90 112 84
104 127 92
102 125 111
105 126 99
100 122 88
104 126 80
106 127 86
116 135 90
105 127 86
113 133 72
118 138 70
107 126 72
119 138 76
122 138 60
117 137 51
122 142 78
117 135 57
116 137 80
123 144 62
117 135 67
119 138 62
117 137 51
110 129 57
97 118 60
116 136 76
106 125 40
99 118 62
85 105 60
96 115 67
92 113 54
102 120 36
96 115 47
105 124 36
90 110 40
93 111 25
95 110 31
100 117 25
76 92 25
97 111 0
78 93 0
87 102 0
80 95 0
87 102 0
82 96 0
75 89 0
83 95 18
86 100 0
80 95 0
92 107 0
97 112 0
86 101 18
84 99 18
67 81 0
78 94 25
92 108 25
87 103 36
84 99 25
83 98 31
83 98 18
82 97 0
79 94 0
91 106 0
78 92 18
71 85 0
97 112 0
98 112 0
95 110 0
96 110 0
98 112 0
89 103 0
85 100 0
84 99 0
97 112 0
82 97 0
103 118 0
89 104 0
89 104 0
78 92 0
96 111 0
94 109 0
105 120 0
96 113 0
104 121 0
113 130 0
106 123 0
92 108 0
104 120 0
102 117 0
100 118 0
104 121 0
109 126 0
110 127 0
97 112 0
98 114 0
107 123 0
119 136 0
114 129 0
107 123 0
115 131 0
107 125 0
121 139 0
116 133 0
116 134 0
108 125 0
112 130 0
125 143 0
117 134 0
122 141 0
122 140 0
119 136 0
133 153 0
123 142 0
130 149 0
122 140 0
118 135 0
114 130 0
123 142 0
139 157 0
123 142 0
126 146 0
121 139 0
128 147 0
139 158 0
125 142 0
132 152 0
137 157 0
133 152 0
133 151 0
130 148 0
128 146 0
133 150 0
132 151 0
139 158 0
132 151 0
134 153 0
133 153 0
141 160 0
129 148 0
134 150 0
138 158 0
143 163 0
141 161 0
150 170 0
138 157 0
134 153 0
133 153 0
141 160 0
141 158 0
145 165 0
134 155 0
138 158 0
140 159 0
143 163 0
135 153 0
144 164 0
144 165 0
149 168 0
143 160 0
151 171 0
150 170 0
140 159 0
144 164 0
150 169 0
142 161 0
149 169 0
143 164 0
152 172 0
145 161 0
148 166 0
154 174 0
151 170 0
149 167 0
145 163 0
146 167 0
147 166 0
156 176 0
155 175 0
148 168 0
153 173 0
154 174 0
152 169 0
149 170 0
160 180 0
155 174 0
155 174 0
150 168 0
146 166 0
158 177 0
149 170 0
152 172 0
152 171 0
147 167 0
155 174 0
153 175 0
154 172 0
154 174 0
159 178 0
151 169 0
159 178 0
156 176 0
152 172 0
157 177 0
149 169 0
158 180 0
152 174 0
157 176 0
153 174 0
161 183 0
160 181 0
152 169 0
154 174 0
157 177 0
159 179 0
156 177 0
157 175 0
160 181 0
160 181 0
156 176 0
153 175 0
157 175 0
165 185 0
159 179 0
156 175 0
159 179 0
160 183 0
161 182 0
156 176 0
158 177 0
156 176 0
158 176 0
163 184 0
159 177 0
163 184 0
162 182 0
163 184 0
154 174 0
160 180 0
164 185 0
163 185 0
161 180 0
161 181 0
163 184 0
162 183 0
162 182 0
157 177 0
163 183 0
159 180 0
163 184 0
160 179 0
161 182 0
161 180 0
165 187 0
164 184 0
159 179 0
159 179 0
165 185 0
158 177 0
164 184 0
164 184 0
156 176 0
163 183 0
163 182 0
166 188 0
167 188 0
161 182 0
168 190 0
166 187 0
163 184 0
167 186 0
166 187 0
162 183 0
163 183 0
165 187 0
166 186 0
169 192 0
163 183 0
167 189 0
168 191 0
163 183 0
165 187 0
172 196 80
171 194 62
174 198 99
172 195 99
171 195 95
173 197 95
175 197 92
172 194 92
176 199 92
176 199 114
170 193 95
173 197 105
174 197 111
171 194 102
168 191 92
175 198 122
176 199 117
170 194 62
175 199 108
169 192 108
171 194 84
168 192 88
172 196 99
163 187 62
173 197 99
170 193 92
172 196 102
168 191 102
175 198 105
166 189 92
173 197 92
165 188 88
173 196 120
170 193 92
167 191 114
171 195 102
172 195 99
165 189 105
174 197 102
165 188 92
163 187 92
170 193 117
165 189 80
161 184 92
164 187 80
163 185 92
171 194 102
160 183 80
165 188 88
162 184 99
163 186 88
165 189 102
167 189 108
164 187 128
166 189 102
166 190 108
163 187 114
159 182 114
158 181 115
158 181 72
159 182 105
154 177 67
162 185 88
154 176 78
162 185 102
158 181 99
159 181 102
162 186 107
159 182 92
159 181 95
163 186 111
158 180 72
147 169 84
163 185 111
156 179 92
155 177 105
159 181 80
157 178 99
157 179 99
160 182 95
156 177 84
148 170 99
146 167 92
148 170 84
146 168 67
160 182 108
157 178 92
164 186 117
152 173 105
158 178 105
154 175 95
149 169 99
147 167 99
147 166 105
143 163 99
152 171 108
148 167 95
141 161 88
148 166 117
145 164 99
140 159 80
138 156 95
142 160 95
135 155 72
129 146 84
142 161 84
135 153 76
138 156 88
123 139 88
115 131 84
118 133 92
122 139 51
130 148 80
116 132 67
105 122 74
108 123 78
109 128 72
105 125 95
107 127 65
112 130 102
103 123 95
103 124 95
95 117 95
95 116 90
115 134 102
104 124 92
101 121 78
119 137 90
113 132 78
135 155 95
116 135 78
117 137 82
117 137 76
121 139 54
110 130 51
122 140 44
129 148 62
115 131 62
124 142 60
120 141 60
118 135 47
111 130 42
118 136 44
109 128 54
94 114 65
105 124 51
101 119 62
97 115 36
114 133 40
108 126 47
109 127 25
109 127 36
102 120 36
103 121 0
104 121 47
90 107 36
114 130 18
96 112 0
104 120 0
89 105 0
93 108 0
97 113 0
88 103 0
97 111 0
89 104 0
87 102 0
105 118 0
97 110 0
82 97 0
73 86 0
85 99 0
82 96 0
101 116 0
88 102 0
79 93 0
85 99 0
86 101 0
92 107 0
91 105 0
96 110 0
93 108 0
88 103 0
89 105 0
98 111 0
90 104 0
82 96 0
92 107 0
86 100 0
94 109 0
77 91 0
80 95 0
78 93 0
77 93 0
91 107 0
95 110 0
91 106 0
87 100 0
101 117 0
107 122 0
98 113 0
95 110 0
94 109 0
96 112 0
93 109 0
106 123 0
93 109 0
112 129 0
102 119 0
107 123 0
107 123 0
104 122 0
102 118 0
108 124 0
117 135 0
94 110 0
107 124 0
117 134 0
114 129 0
111 126 0
108 124 0
118 135 0
116 133 0
118 135 0
114 132 0
122 140 0
112 130 0
117 135 0
114 131 0
121 138 0
108 126 0
108 125 0
116 133 0
119 138 0
129 148 0
135 153 0
125 143 0
119 136 0
125 143 0
119 137 0
128 146 0
125 141 0
128 148 0
137 155 0
123 141 0
127 145 0
131 148 0
132 151 0
137 156 0
139 158 0
127 146 0
132 152 0
141 160 0
147 166 0
125 144 0
143 163 0
136 153 0
133 150 0
138 158 0
130 149 0
130 150 0
140 158 0
134 153 0
145 165 0
141 159 0
137 157 0
141 161 0
140 160 0
130 149 0
139 159 0
140 158 0
149 169 0
141 161 0
139 157 0
138 158 0
137 155 0
135 155 0
137 156 0
145 166 0
145 163 0
151 170 0
140 159 0
140 159 0
141 161 0
143 162 0
144 165 0
140 159 0
148 168 0
146 166 0
149 167 0
145 163 0
143 163 0
149 169 0
152 173 0
156 177 0
145 164 0
151 171 0
148 169 0
143 162 0
146 165 0
143 162 0
160 179 0
153 173 0
155 175 0
158 177 0
151 170 0
154 175 0
156 174 0
156 175 0
151 171 0
153 173 0
156 175 0
155 175 0
154 174 0
155 175 0
152 171 0
152 172 0
150 170 0
159 179 0
157 177 0
150 170 0
162 180 0
152 171 0
153 172 0
152 172 0
153 171 0
151 169 0
148 165 0
158 179 0
161 181 0
161 181 0
151 172 0
157 176 0
156 175 0
162 181 0
162 182 0
154 174 0
162 183 0
154 174 0
159 180 0
163 184 0
159 179 0
153 173 0
156 175 0
157 176 0
163 185 0
159 179 0
159 179 0
162 182 0
159 180 0
157 176 0
159 180 0
159 179 0
158 177 0
162 182 0
151 170 0
164 185 0
160 180 0
165 185 0
159 179 0
169 190 0
162 181 0
164 185 0
164 185 0
160 179 0
160 180 0
160 179 0
159 181 0
163 184 0
162 181 0
159 180 0
159 181 0
160 181 0
167 188 0
161 181 0
162 183 0
163 181 0
162 180 0
162 184 0
164 185 0
158 177 0
161 181 0
161 182 0
163 182 0
159 179 0
165 187 0
165 184 0
165 186 0
166 186 0
165 186 0
164 185 0
162 183 0
164 185 0
167 189 0
163 183 0
164 185 0
162 183 0
166 187 0
166 186 0
165 187 0
167 188 0
171 194 67
175 198 95
177 200 105
169 192 84
171 194 92
175 198 95
175 197 72
172 196 95
171 194 108
171 194 84
172 195 99
171 194 122
173 196 92
170 193 102
167 190 92
170 193 99
171 195 95
173 196 99
165 188 80
172 196 99
170 195 114
174 198 122
176 199 105
173 196 105
173 197 95
172 195 105
170 193 102
174 197 114
168 191 92
164 186 92
166 190 92
171 195 117
168 192 111
171 196 111
171 194 99
168 193 114
168 191 111
168 191 92
168 191 84
170 194 99
165 189 84
163 186 92
169 192 114
160 182 82
164 187 95
168 190 117
167 190 111
162 186 84
162 186 92
160 182 88
164 186 114
168 191 111
161 184 92
166 189 95
160 183 99
165 189 114
167 190 100
164 188 108
163 186 95
160 183 95
169 192 125
161 183 97
165 189 102
161 183 97
161 184 92
162 184 99
157 180 105
163 186 108
157 179 102
161 184 105
164 187 105
161 183 99
163 185 76
157 180 76
161 183 95
154 174 84
163 185 95
157 178 84
149 171 76
157 178 99
161 183 108
147 168 95
154 175 92
161 183 80
154 176 108
148 169 105
155 176 99
153 174 121
150 171 102
146 168 92
144 163 92
157 177 111
147 167 76
138 158 67
155 175 95
144 165 99
136 156 80
142 160 84
156 175 105
140 159 84
142 161 88
140 159 99
130 148 72
133 152 92
141 159 92
138 156 95
119 137 57
135 153 88
137 155 84
143 160 92
126 142 84
123 140 57
137 154 84
128 144 94
112 128 84
121 137 76
114 131 95
102 120 67
114 132 80
93 112 76
109 129 78
101 121 103
90 111 86
119 137 97
101 121 70
110 129 90
110 130 72
117 136 84
111 131 70
122 140 88
108 128 80
119 136 84
119 137 51
118 136 72
127 147 51
131 148 62
120 139 54
126 143 47
128 148 54
123 140 60
125 145 47
115 132 40
118 138 40
112 128 40
115 133 31
106 124 44
121 138 36
105 123 31
105 122 36
112 129 36
102 120 25
112 130 18
107 122 0
107 125 25
105 122 18
89 105 0
94 111 18
96 112 0
102 118 0
106 123 0
85 100 0
85 101 0
95 111 0
97 112 0
97 114 0
90 104 0
77 91 0
94 110 0
88 102 0
89 103 0
89 104 0
72 88 0
86 100 0
84 99 0
83 97 0
80 93 0
85 98 0
89 103 0
83 97 0
89 103 0
89 104 0
81 96 0
80 96 0
83 95 0
83 98 0
90 105 0
99 114 0
79 92 0
91 106 0
96 112 0
90 106 0
102 117 0
89 105 0
85 100 0
103 120 0
93 108 0
98 114 0
98 113 0
100 118 0
93 108 0
91 107 0
105 121 0
101 118 0
93 109 0
77 94 0
103 119 0
98 114 0
122 137 0
108 126 0
104 120 0
118 135 0
110 126 0
122 139 0
112 128 0
108 123 0
109 125 0
118 136 0
118 135 0
114 131 0
121 138 0
129 145 0
114 130 0
116 133 0
126 144 0
124 142 0
111 129 0
121 139 0
112 131 0
116 134 0
125 144 0
120 137 0
128 148 0
124 143 0
116 133 0
123 142 0
118 137 0
123 141 0
127 144 0
128 147 0
112 130 0
134 154 0
117 136 0
132 152 0
125 144 0
130 148 0
131 151 0
128 146 0
140 159 0
134 153 0
137 155 0
128 147 0
141 159 0
127 146 0
134 154 0
135 153 0
130 151 0
136 154 0
143 164 0
137 156 0
132 152 0
143 165 0
140 160 0
142 160 0
137 156 0
135 154 0
137 157 0
143 163 0
146 165 0
146 165 0
150 170 0
136 155 0
139 159 0
142 161 0
145 163 0
143 162 0
144 163 0
143 163 0
150 169 0
151 170 0
146 166 0
148 168 0
150 171 0
143 163 0
147 165 0
142 161 0
136 156 0
149 168 0
139 159 0
142 163 0
145 164 0
155 174 0
154 173 0
153 174 0
140 159 0
150 170 0
153 170 0
143 162 0
148 169 0
154 173 0
147 166 0
146 166 0
156 176 0
149 169 0
145 166 0
149 168 0
156 178 0
149 168 0
152 172 0
155 176 0
148 170 0
155 175 0
157 177 0
155 175 0
151 171 0
157 176 0
153 173 0
152 170 0
159 181 0
151 171 0
155 175 0
150 170 0
162 183 0
154 176 0
158 178 0
151 173 0
161 181 0
150 169 0
154 175 0
159 180 0
158 179 0
159 178 0
161 180 0
155 175 0
157 177 0
165 186 0
150 169 0
159 179 0
157 178 0
155 177 0
157 178 0
162 185 0
161 181 0
153 171 0
155 176 0
163 185 0
161 181 0
162 181 0
160 179 0
160 181 0
161 181 0
162 182 0
153 174 0
162 182 0
157 177 0
167 188 0
165 187 0
154 175 0
156 177 0
156 175 0
163 184 0
155 173 0
167 189 0
166 186 0
160 179 0
165 185 0
164 185 0
158 176 0
162 183 0
165 187 0
167 189 0
166 187 0
166 187 0
166 186 0
166 186 0
167 188 0
159 180 0
164 185 0
165 187 0
162 182 0
164 186 0
164 186 0
157 178 0
168 189 0
164 185 0
157 178 0
161 179 0
164 185 0
164 185 0
163 185 0
165 186 0
164 185 0
159 180 0
167 189 0
162 182 0
164 184 0
162 183 0
166 187 0
164 186 0
167 189 0
168 190 0
176 199 99
171 194 88
175 198 102
172 195 80
171 194 84
174 197 99
171 194 99
174 197 105
172 195 117
173 197 88
175 197 105
171 195 80
173 197 99
171 193 102
174 197 105
167 190 102
170 194 84
169 192 72
177 199 117
171 195 108
167 190 67
169 193 108
172 195 108
169 192 95
167 191 76
170 194 111
171 194 92
169 193 102
165 188 102
169 193 95
171 194 92
172 195 95
168 191 102
169 192 108
168 192 88
168 191 99
163 186 99
160 184 88
170 193 105
164 188 114
168 192 72
167 191 95
163 185 88
167 190 102
168 191 105
162 186 92
168 191 99
171 194 99
165 189 99
165 188 76
160 182 80
171 194 105
157 179 84
163 186 102
168 192 114
162 185 105
169 193 103
163 186 99
161 183 95
162 186 117
169 191 108
159 182 99
163 186 99
162 185 108
151 174 67
167 190 102
159 183 82
161 183 111
162 184 62
154 176 105
161 184 92
165 187 95
160 182 102
153 175 90
153 177 80
156 178 95
162 184 117
157 179 128
157 178 92
161 182 125
146 167 67
152 174 95
162 184 117
158 179 105
148 169 84
151 174 80
149 171 88
152 174 95
152 174 88
153 173 117
147 168 80
157 178 84
155 174 92
146 166 92
151 170 111
148 167 92
147 166 102
138 158 80
147 167 102
147 167 84
138 157 111
131 151 57
133 151 80
147 165 108
136 154 95
141 160 88
143 161 114
134 150 84
136 153 88
138 155 105
136 153 76
130 148 76
126 144 67
134 149 88
115 131 76
109 125 62
112 127 80
101 119 36
111 128 78
107 124 82
108 125 92
98 116 65
92 110 70
106 125 78
102 124 90
103 123 74
120 139 94
118 138 70
123 142 47
123 142 72
131 150 47
132 151 54
120 138 67
127 143 54
115 133 44
132 150 47
130 149 31
133 150 25
115 134 36
128 145 36
132 149 40
120 138 36
121 138 31
119 138 40
119 138 25
112 129 18
121 139 18
106 123 36
116 134 31
102 120 25
104 121 25
100 117 0
110 127 0
106 121 0
104 120 18
84 101 0
98 115 18
110 126 0
102 118 0
107 124 0
109 125 0
94 108 0
93 108 0
84 100 0
99 116 0
92 108 0
84 99 0
84 99 0
90 105 0
83 99 0
100 116 0
93 109 0
88 103 0
89 104 0
88 104 0
90 105 0
102 118 0
89 106 0
85 101 0
108 124 0
109 124 0
90 106 0
96 112 0
84 99 0
102 118 0
97 112 0
109 125 0
112 129 0
86 99 0
102 117 0
96 111 0
96 111 0
97 112 0
113 128 0
94 110 0
107 123 0
93 108 0
111 125 0
105 122 0
95 109 0
92 107 0
103 119 0
91 107 0
99 116 0
97 114 0
105 120 0
113 131 0
108 124 0
112 129 0
125 142 0
113 130 0
96 111 0
113 130 0
103 120 0
116 134 0
102 118 0
119 134 0
119 137 0
119 137 0
116 134 0
118 136 0
113 130 0
119 135 0
110 128 0
133 152 0
124 142 0
113 129 0
112 130 0
116 134 0
121 138 0
130 147 0
124 143 0
118 136 0
123 142 0
125 144 0
125 142 0
128 147 0
135 154 0
118 137 0
122 140 0
123 142 0
134 152 0
116 133 0
132 151 0
130 150 0
139 158 0
132 152 0
139 160 0
139 158 0
121 140 0
128 145 0
133 153 0
125 144 0
150 169 0
140 160 0
135 156 0
131 149 0
137 155 0
136 154 0
142 160 0
140 156 0
141 161 0
139 158 0
138 155 0
140 160 0
136 155 0
144 165 0
147 166 0
144 163 0
145 165 0
140 159 0
148 167 0
134 153 0
140 158 0
148 167 0
151 171 0
151 171 0
147 166 0
135 156 0
146 165 0
140 160 0
152 173 0
150 169 0
148 166 0
153 174 0
152 172 0
140 158 0
144 163 0
146 165 0
145 165 0
148 168 0
153 173 0
145 165 0
148 168 0
156 176 0
146 165 0
157 177 0
155 175 0
150 169 0
144 164 0
150 170 0
149 168 0
154 173 0
156 175 0
156 175 0
150 168 0
151 171 0
145 163 0
159 179 0
151 171 0
153 173 0
155 175 0
149 170 0
141 161 0
159 176 0
162 183 0
151 171 0
151 172 0
149 168 0
155 175 0
154 174 0
153 173 0
154 174 0
155 175 0
154 174 0
160 179 0
155 175 0
160 181 0
152 170 0
156 176 0
153 172 0
154 175 0
160 181 0
164 184 0
154 173 0
152 173 0
159 179 0
153 174 0
163 184 0
155 177 0
162 183 0
156 177 0
163 184 0
159 180 0
159 177 0
160 179 0
157 178 0
160 180 0
157 178 0
159 178 0
165 186 0
165 186 0
165 185 0
161 181 0
158 178 0
164 185 0
161 180 0
164 184 0
164 185 0
163 185 0
163 184 0
162 183 0
159 179 0
160 181 0
158 178 0
163 184 0
164 185 0
160 181 0
158 178 0
160 181 0
160 180 0
161 181 0
168 187 0
168 189 0
169 191 0
167 188 0
161 180 0
166 186 0
167 188 0
160 180 0
168 189 0
160 179 0
165 186 0
162 182 0
164 185 0
165 187 0
164 184 0
162 184 0
165 186 0
164 184 0
163 184 0
163 183 0
161 182 0
164 183 0
166 187 0
166 188 0
168 188 0
169 190 0
164 184 0
165 187 0
174 197 95
168 192 88
168 192 80
173 195 108
172 195 88
170 194 92
169 193 88
173 195 95
166 190 102
172 195 102
172 195 105
170 193 102
171 195 117
173 196 92
175 199 102
171 194 72
168 191 88
169 193 88
167 189 88
164 187 76
170 193 95
165 188 99
167 190 88
167 190 105
166 190 76
171 195 99
168 191 92
169 192 99
165 189 99
168 191 72
169 193 80
168 191 80
168 191 99
168 191 88
167 190 88
170 194 114
173 197 120
168 192 95
163 186 76
170 193 99
170 194 108
170 193 108
166 190 105
166 190 95
157 180 84
165 189 92
167 190 105
159 182 67
160 183 88
161 184 92
158 181 76
164 187 88
158 182 95
166 190 95
166 190 100
161 184 92
165 189 92
163 185 80
163 186 103
161 184 113
162 185 95
158 181 95
167 190 108
157 180 95
159 182 108
160 182 95
159 182 113
158 180 95
162 184 105
158 181 108
162 184 130
159 180 92
157 179 92
149 171 76
162 184 107
167 190 80
154 175 88
157 178 107
164 185 88
151 173 99
151 171 102
151 173 95
162 184 105
161 182 117
156 177 99
162 183 105
156 178 76
157 177 88
149 170 95
149 171 80
153 174 102
150 171 102
147 168 95
155 175 114
147 166 99
151 171 99
155 175 108
148 167 95
154 173 99
153 173 99
144 164 102
148 168 99
141 160 84
137 157 76
142 161 99
147 166 95
135 152 92
140 158 105
127 144 95
138 155 84
125 143 67
131 147 67
139 155 88
128 144 67
133 150 80
121 138 67
124 141 97
118 134 76
116 133 76
115 133 62
110 126 84
87 105 60
104 122 72
104 124 74
104 122 80
111 129 70
124 141 74
112 131 62
121 140 44
124 143 54
134 154 60
126 145 51
133 152 62
123 141 36
129 147 40
131 147 0
126 147 40
130 147 31
133 152 36
137 155 18
122 138 25
137 155 36
128 148 36
124 144 25
125 144 18
117 135 31
115 134 31
121 138 0
122 138 0
104 122 0
105 122 18
121 139 18
114 132 0
108 125 0
120 137 0
112 129 0
112 131 0
108 124 0
92 108 0
109 125 0
110 124 0
104 121 0
109 126 0
95 110 0
103 119 0
90 105 0
105 120 0
90 104 0
85 100 0
104 119 0
101 117 0
105 120 0
87 102 0
89 104 0
95 109 0
91 106 0
106 121 0
89 104 0
94 107 0
92 106 0
89 105 0
98 113 0
91 107 0
103 118 0
92 106 0
93 108 0
77 91 0
81 96 0
94 110 0
100 115 0
113 129 0
87 104 0
103 118 0
96 113 0
102 119 0
87 103 0
119 134 0
105 121 0
93 107 0
102 119 0
104 121 0
107 124 0
100 116 0
117 134 0
106 122 0
106 124 0
106 122 0
115 131 0
89 105 0
104 121 0
112 131 0
122 137 0
109 127 0
106 124 0
101 117 0
110 127 0
117 135 0
109 125 0
111 129 0
103 120 0
113 132 0
115 135 0
120 137 0
129 149 0
120 139 0
136 156 0
121 138 0
130 149 0
126 144 0
129 148 0
118 136 0
123 142 0
120 136 0
128 146 0
125 143 0
128 146 0
126 145 0
127 146 0
129 148 0
137 156 0
131 150 0
129 146 0
128 146 0
130 149 0
130 149 0
119 138 0
126 145 0
137 157 0
129 147 0
129 147 0
134 154 0
133 154 0
128 146 0
142 161 0
140 158 0
133 151 0
129 148 0
135 155 0
137 157 0
143 162 0
146 167 0
145 163 0
149 170 0
142 160 0
143 164 0
142 161 0
145 167 0
146 165 0
136 156 0
139 158 0
146 166 0
143 162 0
146 166 0
147 168 0
147 167 0
143 162 0
141 161 0
157 177 0
153 172 0
146 167 0
149 170 0
141 162 0
147 166 0
149 169 0
153 173 0
148 169 0
147 167 0
147 166 0
149 168 0
137 154 0
146 168 0
152 173 0
149 170 0
156 174 0
145 165 0
157 177 0
149 168 0
149 169 0
153 174 0
145 165 0
146 167 0
143 164 0
147 166 0
151 170 0
143 164 0
151 171 0
154 174 0
160 180 0
156 176 0
159 181 0
158 179 0
152 170 0
154 177 0
155 173 0
156 178 0
154 174 0
160 181 0
152 172 0
158 179 0
157 178 0
160 180 0
158 178 0
152 172 0
160 180 0
154 175 0
160 180 0
158 177 0
160 181 0
156 176 0
162 182 0
158 178 0
162 183 0
161 181 0
155 174 0
159 180 0
154 175 0
157 177 0
158 175 0
160 180 0
153 172 0
160 181 0
162 182 0
157 177 0
157 179 0
155 174 0
161 181 0
164 185 0
149 169 0
163 183 0
162 182 0
161 181 0
162 183 0
161 181 0
157 175 0
161 181 0
162 183 0
163 185 0
163 185 0
163 181 0
158 180 0
161 182 0
165 183 0
166 187 0
160 182 0
165 185 0
155 175 0
165 187 0
162 182 0
161 182 0
159 180 0
157 178 0
166 187 0
162 182 0
160 179 0
163 182 0
168 188 0
162 183 0
166 186 0
168 190 0
165 185 0
161 179 0
163 181 0
163 185 0
165 186 0
166 186 0
164 186 0
165 187 0
166 186 0
160 180 0
164 186 0
161 184 0
163 183 0
167 190 0
163 184 0
167 189 0
163 184 0
168 188 0
165 187 0
166 188 0
165 187 0
175 198 88
172 196 111
169 191 84
172 195 95
169 193 72
174 196 84
169 192 84
172 195 114
176 200 105
171 194 72
172 194 111
166 190 72
170 193 102
170 193 84
167 190 88
171 194 111
168 192 95
169 193 72
173 196 95
168 192 62
168 192 92
171 194 111
164 187 76
169 192 84
167 191 99
168 192 95
166 190 84
172 195 108
170 193 95
163 186 80
177 200 117
170 194 105
166 190 95
165 188 95
169 193 102
170 193 92
168 191 114
163 186 72
170 194 102
173 196 105
170 193 111
165 189 99
162 185 95
165 188 88
166 189 120
168 192 105
170 194 102
167 191 92
163 186 102
162 185 105
170 193 95
166 189 95
164 187 88
163 186 92
160 183 88
170 193 105
165 188 105
164 187 114
162 185 114
162 185 92
163 186 113
164 187 114
157 180 99
165 188 105
156 178 76
159 182 95
154 176 88
154 176 102
153 175 88
162 184 110
149 171 90
161 184 108
154 176 102
160 182 80
150 171 92
158 179 76
155 176 76
159 182 108
151 174 72
162 184 99
160 181 88
159 179 111
150 172 72
152 174 84
154 175 67
156 178 99
159 180 111
154 175 111
151 172 102
165 184 111
148 169 95
153 175 105
153 173 92
155 175 99
158 179 105
149 168 111
147 167 95
142 161 72
156 175 120
135 156 62
147 166 95
145 163 114
138 157 88
143 163 88
141 159 84
135 155 92
139 156 114
151 170 95
132 150 76
132 150 76
130 147 76
138 156 84
136 153 105
119 136 51
115 131 67
127 144 80
128 144 67
108 125 51
108 125 51
113 130 54
107 124 67
107 126 44
123 141 84
117 134 80
106 125 62
114 132 60
104 124 54
124 142 47
118 136 62
121 139 44
121 137 36
126 143 60
131 150 36
136 156 25
140 157 44
137 155 36
118 136 0
133 151 18
132 150 25
134 153 25
124 143 36
119 136 25
114 131 18
116 133 0
125 143 0
120 137 0
115 131 0
116 132 18
114 133 0
126 144 0
115 132 0
102 119 0
99 116 0
105 122 0
114 131 0
113 129 0
114 130 0
106 124 0
107 123 0
118 135 0
108 125 0
92 110 0
100 116 0
96 113 0
96 113 0
101 119 0
108 124 0
108 125 0
101 117 0
103 117 0
96 112 0
99 114 0
91 108 0
104 119 0
96 111 0
92 107 0
92 107 0
104 120 0
98 114 0
99 115 0
107 123 0
98 112 0
85 101 0
103 119 0
104 120 0
100 117 0
103 118 0
95 111 0
103 119 0
104 119 0
105 122 0
104 120 0
89 106 0
103 119 0
90 105 0
106 122 0
95 112 0
93 109 0
94 110 0
114 131 0
118 135 0
98 114 0
106 124 0
111 127 0
105 121 0
118 135 0
108 125 0
109 128 0
116 133 0
95 112 0
108 125 0
115 131 0
96 113 0
115 131 0
115 133 0
117 136 0
123 141 0
105 123 0
120 138 0
117 134 0
125 144 0
126 145 0
117 135 0
109 126 0
118 137 0
116 133 0
119 137 0
118 136 0
131 148 0
123 140 0
114 132 0
123 142 0
128 148 0
122 140 0
122 140 0
128 147 0
129 148 0
128 146 0
131 150 0
139 159 0
124 143 0
126 145 0
134 153 0
139 158 0
131 150 0
131 150 0
129 148 0
135 154 0
136 156 0
133 153 0
141 161 0
140 161 0
135 155 0
139 159 0
140 158 0
143 164 0
135 155 0
138 157 0
138 158 0
139 158 0
142 160 0
136 157 0
143 163 0
144 163 0
142 160 0
145 164 0
139 158 0
147 167 0
142 160 0
143 164 0
137 158 0
134 153 0
136 156 0
141 161 0
142 160 0
149 167 0
133 154 0
149 170 0
146 167 0
151 172 0
150 170 0
144 162 0
152 171 0
141 160 0
144 165 0
149 167 0
145 163 0
147 166 0
157 178 0
145 167 0
156 178 0
146 166 0
156 175 0
151 170 0
152 172 0
153 171 0
147 166 0
140 161 0
153 174 0
149 167 0
149 169 0
158 178 0
152 175 0
146 167 0
158 178 0
152 172 0
148 168 0
150 168 0
150 170 0
160 181 0
149 167 0
155 175 0
153 173 0
148 168 0
154 175 0
159 181 0
154 174 0
153 173 0
151 169 0
152 171 0
150 171 0
159 179 0
158 179 0
151 170 0
153 174 0
158 179 0
158 179 0
160 181 0
156 176 0
155 175 0
162 181 0
160 180 0
148 169 0
157 179 0
159 180 0
163 185 0
162 184 0
161 182 0
158 177 0
161 181 0
155 174 0
165 188 0
159 179 0
157 179 0
159 179 0
162 183 0
159 179 0
164 188 0
163 185 0
156 176 0
160 181 0
163 186 0
160 181 0
158 175 0
160 180 0
160 179 0
160 181 0
159 180 0
154 173 0
157 178 0
169 188 0
162 181 0
161 181 0
166 187 0
167 188 0
166 187 0
165 185 0
165 185 0
159 178 0
161 182 0
166 187 0
162 183 0
160 182 0
165 187 0
161 181 0
164 185 0
165 188 0
164 186 0
169 192 0
165 186 0
163 185 0
165 187 0
164 185 0
161 183 0
164 184 0
166 188 0
163 185 0
163 184 0
163 185 0
163 185 0
166 189 0
164 185 0
163 183 0
167 188 0
165 187 0
166 189 0
161 183 0
162 184 0
169 190 0
167 188 0
171 194 88
171 194 92
174 197 117
173 195 92
168 192 84
178 200 117
177 200 105
175 197 95
174 197 88
165 188 84
176 199 105
178 201 102
168 191 72
176 199 128
169 193 105
166 189 80
169 193 99
171 193 88
168 191 105
173 196 105
172 195 102
169 192 92
169 192 99
171 194 88
171 194 88
171 194 105
174 197 80
173 196 105
173 196 99
168 191 102
171 194 99
163 187 84
168 191 114
165 189 72
161 184 92
167 190 95
170 193 88
167 190 95
162 186 80
167 191 108
171 194 111
168 191 105
169 192 120
161 185 88
164 187 84
159 182 84
165 188 92
168 191 99
166 190 117
162 184 99
164 186 107
161 185 80
163 185 92
157 181 88
162 186 122
157 180 100
160 183 102
164 187 80
162 184 105
160 182 92
163 185 92
170 194 117
162 186 88
161 184 99
149 172 62
157 180 99
163 186 105
163 187 99
161 184 122
159 182 105
168 189 105
157 179 88
161 183 108
154 176 88
154 176 76
162 184 115
167 189 99
149 172 92
156 178 80
161 182 105
161 183 80
154 175 72
156 177 99
155 177 102
154 175 99
156 178 105
155 177 99
156 176 95
149 170 88
156 176 111
155 176 102
146 166 84
157 177 114
149 169 84
147 167 92
157 177 111
143 163 99
147 167 88
144 163 114
147 165 108
134 153 84
151 170 120
155 174 105
142 161 80
136 155 95
140 159 76
133 151 95
141 160 95
136 153 80
139 157 84
138 157 84
118 137 62
129 147 80
126 144 84
113 130 67
124 141 72
136 153 92
102 119 44
124 141 80
118 135 74
121 137 51
121 138 65
104 122 47
121 139 47
114 130 70
117 136 60
127 144 40
130 148 54
126 145 67
127 144 67
130 147 36
128 146 51
124 142 18
139 158 25
134 154 36
138 154 36
121 138 25
128 147 0
135 153 0
119 136 0
124 141 0
128 144 0
122 140 0
135 151 0
116 135 0
124 141 0
120 136 0
126 143 0
120 137 0
115 132 0
120 137 0
112 129 0
124 141 0
114 130 0
121 138 0
112 128 0
113 129 0
121 139 0
106 123 0
120 137 0
95 112 0
111 128 0
115 130 0
110 127 0
100 117 0
98 114 0
89 104 0
106 123 0
109 125 0
101 117 0
98 114 0
97 113 0
93 108 0
102 118 0
93 109 0
95 112 0
105 122 0
109 125 0
111 128 0
101 116 0
96 112 0
99 115 0
101 118 0
100 117 0
93 109 0
93 109 0
101 117 0
102 117 0
100 116 0
95 112 0
113 130 0
109 126 0
85 102 0
101 117 0
110 128 0
96 112 0
105 121 0
100 115 0
102 119 0
117 133 0
110 128 0
116 134 0
118 136 0
114 132 0
113 131 0
116 133 0
99 116 0
111 128 0
117 135 0
116 134 0
106 123 0
116 133 0
121 139 0
120 137 0
115 132 0
125 143 0
124 143 0
124 141 0
111 129 0
135 152 0
124 143 0
128 146 0
115 135 0
119 139 0
130 148 0
129 146 0
118 135 0
128 148 0
121 140 0
129 148 0
125 143 0
138 157 0
124 142 0
129 147 0
120 139 0
135 155 0
132 151 0
123 142 0
126 145 0
134 153 0
138 157 0
140 161 0
137 156 0
125 143 0
128 146 0
134 154 0
144 164 0
139 159 0
132 152 0
134 151 0
142 160 0
136 156 0
143 163 0
137 157 0
139 159 0
139 159 0
139 157 0
139 159 0
148 169 0
139 157 0
131 152 0
140 161 0
144 163 0
137 156 0
139 158 0
142 161 0
137 156 0
143 165 0
141 160 0
140 159 0
142 161 0
144 165 0
153 172 0
145 165 0
144 164 0
147 167 0
145 165 0
146 165 0
150 169 0
151 172 0
148 169 0
148 168 0
148 170 0
151 172 0
144 164 0
147 167 0
137 157 0
150 170 0
147 167 0
147 168 0
152 173 0
150 170 0
150 168 0
149 168 0
147 168 0
157 179 0
148 167 0
152 173 0
155 174 0
162 183 0
154 174 0
157 178 0
156 175 0
159 179 0
152 172 0
158 180 0
156 178 0
148 168 0
150 170 0
152 171 0
149 168 0
155 176 0
152 172 0
158 178 0
155 175 0
152 172 0
154 174 0
156 177 0
155 174 0
154 174 0
162 183 0
145 163 0
159 179 0
150 172 0
158 177 0
157 176 0
154 174 0
161 182 0
164 184 0
161 181 0
153 174 0
154 174 0
156 179 0
158 177 0
155 176 0
157 177 0
161 180 0
158 178 0
159 180 0
159 178 0
159 179 0
161 181 0
159 179 0
165 186 0
156 176 0
153 172 0
161 183 0
163 181 0
157 178 0
162 183 0
156 176 0
157 178 0
162 183 0
162 182 0
158 178 0
162 184 0
165 185 0
161 183 0
163 185 0
163 183 0
161 181 0
161 183 0
157 178 0
156 177 0
167 187 0
166 187 0
166 188 0
165 187 0
161 181 0
163 182 0
161 182 0
160 181 0
160 180 0
162 181 0
165 184 0
165 186 0
162 182 0
164 185 0
167 189 0
162 184 0
166 187 0
163 183 0
160 180 0
161 183 0
161 183 0
163 183 0
163 185 0
163 184 0
159 180 0
166 187 0
166 188 0
169 191 0
164 186 0
163 185 0
165 185 0
168 190 0
168 189 0
165 186 0
158 177 0
158 179 0
172 196 99
168 192 95
172 196 76
173 196 108
175 198 76
169 193 99
175 198 88
170 193 88
176 198 84
170 194 128
167 191 88
173 197 111
171 194 88
176 198 114
175 198 99
171 194 108
170 194 95
174 198 125
169 192 92
174 197 88
168 191 88
172 195 111
170 193 84
166 189 88
171 194 88
166 188 76
172 195 92
172 195 102
166 190 117
171 194 99
171 195 99
168 191 95
165 188 76
170 194 99
165 188 95
166 189 111
165 189 88
166 189 114
166 189 99
169 192 111
167 191 80
168 191 114
170 193 105
165 188 105
157 180 84
166 188 88
169 193 111
164 187 95
163 187 88
156 180 88
165 189 84
164 187 88
165 188 120
161 185 95
167 189 67
162 185 80
162 186 92
164 188 99
165 187 115
166 190 88
162 185 99
164 187 111
159 182 102
162 186 113
158 180 99
157 179 99
167 190 111
162 184 94
161 184 108
158 180 84
164 187 92
152 175 95
164 185 95
158 180 99
160 183 92
162 185 117
161 183 114
153 175 92
153 175 92
156 178 88
157 179 105
164 185 111
161 183 108
157 178 114
159 181 108
148 169 114
159 181 122
151 172 76
158 179 105
157 178 105
160 180 120
147 166 84
144 165 95
151 171 108
157 177 111
154 173 99
158 178 125
150 170 92
155 175 108
151 169 111
150 170 80
147 166 92
146 165 114
139 158 92
153 172 99
141 161 72
139 158 95
135 154 76
131 149 80
146 165 84
130 148 72
138 155 84
121 139 44
131 148 57
127 144 72
128 145 67
132 149 67
133 151 76
126 142 72
124 141 76
124 141 76
115 132 51
126 142 72
125 141 60
105 121 25
118 135 36
121 140 51
122 139 40
123 140 47
133 151 57
126 143 44
136 155 40
141 160 31
133 150 25
142 158 0
135 153 25
133 152 18
138 156 25
126 141 0
136 154 0
134 152 0
132 150 0
133 151 0
138 157 0
130 149 0
133 150 0
130 149 0
103 122 0
116 133 0
112 130 0
117 134 0
114 133 0
115 134 0
103 121 0
112 130 0
110 127 0
106 124 0
125 143 0
105 122 0
97 115 0
106 124 0
104 120 0
99 116 0
120 138 0
98 115 0
110 125 0
89 105 0
99 114 0
104 120 0
97 114 0
106 121 0
102 119 0
105 121 0
97 114 0
94 111 0
107 123 0
95 110 0
104 121 0
95 112 0
94 110 0
106 122 0
98 115 0
107 123 0
105 121 0
122 138 0
109 126 0
113 130 0
114 130 0
112 127 0
106 123 0
90 107 0
99 115 0
103 119 0
111 129 0
116 134 0
114 130 0
103 119 0
107 124 0
99 117 0
114 131 0
114 131 0
108 125 0
112 129 0
118 135 0
115 133 0
115 132 0
109 126 0
116 136 0
113 132 0
115 133 0
107 125 0
115 134 0
116 134 0
122 140 0
129 148 0
108 127 0
115 132 0
125 145 0
118 136 0
118 137 0
115 134 0
131 150 0
122 140 0
129 147 0
127 144 0
124 144 0
136 156 0
130 149 0
123 142 0
118 138 0
118 138 0
124 143 0
123 141 0
120 138 0
128 149 0
134 152 0
145 164 0
132 152 0
123 143 0
136 155 0
134 155 0
131 149 0
123 143 0
130 150 0
139 160 0
135 153 0
140 160 0
131 150 0
134 155 0
133 153 0
144 165 0
138 158 0
133 150 0
144 165 0
130 149 0
145 165 0
135 156 0
137 157 0
139 158 0
142 162 0
144 164 0
135 155 0
145 166 0
146 164 0
147 167 0
136 156 0
150 171 0
142 162 0
143 164 0
136 155 0
139 159 0
147 167 0
141 161 0
148 169 0
148 170 0
151 172 0
150 171 0
141 162 0
148 169 0
155 176 0
147 168 0
140 157 0
155 175 0
149 171 0
152 173 0
149 170 0
149 171 0
149 169 0
153 171 0
148 167 0
151 170 0
154 174 0
140 159 0
150 170 0
152 173 0
151 171 0
150 171 0
148 167 0
143 162 0
148 170 0
156 176 0
145 165 0
153 175 0
147 165 0
152 174 0
142 163 0
152 173 0
149 169 0
150 171 0
144 166 0
155 176 0
153 174 0
151 171 0
157 179 0
151 171 0
159 178 0
155 175 0
149 168 0
159 179 0
157 176 0
150 171 0
159 179 0
156 177 0
159 180 0
158 179 0
160 179 0
153 172 0
155 175 0
156 177 0
162 184 0
159 180 0
158 177 0
154 174 0
159 180 0
166 186 0
156 177 0
164 184 0
162 182 0
160 181 0
155 176 0
161 183 0
163 183 0
161 181 0
162 183 0
161 181 0
162 183 0
164 185 0
163 182 0
155 173 0
162 183 0
161 181 0
164 184 0
159 180 0
163 184 0
168 191 0
162 183 0
167 185 0
162 184 0
156 177 0
166 188 0
163 185 0
161 182 0
162 183 0
163 184 0
164 185 0
163 183 0
163 184 0
162 183 0
158 178 0
161 183 0
165 186 0
164 183 0
166 188 0
165 186 0
163 184 0
166 188 0
165 186 0
168 189 0
162 182 0
157 178 0
160 180 0
166 187 0
163 186 0
164 186 0
164 187 0
164 184 0
163 183 0
168 188 0
165 187 0
163 183 0
164 185 0
170 191 0
166 189 0
161 182 0
167 190 0
166 186 0
164 186 0
166 189 0
167 190 0
166 188 0
175 198 95
172 195 92
172 195 99
168 191 67
172 194 95
167 190 92
170 193 108
169 193 99
171 194 95
171 194 102
173 196 92
168 191 84
169 194 80
170 194 99
170 194 114
171 194 92
168 191 80
173 196 80
172 196 108
171 194 84
170 194 108
170 193 102
171 194 99
167 191 99
169 192 92
173 196 92
172 195 92
173 196 125
168 192 102
167 189 108
171 194 99
171 193 95
168 191 114
167 191 125
172 195 99
172 195 88
164 187 99
167 190 88
165 189 102
165 189 108
166 190 88
160 184 102
165 189 92
157 179 84
164 188 80
162 184 67
171 195 102
164 188 84
161 184 99
166 188 108
166 190 92
165 188 95
164 187 102
161 185 84
157 179 76
164 188 88
161 185 124
166 190 110
162 185 111
162 185 74
165 188 120
160 183 95
156 178 92
162 186 108
164 187 97
160 182 95
159 181 92
166 189 88
162 186 92
149 171 84
164 187 76
164 187 80
162 184 111
155 177 92
157 180 95
156 178 92
159 182 92
159 181 102
160 182 95
157 178 76
150 172 88
162 184 99
156 178 99
153 174 80
151 172 99
153 175 95
151 172 84
151 172 88
156 178 102
157 178 95
151 172 99
157 176 99
158 180 108
152 173 99
145 165 88
151 171 105
150 170 88
151 172 95
149 168 111
143 164 84
146 165 105
152 172 108
148 167 80
135 153 84
142 161 76
136 155 80
136 154 92
139 156 80
134 152 62
138 156 84
132 151 80
136 154 84
126 143 62
130 148 76
127 145 51
115 132 57
112 129 36
129 147 84
129 145 67
134 152 51
110 127 62
128 145 74
119 135 57
125 142 62
119 138 36
118 136 51
128 146 51
125 144 44
137 155 54
134 151 25
137 156 47
143 160 36
133 152 36
128 144 0
128 145 0
132 150 0
133 152 0
144 163 0
133 151 0
137 155 25
130 149 0
135 153 0
136 155 0
125 144 0
126 145 0
121 139 0
124 143 0
120 138 0
113 130 0
124 142 0
126 143 0
123 141 0
122 140 0
104 122 0
107 125 0
111 131 0
97 114 0
115 134 0
114 131 0
115 133 0
103 120 0
99 117 0
116 133 0
96 113 0
117 134 0
104 121 0
97 113 0
118 135 0
112 129 0
101 118 0
110 128 0
109 126 0
98 115 0
118 136 0
101 118 0
85 102 0
98 115 0
102 118 0
99 115 0
112 129 0
100 116 0
107 123 0
102 118 0
101 118 0
98 115 0
116 133 0
108 124 0
102 119 0
105 122 0
110 128 0
112 128 0
101 117 0
104 120 0
107 123 0
95 112 0
108 125 0
122 140 0
112 129 0
115 131 0
127 142 0
110 129 0
106 122 0
125 142 0
107 125 0
114 130 0
118 136 0
109 127 0
114 132 0
127 145 0
115 133 0
111 129 0
117 135 0
116 133 0
117 134 0
125 144 0
110 126 0
118 137 0
117 135 0
129 148 0
122 140 0
121 140 0
127 146 0
126 145 0
119 135 0
124 143 0
129 146 0
118 137 0
123 143 0
117 136 0
121 141 0
121 140 0
126 144 0
134 155 0
132 152 0
120 140 0
126 145 0
132 153 0
123 142 0
143 163 0
133 152 0
130 149 0
126 145 0
135 154 0
132 151 0
140 159 0
132 153 0
128 147 0
133 153 0
134 153 0
142 162 0
140 160 0
131 150 0
145 165 0
139 160 0
135 155 0
132 153 0
139 158 0
147 166 0
143 163 0
141 162 0
147 168 0
142 159 0
146 166 0
136 157 0
138 157 0
142 162 0
142 162 0
141 161 0
147 167 0
148 168 0
146 166 0
137 156 0
143 161 0
144 165 0
145 166 0
143 163 0
143 164 0
143 162 0
148 167 0
149 170 0
148 168 0
159 180 0
152 172 0
149 169 0
151 170 0
153 174 0
156 175 0
150 171 0
153 172 0
151 172 0
149 170 0
143 164 0
140 161 0
153 173 0
154 174 0
141 160 0
155 175 0
152 174 0
153 174 0
146 166 0
157 177 0
150 171 0
151 172 0
149 166 0
158 179 0
161 182 0
157 175 0
156 179 0
150 171 0
151 171 0
154 175 0
151 169 0
158 178 0
153 173 0
155 176 0
161 182 0
156 174 0
160 183 0
156 177 0
151 171 0
158 179 0
154 174 0
159 180 0
154 173 0
159 180 0
158 180 0
154 173 0
159 179 0
160 181 0
158 179 0
157 178 0
161 183 0
161 184 0
161 183 0
160 181 0
161 180 0
152 173 0
161 182 0
156 177 0
158 178 0
160 182 0
159 179 0
158 178 0
161 183 0
154 174 0
164 184 0
162 183 0
159 180 0
162 182 0
161 183 0
159 180 0
160 181 0
160 180 0
156 176 0
155 175 0
158 177 0
158 177 0
164 186 0
163 183 0
166 186 0
161 182 0
161 182 0
161 182 0
159 179 0
163 185 0
160 181 0
159 179 0
162 185 0
166 187 0
160 182 0
165 186 0
167 189 0
162 181 0
156 177 0
161 183 0
162 184 0
161 183 0
165 186 0
167 188 0
163 184 0
164 184 0
168 190 0
164 186 0
164 186 0
164 185 0
165 187 0
170 193 0
167 189 0
163 184 0
164 187 0
167 188 0
165 184 0
167 188 0
162 184 0
164 185 0
163 185 0
164 185 0
168 190 0
165 187 0
166 187 0
177 200 108
169 192 88
176 199 105
174 197 114
173 196 114
172 195 99
163 186 80
171 194 84
173 197 99
173 197 111
165 188 72
174 197 105
173 196 128
168 192 88
172 195 108
175 198 76
169 192 105
174 196 88
170 193 99
172 195 92
174 198 108
169 192 88
164 188 95
170 194 114
168 190 99
170 193 95
163 186 99
171 194 84
167 190 92
170 193 92
174 198 108
169 193 108
164 187 84
167 190 88
165 188 99
165 189 99
168 191 102
172 195 114
163 186 72
167 191 92
170 193 76
166 190 105
165 189 92
166 189 92
160 184 88
168 191 102
171 194 111
161 185 88
159 183 102
169 192 108
159 181 84
164 187 95
167 190 108
163 185 80
170 194 117
165 188 92
161 184 76
165 188 105
158 181 84
158 180 88
165 188 99
152 174 80
164 187 92
163 186 102
154 177 67
161 184 99
156 178 72
158 180 95
158 181 95
155 178 84
160 183 111
161 183 95
156 179 99
155 177 80
156 178 88
158 180 99
154 175 92
158 180 114
159 181 99
153 175 95
164 185 111
164 185 88
152 173 84
160 182 114
155 177 108
161 182 111
162 183 105
160 181 84
158 178 111
148 170 67
149 170 92
157 177 105
156 177 111
165 185 111
148 168 84
153 173 105
153 173 105
144 164 105
154 174 102
147 166 92
154 172 95
149 169 99
146 165 102
147 166 105
140 160 95
148 167 95
147 166 95
133 152 51
148 166 84
139 158 92
135 153 84
135 153 99
140 158 72
137 155 88
134 151 99
126 143 62
134 152 72
129 147 62
137 155 92
121 138 62
122 139 44
115 132 51
117 135 57
135 152 62
126 144 51
134 152 62
133 151 67
123 140 0
126 143 25
137 155 44
136 155 0
126 144 44
137 157 25
141 160 0
142 163 25
137 155 25
139 154 0
137 156 25
128 146 25
136 155 25
139 158 0
130 148 0
124 143 0
130 149 0
127 145 0
126 142 0
119 137 0
114 134 0
122 141 0
129 148 0
121 140 0
116 133 0
126 144 0
120 138 0
115 134 0
120 139 0
109 127 0
115 134 0
113 132 0
116 132 0
113 130 0
121 139 0
110 128 0
113 130 0
93 110 0
110 127 0
111 128 0
105 121 0
103 119 0
120 137 0
102 119 0
92 109 0
103 119 0
110 126 0
99 116 0
106 124 0
101 117 0
102 118 0
107 123 0
104 122 0
105 120 0
110 127 0
116 133 0
109 126 0
94 111 0
100 115 0
102 119 0
117 135 0
113 129 0
111 129 0
115 133 0
111 129 0
107 122 0
113 129 0
115 133 0
120 138 0
110 128 0
105 121 0
114 132 0
107 125 0
116 133 0
116 134 0
116 134 0
113 129 0
107 126 0
110 129 0
113 130 0
110 128 0
109 127 0
117 134 0
99 117 0
120 140 0
125 143 0
120 138 0
114 131 0
112 130 0
129 148 0
122 140 0
128 146 0
133 153 0
120 139 0
126 145 0
132 149 0
122 140 0
127 146 0
119 139 0
137 157 0
119 139 0
134 155 0
121 139 0
134 152 0
129 147 0
123 142 0
129 147 0
137 157 0
125 145 0
130 148 0
146 167 0
135 153 0
134 154 0
132 152 0
147 165 0
127 143 0
129 151 0
133 153 0
134 155 0
143 165 0
141 163 0
134 154 0
134 154 0
135 154 0
139 159 0
144 165 0
135 153 0
141 161 0
143 164 0
144 163 0
144 166 0
145 165 0
137 156 0
152 172 0
151 171 0
138 158 0
139 158 0
145 164 0
135 156 0
145 166 0
145 165 0
138 157 0
141 161 0
146 168 0
137 157 0
140 159 0
156 175 0
138 159 0
143 163 0
146 165 0
153 175 0
148 170 0
159 181 0
155 176 0
153 172 0
149 170 0
156 176 0
151 172 0
156 175 0
141 162 0
152 173 0
150 171 0
160 179 0
148 168 0
145 165 0
153 174 0
155 176 0
149 170 0
155 176 0
153 171 0
149 169 0
157 177 0
157 177 0
151 172 0
158 179 0
151 171 0
149 168 0
146 165 0
156 175 0
163 185 0
153 172 0
149 168 0
153 175 0
154 176 0
153 175 0
154 174 0
158 180 0
151 172 0
157 177 0
147 164 0
159 178 0
151 172 0
153 172 0
153 173 0
151 170 0
157 179 0
154 175 0
158 178 0
151 172 0
158 178 0
158 178 0
152 172 0
154 173 0
159 180 0
159 178 0
159 181 0
152 170 0
160 181 0
160 180 0
161 182 0
154 174 0
158 179 0
161 182 0
163 185 0
160 180 0
160 181 0
160 180 0
161 182 0
164 185 0
165 187 0
164 185 0
158 180 0
163 185 0
162 183 0
165 186 0
164 183 0
164 185 0
161 181 0
163 183 0
158 177 0
163 184 0
165 188 0
158 180 0
159 179 0
162 184 0
163 184 0
157 178 0
165 186 0
161 182 0
165 187 0
166 187 0
170 192 0
162 183 0
160 181 0
165 187 0
167 189 0
162 182 0
161 182 0
168 189 0
162 183 0
166 187 0
158 178 0
160 181 0
165 185 0
164 187 0
167 188 0
166 189 0
166 187 0
161 183 0
165 187 0
165 187 0
166 186 0
162 185 0
166 187 0
166 186 0
166 186 0
166 187 0
168 192 0
165 186 0
166 187 0
167 188 0
164 184 0
165 187 0
173 196 111
174 196 80
174 198 114
173 195 95
174 197 108
176 200 102
177 200 99
173 196 92
168 191 88
171 194 111
171 194 102
172 195 102
171 194 95
170 193 99
168 192 99
174 197 88
167 191 88
170 194 111
167 191 84
173 197 105
170 194 95
173 196 105
169 192 99
172 194 88
171 194 111
171 194 84
168 192 99
170 193 102
169 193 88
172 195 108
169 192 72
170 193 102
169 193 105
166 189 67
170 193 88
163 187 62
169 193 117
167 191 95
163 186 80
164 188 105
168 191 117
164 187 99
167 190 92
162 185 72
160 183 95
166 189 102
161 184 108
168 190 95
161 184 99
168 191 80
159 182 76
163 186 102
158 180 72
159 182 84
162 185 99
160 183 84
168 191 122
162 184 72
162 185 105
162 185 92
167 190 105
159 181 92
166 189 114
153 176 84
157 179 80
170 193 114
169 192 114
157 180 92
156 178 92
157 180 102
167 189 111
161 184 105
163 185 95
160 182 105
162 184 105
156 178 88
164 185 105
159 181 105
161 183 108
151 173 88
153 174 105
157 178 105
154 175 88
149 171 76
157 178 84
151 173 99
158 180 108
161 181 95
154 176 76
158 180 102
152 172 105
155 176 102
151 171 102
149 169 62
148 169 92
151 172 102
156 176 99
155 175 99
147 168 99
151 171 76
153 172 114
135 155 80
149 167 99
149 168 102
152 170 102
134 151 84
144 163 67
146 165 102
154 172 111
135 153 84
143 162 72
125 142 67
144 162 76
142 160 76
140 159 80
127 144 62
121 138 57
128 146 62
135 152 62
127 144 57
119 136 51
115 134 36
134 153 67
137 154 72
127 144 57
124 142 62
127 145 36
129 147 51
134 153 44
138 157 51
143 163 44
132 149 25
148 166 36
137 156 25
138 157 25
144 164 0
137 156 0
132 149 0
133 153 0
127 146 0
137 156 0
127 145 0
136 156 0
133 151 0
140 158 0
125 145 0
128 146 0
123 142 0
126 144 0
117 134 0
127 145 0
116 134 0
122 140 0
116 134 0
104 123 0
119 138 0
119 137 0
125 143 0
121 139 0
108 125 0
113 131 0
112 129 0
111 129 0
118 137 0
106 123 0
113 130 0
113 129 0
103 120 0
97 114 0
112 130 0
104 121 0
107 124 0
106 124 0
117 134 0
112 128 0
104 122 0
111 128 0
103 120 0
118 136 0
105 122 0
110 128 0
107 124 0
115 132 0
116 132 0
89 106 0
101 118 0
98 116 0
113 130 0
110 128 0
124 142 0
118 136 0
108 126 0
114 131 0
106 122 0
104 121 0
110 128 0
119 137 0
123 141 0
124 141 0
112 131 0
108 128 0
115 131 0
119 138 0
114 132 0
117 136 0
111 130 0
119 137 0
119 137 0
122 141 0
121 140 0
119 138 0
122 141 0
115 133 0
113 130 0
121 139 0
117 137 0
120 138 0
119 138 0
120 138 0
130 150 0
119 138 0
124 143 0
124 143 0
136 157 0
123 142 0
134 153 0
134 153 0
136 156 0
133 151 0
121 137 0
114 133 0
127 145 0
129 148 0
120 137 0
126 146 0
133 153 0
140 160 0
132 150 0
132 151 0
137 158 0
133 152 0
139 158 0
130 150 0
135 154 0
128 147 0
130 151 0
138 158 0
140 160 0
137 157 0
124 141 0
138 157 0
142 163 0
139 158 0
133 152 0
135 156 0
138 158 0
138 159 0
145 165 0
142 164 0
139 159 0
134 151 0
138 158 0
147 167 0
138 158 0
141 161 0
151 171 0
141 162 0
144 166 0
146 167 0
143 163 0
151 172 0
145 167 0
145 164 0
151 172 0
142 162 0
143 164 0
158 179 0
149 169 0
151 171 0
146 167 0
141 161 0
150 169 0
151 170 0
139 160 0
149 169 0
158 180 0
150 170 0
149 170 0
151 171 0
153 173 0
143 162 0
152 171 0
159 180 0
151 173 0
148 170 0
160 181 0
146 166 0
152 173 0
152 171 0
160 180 0
156 177 0
149 169 0
152 173 0
153 174 0
150 170 0
156 178 0
158 178 0
157 177 0
158 179 0
155 176 0
150 169 0
159 180 0
151 171 0
161 182 0
153 173 0
157 179 0
157 176 0
166 188 0
153 174 0
159 180 0
160 182 0
156 175 0
159 180 0
168 190 0
157 176 0
161 181 0
152 174 0
158 178 0
160 181 0
161 181 0
152 173 0
160 181 0
157 177 0
162 184 0
160 182 0
153 173 0
161 182 0
156 177 0
157 178 0
166 186 0
156 176 0
158 179 0
155 176 0
161 182 0
159 179 0
160 181 0
161 181 0
165 186 0
168 189 0
162 182 0
162 184 0
163 183 0
161 181 0
166 189 0
158 179 0
163 183 0
157 178 0
164 186 0
154 173 0
159 179 0
161 182 0
164 186 0
164 185 0
164 185 0
163 184 0
160 181 0
165 186 0
157 178 0
165 187 0
167 188 0
165 186 0
159 179 0
165 186 0
162 183 0
162 183 0
162 184 0
163 183 0
163 185 0
163 184 0
161 183 0
165 187 0
163 185 0
163 183 0
164 186 0
163 186 0
168 190 0
162 181 0
164 184 0
166 187 0
162 183 0
162 183 0
164 186 0
163 185 0
161 184 0
162 183 0
166 188 0
170 190 0
168 189 0
165 184 0
165 187 0
173 196 80
174 198 102
172 194 102
168 191 88
170 193 99
169 193 92
173 196 99
174 197 99
175 198 114
168 190 92
168 192 99
171 195 102
172 194 76
165 189 84
173 196 95
176 199 99
170 194 95
173 196 84
169 193 99
167 191 99
166 189 88
168 191 95
171 194 111
167 190 72
170 193 120
173 196 108
169 193 95
169 193 95
169 193 102
171 194 99
171 195 99
174 197 111
165 189 99
173 196 99
166 189 108
162 186 102
164 188 88
167 191 105
171 194 114
170 193 99
164 187 88
163 187 88
166 190 92
161 184 105
164 188 117
170 193 108
162 185 88
162 186 105
162 185 88
168 191 95
168 192 88
168 192 92
162 184 92
162 185 92
162 185 99
166 189 97
162 186 80
159 182 105
164 187 80
165 188 111
164 187 114
158 181 92
163 186 105
160 183 99
159 181 102
163 186 92
164 187 117
162 185 84
155 178 72
166 188 108
158 180 88
159 181 102
153 175 92
156 179 84
169 192 110
165 187 105
163 185 92
157 179 92
160 181 95
157 180 117
159 180 88
155 176 92
158 179 72
154 175 99
158 179 111
157 178 99
157 178 99
153 174 88
153 174 99
153 174 84
150 171 88
157 177 95
154 174 92
158 178 117
158 177 105
153 173 92
146 166 92
156 176 122
149 169 84
155 175 114
146 165 114
140 160 84
147 166 92
151 171 105
153 172 88
141 160 80
136 153 84
143 163 80
152 171 102
141 161 57
137 155 88
144 162 76
133 151 72
138 158 62
130 148 76
135 153 88
136 154 72
136 154 62
125 142 57
132 150 62
122 141 57
121 139 25
120 138 44
129 146 67
131 150 44
130 148 51
142 160 51
137 156 36
140 159 44
137 157 44
141 161 36
145 164 36
138 155 0
136 156 25
130 149 25
129 150 0
138 158 0
137 158 25
148 167 36
136 156 0
140 162 0
138 158 0
137 156 0
133 152 0
134 153 0
128 147 0
137 156 0
120 137 0
123 141 0
124 144 0
114 134 0
130 148 0
107 125 0
110 127 0
123 143 0
125 144 0
110 129 0
114 131 0
122 140 0
110 128 0
92 110 0
121 139 0
110 129 0
118 135 0
106 123 0
118 135 0
124 141 0
111 128 0
117 133 0
115 131 0
110 128 0
102 119 0
111 129 0
111 129 0
123 140 0
103 121 0
111 127 0
110 128 0
109 126 0
116 134 0
109 127 0
106 123 0
108 125 0
117 135 0
111 129 0
103 120 0
119 137 0
118 135 0
119 137 0
120 138 0
108 126 0
116 134 0
118 135 0
104 121 0
113 130 0
119 138 0
106 123 0
115 134 0
126 144 0
106 124 0
116 133 0
118 137 0
122 139 0
124 141 0
117 135 0
117 136 0
113 131 0
118 136 0
111 129 0
118 135 0
133 152 0
122 141 0
121 139 0
112 129 0
115 135 0
127 146 0
114 133 0
122 142 0
121 139 0
119 139 0
119 137 0
126 145 0
124 144 0
136 155 0
132 152 0
120 141 0
123 143 0
135 153 0
122 138 0
131 151 0
128 149 0
126 147 0
136 154 0
129 149 0
130 150 0
130 149 0
138 157 0
127 146 0
137 158 0
136 157 0
140 159 0
130 149 0
135 155 0
131 152 0
128 146 0
137 157 0
145 164 0
143 164 0
133 151 0
134 155 0
134 155 0
140 159 0
129 150 0
133 153 0
144 164 0
132 153 0
133 152 0
134 151 0
138 156 0
140 159 0
140 160 0
144 164 0
145 165 0
142 163 0
138 158 0
137 158 0
138 158 0
142 163 0
144 164 0
143 164 0
145 165 0
150 169 0
136 156 0
144 164 0
153 175 0
150 170 0
150 171 0
143 163 0
149 170 0
148 169 0
134 152 0
148 169 0
153 172 0
149 170 0
147 167 0
144 165 0
143 162 0
156 178 0
149 168 0
144 165 0
148 169 0
150 170 0
149 169 0
152 173 0
153 173 0
152 172 0
153 173 0
153 173 0
153 173 0
154 173 0
151 172 0
149 170 0
158 178 0
157 178 0
154 176 0
160 182 0
150 171 0
152 172 0
157 179 0
156 177 0
155 175 0
150 171 0
150 170 0
153 174 0
157 178 0
154 174 0
153 174 0
154 173 0
158 179 0
157 177 0
162 184 0
156 177 0
151 169 0
157 178 0
162 182 0
155 175 0
156 178 0
159 181 0
159 179 0
158 179 0
158 178 0
162 184 0
152 172 0
158 177 0
162 183 0
155 175 0
161 183 0
158 180 0
160 181 0
159 179 0
161 180 0
161 183 0
158 178 0
163 183 0
163 185 0
162 183 0
163 184 0
165 186 0
164 184 0
162 185 0
160 180 0
166 187 0
163 184 0
164 185 0
157 177 0
156 176 0
160 179 0
158 178 0
155 176 0
160 182 0
158 178 0
164 184 0
164 185 0
159 181 0
164 185 0
161 181 0
166 187 0
161 183 0
165 185 0
166 189 0
164 185 0
164 187 0
161 182 0
167 189 0
157 179 0
162 184 0
165 186 0
162 183 0
163 185 0
161 182 0
159 178 0
164 185 0
167 188 0
167 188 0
163 185 0
166 188 0
161 182 0
164 186 0
163 184 0
168 188 0
164 185 0
163 185 0
163 185 0
164 185 0
167 191 0
163 185 0
166 187 0
166 186 0
165 185 0
163 185 0
170 193 72
168 192 80
170 194 92
175 199 95
177 200 114
171 194 105
172 196 105
172 194 88
174 197 88
172 194 111
170 193 84
174 196 122
175 198 111
174 197 102
176 198 88
167 190 92
172 195 111
167 190 92
168 192 76
170 193 95
174 197 102
169 193 92
170 193 99
165 188 84
167 191 92
164 187 84
176 199 117
169 192 105
166 189 84
168 192 88
167 192 92
168 192 76
169 193 88
163 186 88
166 189 84
168 192 95
168 191 102
164 188 108
167 191 84
165 187 84
166 189 92
167 191 111
168 191 102
163 187 117
165 188 111
165 189 92
161 185 76
169 192 99
167 190 105
156 179 88
159 182 72
165 188 88
158 181 99
169 192 102
160 183 84
156 180 95
165 188 92
153 176 84
164 187 80
154 177 92
168 190 92
158 181 84
160 182 92
161 184 95
168 191 105
161 183 99
157 179 92
162 185 102
161 183 103
153 175 102
158 179 72
152 175 92
158 179 125
149 171 72
161 182 105
173 195 92
154 175 84
153 174 95
163 184 99
156 177 84
151 173 95
161 183 99
165 187 114
160 181 105
155 176 88
158 179 92
163 184 108
155 175 84
158 178 108
154 175 95
157 177 99
152 173 105
156 176 95
159 179 111
148 168 92
157 177 102
155 174 102
141 159 92
151 171 99
155 175 92
134 153 84
137 157 95
151 170 99
147 167 92
148 167 105
156 177 105
152 172 95
145 164 95
138 157 72
138 156 80
134 153 80
144 163 92
140 159 80
134 152 72
132 150 67
122 142 51
136 154 62
140 159 57
126 144 44
122 141 44
126 145 44
135 154 51
132 149 76
129 148 62
116 134 25
123 140 36
128 145 36
135 154 36
129 147 51
130 149 36
129 149 0
143 162 36
145 165 0
131 149 36
136 155 25
136 154 0
152 173 0
137 156 0
137 156 0
130 150 0
131 151 0
141 160 0
127 146 0
133 153 0
137 155 0
135 154 0
124 142 0
129 149 0
114 131 0
132 150 0
120 140 0
117 136 0
115 132 0
126 143 0
123 143 0
102 120 0
114 133 0
108 126 0
117 136 0
109 126 0
118 137 0
122 140 0
110 129 0
115 133 0
119 136 0
117 135 0
114 130 0
120 138 0
124 142 0
106 124 0
100 118 0
110 128 0
119 138 0
120 138 0
105 122 0
103 120 0
114 131 0
113 130 0
100 118 0
112 130 0
109 127 0
117 135 0
118 136 0
103 120 0
120 138 0
113 131 0
108 126 0
105 123 0
108 126 0
108 126 0
115 132 0
118 135 0
105 123 0
126 144 0
107 126 0
121 139 0
130 148 0
121 140 0
117 136 0
112 130 0
115 135 0
106 125 0
105 121 0
112 131 0
115 134 0
108 127 0
112 132 0
121 142 0
115 134 0
121 140 0
122 141 0
112 132 0
121 140 0
108 127 0
126 145 0
124 143 0
120 138 0
120 138 0
131 151 0
134 154 0
113 131 0
119 137 0
125 144 0
124 144 0
123 143 0
122 142 0
125 145 0
123 142 0
124 144 0
133 153 0
127 147 0
134 152 0
128 147 0
136 156 0
135 156 0
132 152 0
131 150 0
137 158 0
135 156 0
135 153 0
134 154 0
130 149 0
132 153 0
139 159 0
135 153 0
137 158 0
140 160 0
138 157 0
146 166 0
136 156 0
141 161 0
140 160 0
139 158 0
141 160 0
143 163 0
141 162 0
138 159 0
144 163 0
140 162 0
139 159 0
142 163 0
149 169 0
142 163 0
147 168 0
139 160 0
149 169 0
152 172 0
148 169 0
144 165 0
154 174 0
130 151 0
149 169 0
151 173 0
150 169 0
148 167 0
145 165 0
151 172 0
150 171 0
145 166 0
148 169 0
152 173 0
148 169 0
141 160 0
150 168 0
156 177 0
150 171 0
153 175 0
151 171 0
154 176 0
146 166 0
154 174 0
149 170 0
153 174 0
151 172 0
154 175 0
149 171 0
156 176 0
148 168 0
153 173 0
155 176 0
156 177 0
153 173 0
151 172 0
163 185 0
153 174 0
146 166 0
151 171 0
155 175 0
154 175 0
154 173 0
154 176 0
155 176 0
150 171 0
155 176 0
153 174 0
157 179 0
163 183 0
151 173 0
157 178 0
148 168 0
159 178 0
163 185 0
165 186 0
154 175 0
154 175 0
158 179 0
158 180 0
166 187 0
157 177 0
158 178 0
154 175 0
162 184 0
163 184 0
152 172 0
157 179 0
156 175 0
160 182 0
159 179 0
158 178 0
160 180 0
154 174 0
163 186 0
162 184 0
164 185 0
160 182 0
166 187 0
159 181 0
163 184 0
157 178 0
151 172 0
159 180 0
163 184 0
162 182 0
160 180 0
166 186 0
158 179 0
166 187 0
163 184 0
162 183 0
155 177 0
159 180 0
165 187 0
161 183 0
167 188 0
169 189 0
161 182 0
159 180 0
167 189 0
159 181 0
164 185 0
165 185 0
162 183 0
162 184 0
163 183 0
166 187 0
166 188 0
163 183 0
162 182 0
169 190 0
164 185 0
162 182 0
166 186 0
166 188 0
167 188 0
162 184 0
163 185 0
167 188 0
166 187 0
164 185 0
162 184 0
164 186 0
167 187 0
163 186 0
163 184 0
170 191 0
166 188 0
168 189 0
166 188 0
168 191 0
168 190 0
172 195 114
175 197 92
172 195 88
173 196 105
166 189 99
169 192 84
175 197 108
169 192 76
172 196 95
173 196 92
169 191 95
169 192 84
171 194 102
170 194 88
173 196 84
172 196 105
170 193 95
172 195 88
174 197 130
172 195 102
172 196 122
167 191 92
171 195 84
165 188 95
173 197 117
175 198 128
163 186 99
169 193 76
168 191 92
164 188 88
167 191 102
172 195 128
165 188 99
165 189 102
167 191 84
167 191 114
165 189 80
168 191 84
161 184 92
161 184 80
173 196 122
164 187 102
171 194 102
166 190 95
165 187 99
166 188 72
165 189 108
168 192 125
166 190 108
163 186 102
160 183 92
168 190 102
165 188 117
158 182 88
164 187 57
162 184 92
159 181 80
171 194 108
162 185 84
163 186 82
156 178 88
161 184 102
166 189 111
167 190 105
164 187 92
154 177 108
162 185 105
160 183 108
162 184 84
165 188 120
162 184 92
155 178 80
165 187 114
156 179 88
164 186 114
154 176 95
161 183 99
153 175 102
155 177 80
156 177 88
158 180 114
160 182 102
153 175 99
164 185 105
155 176 76
152 174 99
156 178 80
150 171 80
155 176 92
154 175 92
156 176 92
159 181 108
155 176 102
163 184 108
153 174 99
154 175 92
154 175 88
155 176 84
136 156 80
154 174 84
155 176 105
167 186 122
143 161 102
147 167 88
142 160 84
148 166 102
149 169 92
139 158 76
147 167 88
145 164 88
149 168 88
137 156 76
137 155 67
131 150 57
152 171 84
136 155 80
135 153 62
126 145 51
141 160 72
108 127 36
140 158 72
132 151 51
118 136 36
135 153 67
141 161 36
126 145 51
138 158 57
133 153 25
139 160 36
134 152 25
136 154 25
134 153 25
142 161 51
138 157 36
145 164 44
149 170 0
138 157 25
147 167 0
137 157 0
138 157 0
140 161 0
133 152 0
138 158 0
141 159 0
133 153 0
134 154 0
126 146 0
128 149 0
128 147 0
136 155 0
121 141 0
125 144 0
119 139 0
122 140 0
131 150 0
122 142 0
117 137 0
116 135 0
119 136 0
117 137 0
102 120 0
120 138 0
113 130 0
121 140 0
120 137 0
127 146 0
110 129 0
119 136 0
112 129 0
115 133 0
116 134 0
116 134 0
126 144 0
117 136 0
118 137 0
108 126 0
111 129 0
115 133 0
117 136 0
113 130 0
118 136 0
119 137 0
120 138 0
127 145 0
125 142 0
112 129 0
117 134 0
117 135 0
107 126 0
114 131 0
125 144 0
120 138 0
117 134 0
105 122 0
115 133 0
117 136 0
126 144 0
111 129 0
119 138 0
109 128 0
116 135 0
128 145 0
125 142 0
125 144 0
123 142 0
107 125 0
121 139 0
125 143 0
121 139 0
131 150 0
121 140 0
127 146 0
133 152 0
118 135 0
127 145 0
128 147 0
119 138 0
121 141 0
122 140 0
127 145 0
124 144 0
126 145 0
134 154 0
129 149 0
122 141 0
122 141 0
130 150 0
123 142 0
134 154 0
135 154 0
128 147 0
137 157 0
134 151 0
129 146 0
131 151 0
133 153 0
131 151 0
138 157 0
138 159 0
139 158 0
135 155 0
135 154 0
140 161 0
140 161 0
138 157 0
133 152 0
136 157 0
141 161 0
131 151 0
142 161 0
133 152 0
144 165 0
140 159 0
143 162 0
137 158 0
146 166 0
143 162 0
142 161 0
141 161 0
144 165 0
143 163 0
139 158 0
139 159 0
148 170 0
143 163 0
139 159 0
142 162 0
151 171 0
141 161 0
145 166 0
154 175 0
145 166 0
147 168 0
154 176 0
151 171 0
148 168 0
142 163 0
148 169 0
154 174 0
145 164 0
148 169 0
150 172 0
150 171 0
149 168 0
153 173 0
147 168 0
145 165 0
148 169 0
149 169 0
145 166 0
155 176 0
152 172 0
154 175 0
150 171 0
155 176 0
152 174 0
144 163 0
155 176 0
154 174 0
157 177 0
156 177 0
154 177 0
144 166 0
155 175 0
153 173 0
154 175 0
155 176 0
157 177 0
157 177 0
155 177 0
162 184 0
151 173 0
157 176 0
157 177 0
155 176 0
156 177 0
158 179 0
159 180 0
158 180 0
157 178 0
153 174 0
157 179 0
162 183 0
152 173 0
161 181 0
155 176 0
158 179 0
157 178 0
161 181 0
150 171 0
161 183 0
159 180 0
158 178 0
158 180 0
161 182 0
159 179 0
161 181 0
161 181 0
157 175 0
161 183 0
161 182 0
157 179 0
155 175 0
164 182 0
161 184 0
156 178 0
163 185 0
166 189 0
155 176 0
165 185 0
163 183 0
157 178 0
162 182 0
161 182 0
165 187 0
163 183 0
165 186 0
158 178 0
166 188 0
165 186 0
166 187 0
165 186 0
164 185 0
159 181 0
166 186 0
162 182 0
162 184 0
158 179 0
158 180 0
162 183 0
163 185 0
164 186 0
163 185 0
165 188 0
165 188 0
164 185 0
164 186 0
164 186 0
162 183 0
166 188 0
165 188 0
169 189 0
162 183 0
166 188 0
168 190 0
169 191 0
166 188 0
164 184 0
165 185 0
160 182 0
167 190 0
165 187 0
168 189 0
165 186 0
167 189 0
165 185 0
169 191 0
168 189 0
164 185 0
167 187 0
174 197 102
171 194 84
176 198 105
173 197 102
169 192 99
175 198 105
175 198 92
170 193 99
175 198 111
171 193 80
174 197 102
172 195 99
174 197 111
175 199 102
172 195 99
175 198 122
171 194 67
173 196 105
171 194 99
166 190 80
169 193 99
170 193 95
172 195 108
170 193 102
168 191 92
165 189 84
167 190 92
172 194 114
169 193 95
172 196 102
167 191 122
171 194 99
165 189 84
165 189 117
166 189 88
167 190 80
169 192 99
163 186 88
167 191 99
167 190 99
165 188 99
172 195 122
162 185 92
166 190 80
164 188 88
168 192 99
163 186 99
168 191 102
164 186 92
169 192 111
163 184 80
164 187 99
167 192 120
164 188 80
163 186 92
165 188 84
159 182 88
167 190 117
157 180 84
164 186 72
167 190 114
162 186 102
160 182 88
165 188 92
153 175 78
160 183 105
162 186 84
164 186 102
165 187 99
156 178 92
159 180 84
158 181 95
161 184 95
160 183 114
158 181 120
158 180 95
157 179 76
163 185 99
157 179 105
151 172 88
157 179 105
149 171 92
161 182 105
161 182 120
157 178 92
162 183 102
156 178 102
157 178 102
154 175 84
155 177 84
161 181 99
143 163 92
165 185 120
159 179 120
157 177 88
151 171 80
152 173 95
148 169 72
160 181 105
153 172 92
151 172 95
146 166 92
141 161 80
146 166 76
151 171 105
145 164 105
150 170 76
149 170 76
152 171 92
135 153 88
153 172 92
147 167 88
141 160 72
132 150 76
140 159 76
132 150 76
134 154 51
138 157 67
126 145 51
137 157 36
138 157 44
136 154 62
126 144 36
128 146 57
135 153 36
122 141 51
132 152 51
125 145 51
145 163 44
144 163 44
135 154 36
131 149 36
141 163 0
145 166 0
148 168 25
148 169 0
143 162 0
134 153 0
136 156 0
131 152 0
143 162 0
137 155 0
133 152 0
134 153 0
135 155 0
136 155 0
132 153 0
125 146 0
134 154 0
122 140 0
126 144 0
122 142 0
124 143 0
124 144 0
121 140 0
128 147 0
123 142 0
125 144 0
111 129 0
125 144 0
114 133 0
117 134 0
121 139 0
111 129 0
117 136 0
103 121 0
119 139 0
106 125 0
119 138 0
117 136 0
118 136 0
125 142 0
122 141 0
115 132 0
111 130 0
117 136 0
113 131 0
118 137 0
117 134 0
121 140 0
111 129 0
113 131 0
120 137 0
120 137 0
120 136 0
110 129 0
106 124 0
119 138 0
135 154 0
119 137 0
121 139 0
112 131 0
113 130 0
114 133 0
120 139 0
121 140 0
117 136 0
121 140 0
123 142 0
113 132 0
124 143 0
116 135 0
122 141 0
103 121 0
114 133 0
126 146 0
115 134 0
127 147 0
130 149 0
111 130 0
116 136 0
115 134 0
130 150 0
119 138 0
133 153 0
125 145 0
123 142 0
112 130 0
113 132 0
131 148 0
129 149 0
122 142 0
122 141 0
131 151 0
134 155 0
139 159 0
129 148 0
125 145 0
131 151 0
130 149 0
138 157 0
134 154 0
127 148 0
133 153 0
134 154 0
128 146 0
135 156 0
136 156 0
133 153 0
139 159 0
143 163 0
143 164 0
134 155 0
133 155 0
148 168 0
140 161 0
137 157 0
129 150 0
135 156 0
140 160 0
145 165 0
140 160 0
141 161 0
140 162 0
146 166 0
141 162 0
152 173 0
145 166 0
137 159 0
133 154 0
148 168 0
153 172 0
137 158 0
147 168 0
144 165 0
153 175 0
144 164 0
143 164 0
139 160 0
139 159 0
136 156 0
146 165 0
153 174 0
145 167 0
150 172 0
143 166 0
144 165 0
141 161 0
148 169 0
149 170 0
153 173 0
156 175 0
146 166 0
146 166 0
157 179 0
152 174 0
155 175 0
143 164 0
146 167 0
152 173 0
153 173 0
150 171 0
155 177 0
144 165 0
151 171 0
154 175 0
156 175 0
151 172 0
156 176 0
155 175 0
154 174 0
146 166 0
159 182 0
148 169 0
155 174 0
155 177 0
153 175 0
152 172 0
160 181 0
155 176 0
156 179 0
154 175 0
156 178 0
156 176 0
158 179 0
157 179 0
151 172 0
151 172 0
155 175 0
158 179 0
158 179 0
163 185 0
158 178 0
162 184 0
158 179 0
161 182 0
155 177 0
159 179 0
161 181 0
163 185 0
164 187 0
160 180 0
162 186 0
160 181 0
158 178 0
159 180 0
162 183 0
165 186 0
156 177 0
156 178 0
163 183 0
159 181 0
162 183 0
160 183 0
165 186 0
158 177 0
162 184 0
159 181 0
166 188 0
159 179 0
158 178 0
164 184 0
161 183 0
170 191 0
160 182 0
164 185 0
168 191 0
160 181 0
163 185 0
169 189 0
161 183 0
166 187 0
159 180 0
161 183 0
157 176 0
160 182 0
164 186 0
159 179 0
166 187 0
165 188 0
164 185 0
162 184 0
163 186 0
163 184 0
167 189 0
165 186 0
163 184 0
164 185 0
166 187 0
164 187 0
164 184 0
167 189 0
165 186 0
165 186 0
163 185 0
163 184 0
166 187 0
165 186 0
161 183 0
170 191 0
164 186 0
162 184 0
164 187 0
162 184 0
167 188 0
171 193 0
168 189 0
167 190 0
166 189 0
169 191 0
171 195 76
182 204 140
176 198 95
172 194 76
174 197 108
172 195 84
174 197 122
172 195 111
168 191 95
173 196 95
173 195 105
172 195 108
168 191 95
172 196 102
169 192 92
165 188 84
172 195 95
172 194 95
170 194 88
169 192 102
169 193 102
171 195 95
167 191 105
168 192 80
169 193 99
169 193 92
169 192 102
170 194 80
173 196 105
170 193 99
171 194 102
164 187 105
167 190 88
173 197 102
170 193 111
163 186 80
166 189 99
167 191 102
168 192 108
167 191 99
165 187 88
165 188 108
167 191 108
170 194 92
167 191 99
161 183 99
164 187 108
168 192 117
163 186 99
167 190 88
161 185 95
162 185 84
161 184 88
171 195 88
160 184 88
175 198 133
162 184 76
165 188 99
162 185 88
166 188 117
166 188 88
163 185 76
167 190 102
161 184 92
165 188 114
162 184 111
164 186 92
163 185 88
161 183 102
158 181 88
160 182 102
158 180 88
162 183 92
161 183 102
161 184 95
164 186 111
154 177 108
158 181 92
158 180 95
158 180 88
164 184 102
164 187 108
151 172 102
165 187 117
148 170 95
169 191 128
159 180 108
169 189 125
157 177 102
156 177 99
155 176 92
154 175 99
158 179 102
158 179 84
154 175 80
151 171 88
150 171 92
154 174 105
157 177 102
156 175 111
148 168 92
152 171 111
147 166 105
154 173 92
145 165 80
144 163 76
147 168 76
135 156 62
148 167 84
144 164 72
135 155 57
141 161 67
137 156 84
141 160 80
134 153 67
143 163 62
139 160 67
139 158 72
131 149 51
131 150 51
127 144 62
139 158 51
131 150 51
137 157 62
147 166 57
134 154 25
137 156 36
138 159 51
140 159 36
139 160 25
142 162 0
130 151 36
139 158 25
145 164 0
141 161 25
147 168 25
136 157 0
136 156 0
141 162 0
149 169 0
138 157 0
134 154 0
132 152 0
144 165 0
140 159 0
127 146 0
134 153 0
131 150 0
130 149 0
132 151 0
126 146 0
122 141 0
108 127 0
128 147 0
125 145 0
112 131 0
121 141 0
127 145 0
118 138 0
132 151 0
124 144 0
118 137 0
126 144 0
117 135 0
116 135 0
113 132 0
111 129 0
120 139 0
106 123 0
110 128 0
117 136 0
114 131 0
117 135 0
113 130 0
110 127 0
109 126 0
118 136 0
118 137 0
115 134 0
105 124 0
127 146 0
124 142 0
120 139 0
125 143 0
120 138 0
120 139 0
125 143 0
110 129 0
123 142 0
119 138 0
108 126 0
114 132 0
117 136 0
118 137 0
124 144 0
129 148 0
120 139 0
116 136 0
124 141 0
120 139 0
124 143 0
133 151 0
121 141 0
130 150 0
114 134 0
121 141 0
133 153 0
124 143 0
121 141 0
138 158 0
124 143 0
121 142 0
138 158 0
125 144 0
123 142 0
126 145 0
126 146 0
127 146 0
126 146 0
134 154 0
131 150 0
124 142 0
143 164 0
131 151 0
133 154 0
124 144 0
126 144 0
130 149 0
126 147 0
132 152 0
128 149 0
134 154 0
139 160 0
135 155 0
137 158 0
130 148 0
140 161 0
145 166 0
133 154 0
133 154 0
135 154 0
142 162 0
139 158 0
147 167 0
148 168 0
142 162 0
141 163 0
141 161 0
131 150 0
132 154 0
142 162 0
146 166 0
137 158 0
140 160 0
146 167 0
139 161 0
140 159 0
144 164 0
143 163 0
139 160 0
149 170 0
145 166 0
145 164 0
145 165 0
151 173 0
144 163 0
147 167 0
141 164 0
152 173 0
150 170 0
147 167 0
146 166 0
145 166 0
151 173 0
153 174 0
145 165 0
150 171 0
150 170 0
150 172 0
159 180 0
148 168 0
153 177 0
140 161 0
142 164 0
156 177 0
150 170 0
157 178 0
155 175 0
148 170 0
152 173 0
156 177 0
149 169 0
153 174 0
155 177 0
151 172 0
151 173 0
152 173 0
156 179 0
155 177 0
154 173 0
150 171 0
158 180 0
151 172 0
154 174 0
150 171 0
155 176 0
151 172 0
156 175 0
157 178 0
150 172 0
157 179 0
157 179 0
159 181 0
157 178 0
156 178 0
158 178 0
160 181 0
155 177 0
161 181 0
157 178 0
151 171 0
157 178 0
163 184 0
156 179 0
162 183 0
161 182 0
158 179 0
155 174 0
160 181 0
158 180 0
157 178 0
161 183 0
161 181 0
165 186 0
157 177 0
160 182 0
166 187 0
155 178 0
161 181 0
160 181 0
160 181 0
164 186 0
162 182 0
161 183 0
163 187 0
165 186 0
161 183 0
164 184 0
161 183 0
163 184 0
163 184 0
162 183 0
155 177 0
161 183 0
166 188 0
162 184 0
158 180 0
165 187 0
167 190 0
156 176 0
160 182 0
166 187 0
167 190 0
162 183 0
164 186 0
161 182 0
155 176 0
164 186 0
162 184 0
164 186 0
164 186 0
162 182 0
163 185 0
164 185 0
157 178 0
162 184 0
169 190 0
163 186 0
166 188 0
165 186 0
163 184 0
166 187 0
170 191 0
166 186 0
167 189 0
169 190 0
169 192 0
166 187 0
164 184 0
165 186 0
169 190 0
166 187 0
166 188 0
165 187 0
167 188 0
167 188 0
166 188 0
170 192 0
165 187 0
168 190 0
170 194 105
175 198 99
168 191 92
174 198 111
174 196 88
168 192 95
170 193 92
166 189 76
172 195 99
175 199 108
172 194 102
173 195 108
173 195 95
173 196 102
168 191 76
170 194 80
172 196 84
173 196 105
169 193 99
170 193 95
174 198 120
167 191 105
167 190 92
172 196 88
172 195 99
170 193 99
163 187 76
170 194 95
173 196 105
177 200 108
163 187 84
166 189 111
165 189 108
164 187 88
170 193 111
167 191 88
172 194 95
169 192 72
166 190 99
166 188 92
165 188 120
163 186 95
166 190 99
166 189 84
166 188 92
169 193 102
166 189 92
163 187 111
161 185 88
165 189 99
165 188 84
163 186 111
161 184 92
162 185 76
163 186 95
165 188 92
162 185 88
166 189 111
162 185 95
162 186 117
157 180 84
168 190 92
161 184 62
162 185 105
159 181 76
156 179 105
163 185 84
162 184 105
163 186 99
168 190 95
162 185 99
161 183 102
162 184 111
151 174 76
157 179 92
156 178 99
156 179 99
156 178 95
155 177 108
166 187 117
157 178 111
160 182 111
160 183 105
153 174 92
157 179 84
156 178 80
157 177 95
156 176 111
159 180 108
159 180 117
163 185 108
146 167 67
159 180 105
159 179 95
160 181 92
150 171 95
138 158 80
160 180 105
155 176 99
159 178 95
151 171 105
152 173 84
149 168 95
158 178 102
148 168 95
151 171 92
152 172 95
158 177 92
145 164 99
149 168 92
144 164 76
149 167 84
138 156 67
140 160 51
142 161 72
142 162 67
143 162 62
131 149 44
146 165 88
137 157 51
133 152 44
145 163 62
130 150 36
140 159 51
146 166 44
136 155 51
125 144 25
133 152 25
127 147 36
132 151 25
143 162 51
140 160 25
147 167 25
139 158 25
148 169 0
146 168 0
132 153 0
148 169 0
142 161 0
142 162 0
131 151 0
140 160 0
140 160 0
131 151 0
139 159 0
143 164 0
134 153 0
140 160 0
128 148 0
129 148 0
125 145 0
136 157 0
119 137 0
129 148 0
124 143 0
122 142 0
122 141 0
111 131 0
104 124 0
111 129 0
119 138 0
125 143 0
121 140 0
129 148 0
110 128 0
122 139 0
120 138 0
125 145 0
121 139 0
127 147 0
115 134 0
115 134 0
124 142 0
118 136 0
121 139 0
124 142 0
120 137 0
120 139 0
122 141 0
116 135 0
117 136 0
128 147 0
127 145 0
120 138 0
117 136 0
126 146 0
122 141 0
116 135 0
124 143 0
110 129 0
122 141 0
126 146 0
136 155 0
127 147 0
119 137 0
123 141 0
104 122 0
115 135 0
117 136 0
128 147 0
127 146 0
121 141 0
110 129 0
118 136 0
121 139 0
123 141 0
125 144 0
135 153 0
124 144 0
127 145 0
128 147 0
138 158 0
125 143 0
119 139 0
137 157 0
129 149 0
125 144 0
129 148 0
124 144 0
132 152 0
132 152 0
128 148 0
136 154 0
133 153 0
129 148 0
127 148 0
126 146 0
137 157 0
140 159 0
132 152 0
128 146 0
135 156 0
141 161 0
123 143 0
141 161 0
139 159 0
129 150 0
138 159 0
132 153 0
126 146 0
136 154 0
142 164 0
135 154 0
137 158 0
137 158 0
139 159 0
127 147 0
137 158 0
134 153 0
137 158 0
140 160 0
143 163 0
140 162 0
147 167 0
139 160 0
139 160 0
148 169 0
137 158 0
152 172 0
151 172 0
143 163 0
144 163 0
146 167 0
134 152 0
152 174 0
155 176 0
147 168 0
143 164 0
151 172 0
140 161 0
150 171 0
152 173 0
149 170 0
144 165 0
150 171 0
149 169 0
153 175 0
148 168 0
150 171 0
146 167 0
152 172 0
151 171 0
150 172 0
150 170 0
147 168 0
151 170 0
156 177 0
156 177 0
150 171 0
153 173 0
158 180 0
153 175 0
155 175 0
157 178 0
152 174 0
147 166 0
152 172 0
152 173 0
155 176 0
152 173 0
152 173 0
155 175 0
158 179 0
158 179 0
146 167 0
153 174 0
160 182 0
161 183 0
156 178 0
160 181 0
158 178 0
157 180 0
161 182 0
161 183 0
159 178 0
156 179 0
155 175 0
159 179 0
155 176 0
153 175 0
154 175 0
159 180 0
155 175 0
158 179 0
159 181 0
158 178 0
161 184 0
159 180 0
158 180 0
160 181 0
162 184 0
162 184 0
164 185 0
161 181 0
157 177 0
163 183 0
159 180 0
162 184 0
158 180 0
158 180 0
164 184 0
163 185 0
163 184 0
162 182 0
162 183 0
164 186 0
165 186 0
166 187 0
161 182 0
162 183 0
161 181 0
159 180 0
165 187 0
160 180 0
160 183 0
165 187 0
159 181 0
160 181 0
164 188 0
163 183 0
162 182 0
168 191 0
163 186 0
162 183 0
162 184 0
161 180 0
166 189 0
163 185 0
166 187 0
161 181 0
160 181 0
165 186 0
166 187 0
166 186 0
166 188 0
164 186 0
167 187 0
165 187 0
168 190 0
161 181 0
170 193 0
168 190 0
162 183 0
168 190 0
167 189 0
168 190 0
163 185 0
162 183 0
165 187 0
164 186 0
165 186 0
164 185 0
168 191 0
170 191 0
163 185 0
167 188 0
166 188 0
169 191 0
166 189 0
165 187 0
173 197 88
175 199 95
174 196 108
176 198 111
173 197 92
174 197 102
176 199 99
178 201 122
172 195 105
173 196 99
174 197 84
168 192 100
172 194 102
170 194 92
169 192 99
176 200 125
169 191 99
170 193 105
170 193 105
169 193 88
169 192 95
173 196 108
167 190 95
170 193 111
170 194 102
167 191 92
175 199 117
168 192 102
169 192 84
170 194 102
165 188 99
174 196 108
161 184 95
168 192 108
157 181 80
164 187 92
166 190 102
168 192 102
164 188 92
160 183 76
165 188 128
164 187 92
160 183 88
167 191 99
168 192 105
162 186 99
165 187 84
166 190 111
166 189 95
164 187 99
165 189 99
167 190 92
166 189 72
165 189 111
161 184 76
156 178 84
158 181 84
153 175 76
165 188 114
162 185 95
166 189 84
160 182 92
163 186 92
168 191 111
154 177 88
164 186 105
168 190 95
162 185 122
163 185 92
157 178 88
155 176 84
162 185 105
161 184 125
159 181 102
165 186 105
160 183 99
156 178 105
157 180 102
158 180 88
160 181 111
151 174 76
158 179 102
162 184 105
160 181 105
154 175 84
163 184 117
161 182 108
151 172 105
161 182 120
152 173 102
153 174 92
159 180 95
161 182 95
162 183 88
161 182 114
161 182 88
158 179 102
151 171 84
159 179 117
156 175 80
159 180 102
146 166 80
143 163 84
159 179 114
158 177 114
145 165 95
137 158 72
152 171 95
149 169 76
148 168 88
141 160 88
144 163 76
138 157 76
139 158 62
140 160 44
136 155 67
148 166 80
133 151 76
144 163 62
145 165 62
140 160 57
136 156 36
139 158 62
133 153 36
132 151 62
127 147 44
142 161 36
144 165 36
137 157 57
143 164 36
139 160 0
138 160 25
149 169 25
148 168 25
142 163 0
137 159 0
146 165 25
149 170 0
139 160 0
141 161 0
142 163 25
147 167 0
137 157 0
138 159 0
136 157 0
139 159 0
141 161 0
126 145 0
133 154 0
138 159 0
142 161 0
122 142 0
133 153 0
128 146 0
125 144 0
127 147 0
122 141 0
132 153 0
120 140 0
118 136 0
122 143 0
123 142 0
116 134 0
123 142 0
127 147 0
117 134 0
129 148 0
121 140 0
124 142 0
120 140 0
126 145 0
118 135 0
124 143 0
105 124 0
119 139 0
118 137 0
124 142 0
121 139 0
129 148 0
124 144 0
123 143 0
130 150 0
117 136 0
127 146 0
123 142 0
121 142 0
125 143 0
124 143 0
117 136 0
120 139 0
125 144 0
125 145 0
124 144 0
116 135 0
121 140 0
104 124 0
120 139 0
116 135 0
120 139 0
113 133 0
126 145 0
124 143 0
119 138 0
123 143 0
116 135 0
129 148 0
128 147 0
125 144 0
128 148 0
128 149 0
120 138 0
127 148 0
135 154 0
136 156 0
129 152 0
128 148 0
129 150 0
132 153 0
121 141 0
128 149 0
131 149 0
135 156 0
125 146 0
134 154 0
137 157 0
137 157 0
130 150 0
139 159 0
129 149 0
127 145 0
137 157 0
135 156 0
135 156 0
136 156 0
140 162 0
142 163 0
131 151 0
141 161 0
135 155 0
140 161 0
144 165 0
142 161 0
133 151 0
140 161 0
140 160 0
139 159 0
140 162 0
141 162 0
141 160 0
141 160 0
141 162 0
143 163 0
147 166 0
138 158 0
150 171 0
140 161 0
142 161 0
146 168 0
141 162 0
143 163 0
146 166 0
139 160 0
148 168 0
148 170 0
149 171 0
149 169 0
141 162 0
150 170 0
143 163 0
149 171 0
148 169 0
142 163 0
143 165 0
145 166 0
144 166 0
145 166 0
159 180 0
148 168 0
143 162 0
153 175 0
147 168 0
149 172 0
154 175 0
151 173 0
154 174 0
149 170 0
154 176 0
158 178 0
154 174 0
151 172 0
154 175 0
150 171 0
164 186 0
158 180 0
155 176 0
158 179 0
156 177 0
154 175 0
151 171 0
163 185 0
159 181 0
155 177 0
162 182 0
154 173 0
154 175 0
157 177 0
155 176 0
159 182 0
156 177 0
157 179 0
159 180 0
152 173 0
154 175 0
159 181 0
154 175 0
158 179 0
162 184 0
156 178 0
160 182 0
162 183 0
157 176 0
159 181 0
157 179 0
158 178 0
155 177 0
163 186 0
160 181 0
163 185 0
161 181 0
161 182 0
160 181 0
157 179 0
165 187 0
162 183 0
157 177 0
163 185 0
162 183 0
162 184 0
157 179 0
160 182 0
156 177 0
166 189 0
161 182 0
158 180 0
163 182 0
164 186 0
157 178 0
164 185 0
158 178 0
163 184 0
162 183 0
159 180 0
162 182 0
163 185 0
166 189 0
160 181 0
164 186 0
162 182 0
161 183 0
162 183 0
164 186 0
164 186 0
161 183 0
165 186 0
163 184 0
164 187 0
161 183 0
162 185 0
163 184 0
163 185 0
160 181 0
167 189 0
161 181 0
166 188 0
162 184 0
160 182 0
167 188 0
168 189 0
167 189 0
163 185 0
162 182 0
162 184 0
167 188 0
165 187 0
167 188 0
164 187 0
169 189 0
167 190 0
167 189 0
168 191 0
167 189 0
165 187 0
163 185 0
167 187 0
168 189 0
170 192 0
165 186 0
166 187 0
169 189 0
167 188 0
173 195 99
171 194 92
172 196 108
174 197 114
172 195 88
172 195 80
169 192 99
171 195 80
179 202 120
171 194 99
173 197 108
170 193 92
164 187 80
170 193 105
174 197 105
170 194 92
173 196 108
173 196 114
174 197 111
170 193 95
173 196 108
170 193 111
175 199 99
169 193 88
170 194 102
164 187 105
170 194 108
168 192 92
168 191 111
165 188 95
167 191 95
166 190 102
166 189 84
165 189 108
168 191 102
164 187 76
170 193 105
160 184 88
164 188 92
168 192 99
165 188 108
169 192 84
165 188 84
162 186 88
165 188 95
164 188 84
163 185 84
165 189 95
166 190 99
167 190 105
161 183 95
161 185 88
166 189 84
165 189 95
162 185 111
161 184 88
163 185 88
161 183 99
161 184 102
165 188 72
163 186 111
164 188 102
165 186 102
153 176 62
162 184 88
163 186 88
159 181 84
161 184 105
156 178 99
163 185 92
150 172 88
165 188 102
160 181 111
161 183 95
160 182 122
162 183 108
165 186 102
162 184 108
163 184 80
156 177 102
161 183 102
161 182 105
154 175 95
161 182 111
165 187 105
159 180 95
152 174 102
159 180 92
156 178 84
160 181 92
158 179 99
164 186 108
166 186 117
158 179 95
148 169 67
164 184 130
149 168 108
153 174 92
149 169 76
155 175 92
147 168 76
154 174 84
159 178 111
157 176 120
148 168 92
145 165 88
143 162 76
152 171 99
148 167 99
145 164 92
147 165 76
131 150 67
147 167 72
143 163 84
134 153 76
152 171 80
148 166 62
143 163 44
139 159 44
139 157 62
148 168 36
148 168 67
148 167 62
140 160 57
139 161 25
144 164 44
133 153 25
149 168 72
148 169 36
144 165 36
137 159 25
136 157 0
142 163 0
138 157 25
145 166 36
138 158 0
149 169 0
144 166 0
149 170 0
140 161 0
138 157 0
140 160 0
144 165 0
133 154 0
131 151 0
137 157 0
135 155 0
130 151 0
131 151 0
132 152 0
137 157 0
124 144 0
129 149 0
125 144 0
120 140 0
123 142 0
128 147 0
128 147 0
129 149 0
120 139 0
128 147 0
123 142 0
129 148 0
128 147 0
117 136 0
110 129 0
120 140 0
113 132 0
130 149 0
114 132 0
130 149 0
126 145 0
124 144 0
114 134 0
120 138 0
134 154 0
127 146 0
125 144 0
126 145 0
133 151 0
124 145 0
114 132 0
122 141 0
124 144 0
126 147 0
117 137 0
111 130 0
124 143 0
120 139 0
108 127 0
131 150 0
126 145 0
125 145 0
122 139 0
126 145 0
126 145 0
134 154 0
125 144 0
135 155 0
119 139 0
127 146 0
135 155 0
137 157 0
131 150 0
122 141 0
133 153 0
116 136 0
118 136 0
125 144 0
123 142 0
130 150 0
123 142 0
128 148 0
130 149 0
138 158 0
129 148 0
129 149 0
131 150 0
128 149 0
134 154 0
132 153 0
132 153 0
123 143 0
127 147 0
137 158 0
137 158 0
136 156 0
138 157 0
128 148 0
136 157 0
135 157 0
141 160 0
135 155 0
138 158 0
137 157 0
147 167 0
144 165 0
136 157 0
133 153 0
145 164 0
141 161 0
136 157 0
141 163 0
144 165 0
137 157 0
132 151 0
142 161 0
139 159 0
147 168 0
143 164 0
145 165 0
152 172 0
145 168 0
143 162 0
145 167 0
146 167 0
149 170 0
144 166 0
150 171 0
148 168 0
140 161 0
140 159 0
145 164 0
136 156 0
143 162 0
149 170 0
147 168 0
141 162 0
145 167 0
148 169 0
144 166 0
143 164 0
147 168 0
149 170 0
150 170 0
152 174 0
149 171 0
139 160 0
153 174 0
148 169 0
147 168 0
150 172 0
144 164 0
156 179 0
149 170 0
145 166 0
141 161 0
144 166 0
154 174 0
154 174 0
146 167 0
150 171 0
149 169 0
149 170 0
148 168 0
157 178 0
157 180 0
154 175 0
154 177 0
150 171 0
153 173 0
157 179 0
153 175 0
161 184 0
157 179 0
157 179 0
161 183 0
164 185 0
158 179 0
160 180 0
155 177 0
161 183 0
152 174 0
157 178 0
159 180 0
155 178 0
158 178 0
156 177 0
159 180 0
162 183 0
152 173 0
163 185 0
157 179 0
156 176 0
162 181 0
159 181 0
158 179 0
164 186 0
160 181 0
156 177 0
156 178 0
156 178 0
159 179 0
153 173 0
162 183 0
165 184 0
162 182 0
159 181 0
159 180 0
161 180 0
163 184 0
160 183 0
161 183 0
164 184 0
161 182 0
163 183 0
163 186 0
158 179 0
164 186 0
158 180 0
161 182 0
162 184 0
159 181 0
162 184 0
166 188 0
163 184 0
163 183 0
159 180 0
160 182 0
163 185 0
161 182 0
162 183 0
160 182 0
168 190 0
161 180 0
165 186 0
165 185 0
162 184 0
166 188 0
164 187 0
156 177 0
160 182 0
168 190 0
170 192 0
170 191 0
157 179 0
158 180 0
166 187 0
163 185 0
166 189 0
168 189 0
160 181 0
164 185 0
166 188 0
171 194 0
165 186 0
164 186 0
161 182 0
170 191 0
165 188 0
165 186 0
166 187 0
167 188 0
166 188 0
168 189 0
166 189 0
170 192 0
169 191 0
160 181 0
165 186 0
172 196 95
176 198 105
172 195 88
169 192 80
170 193 88
170 194 88
172 195 102
169 192 95
175 197 108
170 193 105
171 194 95
167 190 88
164 187 72
172 195 84
172 195 102
170 194 95
169 193 99
166 189 72
173 196 102
173 196 102
168 191 84
173 196 102
169 194 99
174 198 105
178 201 102
171 194 99
170 194 99
165 189 99
173 196 95
173 196 111
167 191 95
164 187 102
169 192 105
169 193 105
168 192 99
171 194 111
168 191 88
169 192 99
169 192 102
173 195 99
166 189 92
164 187 88
164 187 99
164 187 102
171 195 108
166 188 99
168 190 95
168 191 99
162 185 88
164 186 84
163 186 102
162 185 102
166 190 111
160 182 108
164 188 111
164 187 95
157 180 88
165 189 99
166 189 99
156 179 76
168 191 108
167 189 117
162 184 102
158 180 92
165 187 99
165 187 108
161 184 88
160 183 95
163 186 99
161 183 105
161 183 102
156 177 95
162 185 92
161 184 99
160 183 99
167 188 80
156 179 88
161 183 88
163 186 95
163 185 88
168 189 108
159 181 80
162 183 122
167 189 108
159 180 108
160 182 102
159 181 114
162 183 111
158 179 108
156 177 92
157 178 102
156 177 99
160 182 99
162 183 105
156 176 95
154 175 95
160 180 105
156 176 84
154 173 111
149 169 84
151 171 92
155 174 95
148 168 88
145 165 72
155 176 76
148 168 84
158 178 114
148 169 67
155 174 95
152 172 67
158 178 80
155 174 76
142 162 51
147 167 76
151 171 57
135 154 72
150 168 84
137 156 51
137 156 62
141 161 57
130 151 25
141 161 51
133 153 36
134 153 57
148 169 36
143 163 51
135 155 44
145 165 36
148 169 44
141 160 25
142 163 25
137 159 0
143 163 0
146 167 44
138 159 0
143 163 0
146 168 0
141 163 0
140 160 25
141 160 0
147 168 25
135 156 0
136 155 0
140 160 0
140 161 0
143 163 0
131 152 0
140 160 0
137 157 0
132 152 0
135 156 0
127 147 0
136 154 0
130 150 0
122 141 0
134 154 0
127 146 0
121 141 0
124 144 0
121 141 0
132 151 0
119 139 0
124 145 0
129 148 0
124 142 0
125 145 0
129 147 0
125 145 0
132 151 0
122 141 0
120 139 0
117 137 0
129 149 0
129 150 0
127 147 0
127 147 0
136 156 0
120 137 0
119 139 0
126 145 0
114 133 0
116 135 0
123 143 0
127 146 0
127 147 0
124 143 0
115 135 0
127 146 0
136 155 0
134 153 0
114 133 0
135 155 0
127 146 0
129 148 0
127 147 0
120 138 0
124 142 0
124 143 0
128 148 0
133 152 0
134 154 0
128 148 0
130 149 0
133 153 0
128 148 0
124 143 0
127 146 0
134 153 0
131 151 0
118 137 0
139 161 0
133 154 0
132 151 0
132 150 0
127 148 0
137 156 0
129 149 0
133 154 0
129 149 0
125 146 0
133 153 0
137 156 0
130 150 0
137 159 0
133 152 0
124 145 0
139 160 0
129 150 0
131 150 0
136 157 0
131 152 0
140 160 0
136 155 0
137 157 0
137 159 0
128 148 0
141 161 0
142 162 0
135 156 0
140 161 0
142 161 0
140 160 0
133 154 0
142 162 0
138 158 0
143 164 0
141 164 0
143 163 0
135 155 0
148 168 0
147 168 0
148 169 0
138 159 0
136 156 0
142 163 0
142 163 0
146 166 0
145 165 0
154 175 0
149 170 0
145 165 0
140 162 0
144 165 0
146 168 0
157 178 0
153 174 0
149 170 0
143 164 0
153 175 0
147 169 0
147 167 0
154 177 0
156 178 0
143 164 0
142 164 0
147 168 0
143 163 0
146 168 0
156 177 0
150 172 0
146 166 0
155 175 0
152 172 0
151 172 0
154 175 0
154 176 0
156 177 0
159 181 0
152 173 0
152 172 0
151 172 0
148 169 0
153 174 0
159 181 0
154 174 0
157 179 0
154 176 0
160 182 0
156 178 0
156 177 0
158 179 0
153 176 0
156 178 0
161 184 0
150 172 0
157 177 0
154 175 0
151 173 0
156 178 0
160 182 0
164 186 0
157 178 0
149 169 0
152 174 0
161 183 0
161 181 0
156 178 0
157 177 0
157 178 0
152 173 0
158 178 0
155 175 0
160 181 0
158 179 0
160 180 0
153 175 0
169 191 0
158 180 0
159 181 0
162 184 0
158 180 0
163 185 0
158 180 0
160 183 0
165 187 0
162 184 0
159 181 0
162 184 0
161 183 0
152 171 0
160 181 0
169 191 0
158 181 0
157 179 0
161 182 0
162 184 0
159 179 0
163 184 0
159 181 0
158 180 0
163 185 0
161 182 0
159 181 0
166 189 0
162 183 0
163 183 0
160 182 0
160 182 0
159 180 0
161 183 0
162 184 0
167 189 0
158 180 0
164 186 0
164 185 0
161 182 0
164 187 0
161 182 0
167 188 0
165 186 0
169 191 0
158 180 0
157 179 0
164 183 0
161 184 0
165 187 0
165 187 0
166 187 0
165 186 0
165 187 0
162 183 0
164 186 0
160 182 0
167 189 0
162 184 0
163 185 0
164 183 0
169 191 0
166 186 0
160 181 0
167 191 0
167 190 0
159 181 0
173 194 0
163 185 0
165 186 0
170 191 0
170 193 0
171 192 0
162 183 0
175 197 111
174 197 95
174 197 80
163 186 72
175 197 108
168 190 95
174 198 95
171 194 84
170 193 92
172 196 108
171 194 105
173 196 102
173 196 95
172 196 88
172 196 88
173 197 102
171 195 95
173 196 92
171 194 102
172 195 111
168 191 102
166 190 88
175 198 108
170 194 102
171 195 105
172 195 80
172 196 120
169 193 99
166 190 92
175 198 114
165 187 62
167 191 105
170 193 105
167 190 92
171 194 88
164 187 88
168 191 99
168 190 88
168 192 76
173 196 102
167 190 84
167 191 95
160 184 105
166 189 95
162 185 76
166 190 117
161 183 95
167 190 99
167 190 99
167 191 105
164 187 111
167 190 99
172 195 99
160 183 95
165 188 92
168 192 125
161 184 95
159 181 84
161 184 120
167 189 105
164 186 95
162 184 105
158 181 80
166 189 111
159 181 76
170 193 117
158 181 99
160 182 102
155 178 95
160 182 95
163 185 102
166 190 114
161 182 108
161 183 99
157 180 88
162 185 92
170 191 114
168 191 111
160 181 108
159 182 102
152 173 67
156 178 105
161 182 102
163 184 122
155 176 117
157 179 105
150 170 92
159 180 105
162 182 102
147 169 84
155 176 92
155 176 95
150 170 99
155 175 95
149 169 92
154 175 99
160 180 108
154 175 95
158 178 99
158 177 105
147 168 102
150 170 72
143 163 72
153 174 92
144 164 88
150 169 99
155 175 92
142 162 80
145 164 95
151 169 108
143 163 80
150 171 62
147 167 84
157 177 92
147 167 88
137 156 57
145 165 67
140 160 62
146 166 62
142 162 51
134 154 25
151 171 72
147 168 57
136 155 44
139 160 51
147 168 25
147 167 51
137 157 51
149 169 57
146 167 25
138 159 25
142 163 25
143 164 0
144 164 0
141 162 25
148 169 0
152 174 0
149 172 0
142 163 0
148 169 0
140 159 0
148 169 0
144 166 0
139 160 0
138 157 0
139 159 0
130 150 0
135 156 0
124 144 0
131 149 0
130 150 0
131 151 0
129 150 0
126 146 0
138 157 0
133 152 0
121 141 0
133 154 0
118 136 0
133 153 0
130 148 0
131 150 0
131 151 0
117 135 0
132 152 0
116 135 0
128 146 0
129 149 0
122 142 0
120 138 0
120 140 0
123 142 0
126 146 0
122 141 0
128 148 0
130 149 0
133 152 0
118 138 0
131 151 0
120 139 0
115 134 0
120 141 0
125 143 0
130 150 0
128 148 0
131 151 0
121 141 0
121 141 0
116 135 0
117 136 0
118 138 0
125 145 0
127 146 0
118 137 0
132 153 0
123 142 0
125 144 0
133 153 0
130 151 0
119 140 0
135 156 0
139 159 0
134 153 0
136 156 0
128 148 0
132 151 0
139 159 0
137 157 0
128 148 0
117 136 0
134 153 0
130 150 0
128 148 0
140 159 0
136 156 0
123 144 0
135 155 0
128 148 0
133 154 0
135 155 0
142 162 0
131 151 0
136 156 0
136 155 0
129 149 0
135 154 0
144 164 0
127 148 0
141 162 0
143 163 0
139 160 0
146 167 0
130 150 0
141 162 0
139 158 0
147 168 0
143 163 0
149 170 0
145 168 0
141 161 0
138 159 0
141 160 0
147 168 0
138 158 0
139 159 0
136 157 0
141 163 0
142 163 0
135 156 0
144 164 0
139 160 0
147 167 0
142 162 0
144 166 0
145 165 0
140 161 0
151 173 0
146 167 0
146 167 0
145 165 0
144 166 0
154 175 0
149 170 0
142 163 0
146 166 0
146 167 0
150 170 0
153 174 0
143 164 0
155 177 0
151 172 0
150 170 0
145 166 0
156 177 0
152 174 0
160 180 0
158 180 0
146 167 0
153 176 0
148 169 0
147 169 0
147 168 0
140 162 0
154 174 0
144 166 0
149 170 0
145 166 0
151 173 0
149 169 0
158 179 0
157 180 0
154 175 0
159 180 0
147 167 0
154 175 0
158 179 0
147 168 0
155 177 0
154 175 0
156 177 0
164 186 0
155 177 0
161 183 0
151 172 0
156 176 0
150 170 0
148 170 0
159 179 0
158 179 0
153 173 0
159 180 0
155 176 0
157 178 0
158 180 0
157 178 0
159 180 0
154 173 0
159 180 0
152 173 0
163 183 0
154 176 0
159 179 0
163 185 0
157 178 0
163 185 0
156 177 0
161 182 0
159 181 0
163 186 0
158 181 0
155 175 0
155 176 0
161 181 0
165 187 0
164 185 0
160 181 0
163 185 0
161 182 0
161 181 0
165 188 0
161 183 0
164 185 0
165 186 0
156 178 0
163 186 0
161 184 0
164 185 0
160 182 0
161 181 0
162 184 0
166 188 0
164 184 0
160 179 0
160 183 0
165 187 0
162 184 0
158 178 0
166 188 0
158 180 0
165 187 0
162 183 0
164 186 0
165 186 0
166 188 0
162 184 0
165 187 0
163 185 0
161 183 0
163 184 0
169 191 0
163 185 0
167 190 0
169 191 0
166 187 0
167 189 0
169 191 0
167 188 0
162 183 0
167 187 0
167 189 0
169 191 0
163 185 0
159 179 0
167 188 0
164 186 0
167 189 0
169 190 0
165 184 0
165 186 0
167 188 0
166 188 0
161 181 0
169 191 0
169 192 0
168 190 0
165 186 0
167 189 0
167 189 0
165 187 0
167 188 0
180 202 108
173 195 92
174 196 88
175 197 95
174 197 108
172 196 95
175 199 111
169 192 108
172 194 92
172 195 67
171 193 95
173 196 99
173 196 88
167 191 80
175 198 102
169 193 102
168 191 102
173 196 99
165 188 102
168 191 105
168 192 92
170 193 111
167 190 105
172 196 102
172 195 99
167 191 88
168 191 105
174 197 105
165 189 95
171 194 105
169 192 76
172 195 99
170 193 117
171 195 120
166 189 88
170 193 99
163 186 95
164 188 114
169 193 92
170 193 102
168 192 117
168 191 80
169 192 105
163 186 80
167 190 84
167 190 102
166 189 111
159 181 95
166 190 105
160 183 117
163 186 114
164 187 105
161 184 105
160 183 99
162 184 88
163 185 88
167 190 102
160 183 92
164 187 84
162 184 95
167 191 122
156 179 92
158 180 76
167 189 88
166 188 114
160 181 76
160 182 88
163 186 108
160 183 102
161 184 76
166 189 111
158 180 88
161 183 88
159 182 102
158 180 102
158 181 108
163 185 99
158 180 88
152 174 108
151 174 76
151 171 80
159 181 99
159 181 92
155 176 99
158 179 92
159 181 80
166 186 102
161 182 72
161 182 108
159 180 102
154 174 102
155 176 76
157 178 108
157 177 92
155 175 88
158 178 105
159 178 111
155 176 102
149 170 80
156 176 111
157 177 105
166 185 99
154 175 92
155 175 80
155 174 105
154 173 108
156 175 99
151 171 92
147 167 84
155 174 102
150 170 62
149 168 80
150 170 80
152 171 92
150 170 72
152 172 57
143 165 67
142 161 62
144 164 57
138 160 51
147 167 51
137 157 57
143 163 44
146 167 57
139 159 36
151 171 36
151 172 44
144 164 44
147 168 44
142 163 36
146 167 0
144 165 0
148 169 44
148 170 0
139 160 0
142 163 0
143 164 0
148 168 0
148 169 0
147 169 0
144 164 0
149 169 0
147 168 0
150 172 0
134 156 0
146 166 0
140 160 0
134 155 0
128 148 0
141 163 0
134 154 0
133 153 0
135 154 0
139 159 0
131 151 0
127 146 0
127 148 0
122 142 0
125 144 0
121 141 0
119 137 0
132 152 0
128 148 0
134 154 0
123 143 0
134 155 0
121 140 0
120 140 0
123 143 0
113 132 0
126 146 0
138 158 0
132 151 0
129 149 0
130 149 0
132 153 0
120 138 0
140 160 0
127 147 0
126 146 0
119 140 0
121 141 0
130 149 0
114 135 0
122 141 0
116 135 0
138 158 0
134 154 0
130 150 0
124 143 0
133 153 0
121 140 0
134 154 0
130 150 0
130 152 0
128 148 0
132 152 0
124 143 0
128 148 0
128 148 0
140 159 0
129 148 0
131 151 0
134 154 0
132 152 0
126 145 0
134 155 0
125 146 0
129 148 0
135 155 0
134 155 0
131 152 0
132 151 0
141 162 0
132 152 0
136 156 0
137 158 0
138 157 0
138 158 0
136 156 0
137 158 0
139 159 0
126 146 0
147 167 0
144 165 0
135 155 0
138 157 0
129 149 0
142 162 0
136 158 0
135 155 0
150 172 0
143 162 0
139 159 0
138 158 0
145 165 0
141 161 0
140 160 0
137 157 0
143 164 0
142 162 0
145 166 0
140 160 0
141 162 0
136 156 0
150 172 0
143 165 0
142 162 0
138 158 0
142 164 0
129 150 0
148 168 0
141 163 0
144 165 0
146 168 0
152 173 0
144 166 0
143 165 0
152 172 0
150 171 0
144 167 0
155 177 0
146 167 0
155 176 0
142 164 0
145 165 0
147 169 0
153 174 0
151 173 0
152 173 0
144 166 0
148 168 0
152 174 0
142 163 0
151 171 0
158 179 0
151 173 0
147 169 0
154 176 0
155 176 0
146 167 0
155 177 0
154 175 0
148 169 0
155 175 0
152 173 0
150 172 0
149 171 0
153 175 0
154 176 0
153 174 0
155 177 0
153 173 0
153 174 0
151 173 0
156 177 0
159 181 0
161 182 0
156 177 0
152 174 0
153 176 0
153 174 0
161 183 0
154 175 0
152 172 0
157 180 0
164 186 0
159 178 0
158 179 0
156 178 0
164 184 0
162 185 0
155 177 0
157 178 0
165 186 0
161 182 0
151 172 0
156 179 0
162 184 0
157 178 0
162 182 0
158 179 0
162 183 0
158 180 0
160 181 0
160 180 0
164 184 0
159 180 0
161 183 0
161 182 0
155 176 0
158 179 0
159 183 0
164 185 0
162 183 0
158 180 0
163 184 0
160 181 0
162 184 0
154 175 0
165 188 0
162 184 0
161 184 0
159 181 0
156 177 0
165 186 0
163 184 0
161 182 0
166 188 0
162 183 0
163 183 0
164 187 0
155 176 0
164 187 0
164 186 0
157 180 0
158 180 0
158 178 0
166 188 0
164 185 0
165 185 0
162 183 0
169 191 0
159 179 0
162 185 0
163 185 0
167 189 0
163 183 0
161 183 0
163 185 0
161 181 0
163 185 0
168 188 0
161 183 0
167 188 0
165 189 0
166 187 0
161 183 0
168 191 0
161 182 0
167 188 0
164 184 0
164 186 0
170 192 0
169 190 0
169 194 0
170 193 0
165 186 0
162 184 0
165 187 0
163 185 0
170 191 0
163 185 0
164 184 0
167 189 0
163 185 0
165 187 0
167 190 0
166 188 0
167 189 0
174 197 88
176 199 102
173 196 99
170 194 84
167 191 92
176 199 120
171 193 92
171 194 95
174 197 105
172 195 92
170 193 80
174 197 103
174 197 95
173 197 111
169 193 88
170 193 99
175 199 111
174 197 122
172 196 114
164 188 80
171 193 92
173 195 95
165 189 88
169 192 88
169 193 92
165 190 84
171 194 102
170 192 108
163 186 92
171 194 88
169 193 120
174 197 105
172 196 102
169 192 95
169 192 105
171 194 88
163 187 84
170 193 84
170 192 62
170 193 111
158 181 80
169 191 102
170 193 95
164 187 102
163 187 99
162 184 80
168 191 92
157 180 72
164 187 84
170 193 111
162 184 95
158 181 99
171 194 95
160 183 84
163 187 99
161 184 80
162 185 105
156 178 84
162 185 84
169 192 95
164 187 108
160 182 84
161 183 88
164 187 92
162 184 105
158 180 88
159 182 117
170 193 95
158 180 108
161 183 88
157 179 84
151 173 84
159 181 114
166 188 102
160 182 80
161 183 84
159 180 102
160 182 92
169 191 125
151 173 72
164 185 111
161 183 102
160 181 95
155 176 84
165 187 105
152 172 95
152 173 88
160 181 105
167 189 95
164 185 108
158 178 92
154 175 67
163 184 92
148 169 92
156 177 92
154 175 84
149 170 84
151 171 92
155 176 95
150 171 80
160 181 95
169 188 128
151 170 102
155 175 72
153 173 95
157 177 88
158 178 95
144 164 88
156 175 105
157 176 92
139 159 76
150 170 72
155 175 80
156 175 95
149 168 80
155 175 57
145 164 67
137 157 51
145 166 44
144 164 51
136 157 51
140 160 0
141 162 36
147 166 44
139 160 0
143 165 51
147 168 0
139 159 36
147 167 36
145 166 0
140 161 36
149 170 36
154 173 0
144 164 25
142 162 25
144 165 0
147 169 0
148 169 0
143 165 0
148 168 0
154 173 0
134 156 0
138 159 0
141 163 0
139 159 0
147 168 0
137 158 0
134 154 0
134 154 0
146 167 0
138 157 0
136 156 0
139 160 0
140 161 0
133 153 0
118 138 0
125 145 0
136 155 0
130 149 0
128 149 0
137 156 0
129 150 0
133 152 0
124 143 0
125 144 0
137 158 0
114 134 0
128 148 0
131 151 0
137 157 0
131 150 0
131 151 0
127 146 0
125 143 0
128 147 0
128 148 0
135 155 0
128 148 0
125 145 0
126 145 0
128 147 0
131 150 0
135 154 0
122 141 0
131 151 0
130 150 0
136 155 0
123 143 0
127 146 0
140 159 0
123 144 0
126 145 0
125 145 0
125 143 0
127 147 0
134 155 0
125 144 0
126 145 0
125 144 0
138 159 0
133 153 0
130 149 0
130 150 0
133 154 0
128 148 0
134 154 0
128 150 0
132 151 0
122 142 0
130 151 0
124 145 0
129 149 0
137 157 0
135 156 0
136 156 0
130 150 0
125 144 0
145 164 0
138 160 0
138 159 0
133 153 0
143 165 0
126 147 0
134 155 0
129 149 0
144 165 0
137 157 0
135 155 0
138 159 0
141 162 0
136 157 0
140 161 0
135 157 0
143 164 0
140 161 0
139 160 0
147 167 0
137 159 0
136 157 0
135 155 0
140 161 0
136 156 0
142 163 0
135 155 0
133 152 0
143 163 0
139 160 0
153 174 0
148 169 0
147 168 0
150 171 0
145 167 0
148 170 0
147 167 0
144 166 0
143 165 0
148 170 0
145 166 0
143 164 0
143 165 0
147 168 0
154 176 0
147 169 0
152 173 0
147 168 0
152 174 0
151 171 0
149 169 0
150 171 0
150 171 0
149 170 0
155 177 0
149 172 0
148 170 0
146 166 0
148 168 0
152 172 0
153 175 0
149 172 0
153 174 0
149 171 0
144 165 0
155 176 0
147 170 0
145 166 0
152 173 0
149 170 0
146 166 0
146 167 0
151 172 0
164 187 0
156 177 0
151 174 0
158 179 0
154 176 0
155 174 0
147 169 0
152 173 0
157 179 0
153 174 0
158 180 0
156 177 0
156 178 0
155 177 0
156 177 0
158 180 0
158 180 0
150 171 0
160 182 0
152 173 0
160 181 0
160 182 0
158 180 0
155 176 0
157 178 0
159 180 0
163 185 0
156 178 0
152 172 0
158 180 0
158 180 0
155 177 0
160 182 0
159 181 0
162 184 0
157 179 0
157 179 0
163 185 0
164 187 0
159 181 0
157 177 0
163 185 0
158 180 0
159 180 0
167 190 0
165 187 0
157 179 0
158 179 0
166 188 0
166 188 0
157 178 0
160 180 0
159 182 0
158 177 0
163 184 0
163 185 0
158 180 0
165 187 0
160 183 0
161 182 0
160 182 0
159 181 0
165 186 0
165 187 0
162 183 0
165 185 0
164 185 0
163 184 0
166 188 0
164 187 0
166 188 0
166 188 0
169 192 0
164 186 0
163 185 0
163 185 0
167 189 0
165 187 0
166 186 0
161 182 0
164 186 0
160 183 0
164 187 0
159 181 0
166 188 0
167 188 0
164 187 0
162 184 0
160 181 0
161 184 0
166 190 0
164 188 0
169 192 0
166 189 0
165 187 0
168 190 0
166 188 0
165 186 0
161 183 0
167 188 0
166 189 0
169 191 0
170 192 0
162 184 0
168 190 0
162 184 0
164 187 0
164 186 0
167 189 0
167 190 0
176 198 111
172 196 76
175 198 108
174 196 105
174 196 105
170 192 80
179 201 111
173 197 99
174 197 95
171 194 84
170 193 84
165 188 76
172 195 95
173 195 105
168 191 99
172 196 108
174 197 102
174 197 122
166 190 84
169 193 92
171 194 92
170 194 108
169 193 88
173 196 95
167 189 92
172 195 80
177 200 128
172 195 122
168 191 99
172 196 114
166 189 108
166 189 99
169 192 102
167 190 108
169 191 92
167 191 84
164 188 102
168 190 95
164 186 72
170 192 114
166 189 84
172 196 102
164 187 108
165 188 84
166 189 108
168 191 105
168 191 92
170 194 102
163 186 92
168 191 105
165 188 76
168 191 105
157 180 76
166 189 105
160 182 67
165 187 92
165 186 88
167 190 108
163 185 88
168 191 99
161 183 67
164 186 95
161 182 92
160 182 92
163 185 108
164 187 99
165 188 105
170 192 88
161 183 105
167 189 95
160 183 99
161 184 88
167 190 120
161 183 92
159 180 88
161 183 72
169 191 114
163 185 105
159 180 102
164 185 102
162 184 92
163 184 99
159 180 92
164 185 88
160 182 80
161 181 105
155 176 105
157 179 84
161 181 105
148 170 84
161 183 108
145 166 76
151 172 92
158 179 108
156 176 102
155 176 72
160 181 99
157 177 95
162 181 125
152 173 80
155 175 84
159 179 105
161 181 92
145 165 99
149 169 88
158 177 95
159 178 99
151 172 88
144 163 76
154 174 76
144 164 80
154 174 80
149 169 67
144 165 57
157 176 76
148 168 72
144 164 76
147 167 62
151 172 51
140 159 62
142 163 51
142 163 51
142 164 44
148 168 36
146 168 0
141 163 25
141 163 25
137 157 25
152 173 36
143 163 51
152 173 62
151 172 0
146 165 25
149 172 0
150 171 0
148 170 0
141 162 0
145 165 0
144 166 0
146 167 0
146 168 0
150 172 0
142 162 0
137 159 0
132 153 0
141 161 0
133 154 0
134 154 0
142 163 0
139 159 0
122 142 0
122 141 0
135 155 0
138 159 0
131 152 0
133 155 0
131 150 0
137 157 0
131 151 0
137 157 0
131 150 0
122 142 0
135 154 0
115 135 0
126 147 0
138 157 0
129 148 0
137 156 0
129 149 0
120 141 0
120 139 0
132 151 0
141 161 0
131 150 0
132 152 0
126 146 0
135 154 0
129 149 0
128 149 0
131 152 0
127 147 0
137 157 0
137 158 0
121 140 0
128 148 0
114 133 0
124 143 0
125 145 0
126 145 0
128 147 0
124 144 0
135 155 0
125 146 0
132 152 0
134 155 0
133 151 0
123 142 0
131 152 0
132 152 0
135 154 0
136 158 0
138 158 0
128 149 0
135 155 0
128 148 0
129 148 0
136 156 0
130 149 0
127 147 0
138 157 0
134 154 0
134 155 0
142 163 0
131 151 0
138 159 0
131 151 0
139 159 0
135 156 0
133 154 0
126 147 0
140 163 0
145 163 0
133 152 0
143 164 0
134 155 0
139 159 0
136 158 0
143 165 0
131 152 0
143 165 0
129 149 0
134 152 0
145 166 0
140 160 0
142 161 0
143 164 0
141 162 0
135 157 0
138 160 0
146 168 0
142 163 0
148 169 0
137 155 0
147 168 0
144 165 0
150 172 0
148 168 0
148 168 0
154 174 0
142 162 0
151 172 0
152 173 0
139 160 0
151 172 0
139 159 0
143 164 0
148 170 0
152 173 0
142 162 0
147 168 0
144 165 0
142 163 0
149 171 0
145 166 0
143 165 0
152 172 0
150 172 0
151 173 0
154 174 0
149 170 0
150 170 0
142 163 0
150 171 0
149 170 0
152 173 0
145 166 0
155 178 0
148 168 0
156 179 0
154 176 0
151 173 0
162 184 0
157 179 0
157 179 0
149 170 0
149 170 0
149 169 0
155 177 0
152 174 0
151 171 0
150 172 0
157 179 0
144 164 0
155 176 0
156 177 0
158 180 0
154 176 0
153 173 0
156 178 0
159 180 0
148 168 0
157 178 0
155 176 0
155 177 0
157 178 0
159 180 0
157 177 0
160 181 0
160 182 0
160 181 0
150 172 0
157 179 0
153 173 0
156 177 0
153 174 0
160 183 0
160 181 0
157 179 0
158 180 0
162 185 0
159 179 0
164 185 0
162 182 0
157 178 0
152 173 0
157 178 0
158 178 0
158 179 0
161 182 0
156 177 0
158 178 0
156 177 0
157 178 0
161 183 0
158 180 0
161 183 0
159 181 0
163 183 0
162 182 0
158 180 0
166 188 0
158 179 0
168 189 0
161 184 0
162 184 0
157 179 0
162 183 0
160 182 0
161 182 0
160 181 0
165 189 0
164 185 0
163 185 0
161 183 0
159 181 0
162 183 0
162 183 0
164 185 0
162 185 0
166 188 0
163 186 0
163 184 0
163 185 0
164 186 0
161 181 0
160 181 0
168 189 0
167 188 0
164 186 0
158 179 0
165 188 0
162 183 0
158 179 0
160 181 0
168 191 0
163 183 0
165 188 0
168 191 0
163 186 0
169 192 0
163 184 0
165 186 0
164 186 0
171 193 0
166 189 0
169 192 0
167 187 0
167 188 0
166 187 0
165 186 0
171 193 0
168 189 0
167 189 0
164 186 0
166 188 0
169 191 0
166 187 0
163 185 0
163 186 0
169 191 0
168 191 108
171 193 102
168 190 99
174 196 95
177 200 111
175 199 108
174 197 105
172 195 92
170 193 95
174 197 102
173 196 105
171 195 105
167 190 84
172 195 102
173 196 108
173 196 88
170 193 99
170 193 99
173 196 99
164 188 92
167 191 95
172 195 84
172 196 102
168 190 80
166 189 92
170 194 111
167 190 111
169 192 95
170 193 105
170 193 102
170 194 105
167 191 117
169 193 120
162 185 80
166 189 92
168 191 88
163 186 80
168 190 92
171 194 120
172 195 95
162 184 88
169 191 88
172 195 105
162 185 92
165 188 80
164 186 76
165 187 111
168 191 67
167 191 105
170 193 108
163 186 95
162 184 88
169 192 105
164 187 95
162 185 88
172 195 111
161 183 76
167 190 99
166 189 108
151 173 76
164 186 111
154 177 92
161 183 88
156 178 88
162 184 102
159 182 105
165 188 102
159 182 95
160 182 80
160 182 95
162 185 102
165 186 95
155 176 80
160 183 111
160 181 102
161 183 95
165 186 105
162 184 84
160 182 88
163 184 105
162 184 95
154 175 80
155 177 105
162 184 102
154 175 84
162 183 114
164 185 102
152 173 88
159 180 105
148 169 92
155 175 108
152 173 88
160 180 114
160 181 80
156 175 95
152 173 99
161 181 99
156 176 72
154 175 92
161 182 92
154 174 84
156 175 105
161 182 92
154 174 95
157 177 99
152 172 72
155 175 105
153 173 88
150 169 92
158 178 80
152 172 84
144 164 84
148 168 62
150 169 67
158 178 80
139 160 51
139 160 57
150 171 36
144 164 51
153 173 57
147 167 36
146 167 36
141 162 25
135 155 44
143 163 51
140 162 0
154 176 36
145 166 36
145 167 0
148 170 25
146 167 0
152 174 36
151 172 0
147 169 25
151 172 0
151 172 0
144 163 0
136 158 0
149 171 0
145 165 0
147 169 0
135 156 0
146 167 0
141 162 0
138 159 0
136 157 0
143 164 0
126 147 0
136 157 0
144 166 0
131 151 0
139 159 0
141 163 0
141 163 0
143 164 0
126 147 0
132 152 0
136 156 0
130 149 0
126 147 0
131 151 0
122 142 0
129 149 0
132 151 0
128 148 0
132 152 0
133 153 0
127 147 0
137 157 0
118 138 0
134 153 0
128 149 0
132 152 0
129 147 0
130 150 0
135 153 0
134 154 0
132 151 0
138 158 0
136 156 0
116 135 0
125 145 0
133 154 0
133 153 0
120 140 0
135 154 0
132 151 0
138 159 0
121 141 0
128 148 0
130 149 0
129 150 0
129 148 0
128 146 0
121 142 0
133 152 0
133 153 0
130 150 0
136 158 0
120 140 0
124 145 0
136 156 0
126 146 0
136 155 0
139 161 0
129 148 0
134 153 0
136 156 0
138 158 0
130 151 0
143 163 0
133 154 0
133 154 0
127 148 0
134 155 0
132 153 0
123 143 0
137 158 0
126 146 0
141 160 0
144 165 0
130 150 0
135 155 0
132 154 0
140 161 0
130 151 0
142 162 0
140 161 0
132 154 0
143 164 0
133 153 0
136 157 0
140 161 0
130 150 0
144 164 0
136 155 0
138 159 0
148 168 0
145 166 0
142 163 0
142 163 0
143 163 0
147 169 0
146 168 0
150 172 0
145 166 0
146 168 0
131 152 0
143 165 0
146 167 0
142 164 0
143 165 0
144 165 0
155 176 0
155 176 0
155 176 0
149 170 0
150 170 0
150 171 0
152 173 0
150 171 0
144 164 0
143 164 0
153 175 0
145 167 0
146 167 0
147 168 0
150 171 0
147 169 0
150 171 0
151 172 0
156 177 0
151 173 0
154 175 0
154 177 0
153 174 0
145 166 0
155 177 0
154 175 0
155 177 0
156 179 0
152 174 0
151 172 0
149 169 0
147 169 0
150 172 0
157 179 0
154 174 0
153 174 0
155 176 0
157 180 0
151 173 0
153 174 0
155 176 0
162 184 0
153 174 0
151 173 0
155 177 0
159 181 0
155 176 0
151 172 0
155 177 0
159 181 0
163 185 0
151 172 0
156 175 0
153 175 0
152 174 0
161 183 0
161 183 0
161 183 0
156 178 0
162 183 0
157 178 0
154 175 0
158 177 0
156 178 0
158 180 0
158 180 0
158 180 0
162 184 0
149 171 0
160 181 0
161 182 0
163 185 0
161 183 0
158 180 0
163 185 0
160 181 0
159 182 0
164 186 0
162 183 0
155 176 0
159 179 0
155 175 0
162 184 0
161 182 0
164 185 0
165 186 0
158 179 0
162 185 0
164 183 0
161 182 0
162 183 0
161 183 0
160 179 0
161 183 0
161 183 0
160 183 0
156 177 0
165 187 0
167 187 0
164 185 0
164 186 0
163 186 0
162 183 0
161 182 0
163 184 0
161 182 0
167 187 0
163 186 0
163 186 0
166 189 0
161 181 0
170 191 0
160 182 0
161 184 0
162 183 0
172 194 0
168 188 0
164 187 0
166 188 0
161 182 0
162 185 0
171 193 0
166 187 0
164 185 0
161 181 0
164 185 0
163 185 0
165 187 0
167 189 0
164 187 0
164 186 0
166 187 0
166 189 0
169 191 0
167 189 0
169 191 0
168 190 0
165 188 0
164 186 0
164 184 0
169 190 0
160 182 0
170 192 0
168 188 0
163 186 0
166 187 0
164 186 0
177 200 114
178 201 105
175 197 111
173 196 99
168 192 102
173 196 80
174 197 95
168 192 57
174 197 102
171 194 80
171 193 92
171 193 102
175 198 105
171 194 111
172 196 117
169 193 111
169 192 84
169 193 105
170 193 95
168 192 84
168 191 102
165 188 67
169 192 95
163 186 88
171 194 99
172 194 105
164 186 84
161 184 114
170 194 88
163 186 99
170 193 95
169 192 99
166 190 92
164 187 84
165 189 95
163 186 99
165 188 99
169 192 102
168 191 84
171 194 114
169 192 111
169 192 108
164 187 105
169 192 88
168 190 84
165 189 99
169 192 102
165 187 95
162 185 80
162 185 62
164 186 72
168 191 117
164 187 76
165 188 111
170 192 80
158 180 92
164 185 88
168 190 84
164 187 99
160 182 92
163 186 108
167 190 114
166 188 105
163 186 114
166 188 99
163 185 88
155 177 80
166 189 99
164 187 92
158 181 76
162 184 99
167 189 95
163 185 105
165 187 95
160 182 102
146 168 67
164 186 92
162 184 117
159 181 95
154 177 92
160 182 95
160 182 95
160 181 88
160 181 105
161 182 84
161 182 108
150 170 99
155 176 76
160 180 105
157 178 108
158 179 99
153 173 92
149 171 76
163 184 114
164 185 84
166 187 114
155 175 114
155 177 95
155 175 95
152 171 95
166 185 117
159 179 88
156 175 92
160 180 99
150 171 67
155 176 92
160 180 102
159 180 95
152 173 62
149 170 67
151 172 62
153 174 80
147 168 62
157 176 80
152 174 62
145 165 76
153 173 62
139 159 51
152 172 57
143 164 0
142 163 36
143 163 36
146 167 44
154 175 25
146 167 25
146 167 36
145 166 44
150 170 25
148 171 0
148 170 0
153 175 0
149 170 0
149 171 25
146 169 0
142 162 0
145 166 0
151 172 0
144 165 0
147 168 0
153 175 0
153 173 0
154 176 0
142 163 0
142 163 0
144 167 0
144 165 0
133 152 0
134 155 0
144 165 0
142 163 0
139 159 0
140 160 0
140 160 0
129 149 0
128 148 0
127 147 0
133 154 0
122 143 0
136 157 0
141 161 0
133 153 0
133 155 0
136 157 0
141 162 0
130 150 0
117 138 0
121 140 0
120 141 0
130 149 0
134 154 0
130 151 0
118 138 0
128 148 0
133 153 0
149 171 0
128 148 0
119 138 0
125 145 0
135 154 0
129 149 0
136 157 0
134 155 0
139 160 0
125 145 0
125 145 0
136 157 0
137 157 0
133 153 0
130 151 0
129 148 0
133 155 0
131 152 0
133 154 0
123 142 0
132 151 0
129 149 0
136 155 0
126 146 0
127 148 0
124 144 0
127 148 0
131 152 0
125 145 0
133 153 0
130 149 0
136 156 0
137 157 0
138 159 0
147 167 0
135 155 0
136 157 0
141 163 0
136 156 0
139 160 0
142 163 0
131 151 0
130 151 0
141 163 0
137 158 0
142 163 0
137 158 0
138 159 0
142 163 0
140 161 0
139 160 0
132 152 0
130 150 0
141 161 0
144 165 0
136 158 0
137 158 0
143 164 0
133 153 0
137 159 0
132 153 0
147 169 0
137 157 0
144 165 0
144 164 0
140 161 0
149 169 0
138 160 0
141 162 0
144 166 0
145 166 0
147 167 0
136 157 0
139 160 0
149 172 0
137 158 0
153 174 0
136 158 0
154 176 0
148 170 0
143 164 0
145 167 0
143 163 0
146 168 0
149 171 0
153 175 0
148 169 0
149 168 0
146 166 0
143 164 0
154 177 0
150 170 0
148 170 0
147 169 0
149 171 0
156 176 0
152 174 0
153 175 0
152 174 0
150 170 0
151 173 0
151 173 0
154 176 0
155 178 0
153 175 0
148 169 0
155 177 0
153 173 0
151 172 0
150 171 0
153 175 0
148 170 0
146 168 0
155 176 0
155 176 0
160 181 0
153 175 0
157 179 0
157 179 0
156 176 0
160 182 0
149 170 0
150 172 0
157 179 0
157 178 0
164 183 0
159 181 0
152 172 0
156 177 0
153 174 0
156 177 0
150 172 0
160 181 0
157 177 0
156 178 0
162 184 0
155 176 0
161 182 0
155 176 0
156 175 0
157 179 0
165 186 0
163 185 0
157 180 0
159 181 0
164 186 0
161 183 0
159 180 0
160 181 0
158 180 0
159 180 0
163 184 0
162 182 0
161 183 0
163 184 0
160 181 0
159 181 0
159 181 0
158 180 0
161 183 0
159 182 0
161 182 0
163 184 0
158 179 0
159 180 0
165 187 0
166 188 0
161 182 0
164 185 0
162 182 0
165 187 0
161 181 0
162 184 0
163 185 0
160 182 0
164 185 0
161 183 0
164 186 0
159 182 0
159 180 0
164 185 0
162 185 0
165 186 0
163 185 0
165 186 0
160 180 0
165 186 0
161 183 0
159 180 0
167 189 0
160 181 0
157 179 0
160 182 0
166 187 0
163 184 0
163 186 0
163 184 0
166 188 0
166 189 0
164 185 0
164 186 0
164 186 0
170 191 0
164 185 0
164 186 0
162 183 0
166 189 0
162 185 0
167 189 0
169 191 0
166 188 0
163 185 0
168 189 0
162 183 0
167 189 0
162 183 0
161 183 0
168 190 0
163 185 0
167 187 0
166 188 0
164 187 0
163 183 0
164 186 0
167 190 0
167 189 0
177 199 108
171 194 88
169 192 95
176 200 102
177 199 117
171 195 108
171 194 105
168 191 88
171 195 117
173 197 120
169 191 92
174 197 95
169 191 84
171 195 84
172 195 105
170 193 88
174 197 95
167 190 76
171 194 84
171 194 105
166 189 92
167 190 67
163 187 84
173 197 92
172 195 88
172 196 108
171 195 102
168 191 95
171 194 80
167 190 76
174 197 95
169 192 80
166 190 88
172 195 120
167 191 99
168 191 108
171 194 72
167 191 111
166 189 88
168 192 99
170 194 99
169 192 114
165 187 95
168 192 95
167 191 102
167 192 102
162 186 88
167 190 99
168 191 105
162 185 92
161 185 95
165 189 80
168 190 99
165 188 72
166 189 102
165 187 80
160 182 92
164 186 88
162 185 92
164 187 120
163 186 88
156 178 92
169 191 102
164 186 88
162 184 95
164 187 84
160 182 80
161 184 72
168 191 105
164 185 105
157 180 84
155 177 95
162 184 108
165 186 105
163 185 95
161 183 84
150 172 84
165 187 108
168 189 88
156 177 99
162 183 88
156 178 99
159 180 76
167 188 120
159 181 99
157 177 114
158 178 95
157 178 88
157 178 92
164 185 108
155 176 92
156 177 80
163 184 102
155 175 120
152 172 105
153 174 80
155 176 84
143 163 92
159 180 111
165 185 114
165 185 99
150 170 72
158 179 88
154 175 76
151 171 102
164 184 99
150 170 72
153 173 95
154 174 76
168 188 114
151 171 67
141 163 72
148 169 80
155 176 84
151 173 57
154 175 62
152 173 57
151 172 51
151 172 44
146 165 36
140 160 36
140 161 36
159 180 51
144 165 36
148 169 25
145 165 62
157 176 51
150 170 0
148 169 25
148 168 44
148 170 36
154 175 36
143 164 0
153 175 0
148 170 0
149 171 0
142 163 0
154 175 0
153 175 0
150 172 0
143 164 0
150 171 0
150 172 0
138 158 0
145 166 0
140 160 0
147 168 0
147 167 0
135 156 0
137 158 0
141 161 0
133 154 0
131 151 0
140 160 0
132 152 0
132 152 0
130 152 0
142 162 0
134 154 0
134 154 0
131 151 0
147 167 0
147 167 0
123 144 0
120 141 0
123 144 0
129 150 0
141 161 0
135 155 0
136 156 0
123 143 0
138 158 0
130 150 0
127 147 0
133 152 0
137 158 0
126 146 0
132 152 0
137 158 0
122 142 0
129 149 0
139 159 0
129 148 0
139 160 0
124 144 0
130 151 0
134 155 0
129 150 0
124 144 0
134 154 0
132 152 0
139 159 0
124 143 0
138 158 0
133 153 0
129 149 0
139 159 0
133 153 0
128 149 0
132 153 0
143 164 0
134 154 0
134 155 0
136 156 0
134 154 0
128 149 0
141 161 0
135 157 0
135 156 0
141 161 0
141 162 0
146 169 0
132 153 0
134 154 0
137 158 0
133 154 0
141 163 0
137 159 0
129 150 0
144 165 0
132 152 0
145 165 0
142 163 0
142 163 0
139 158 0
138 160 0
137 158 0
141 162 0
138 158 0
136 156 0
141 163 0
136 157 0
138 159 0
147 167 0
145 165 0
145 166 0
147 166 0
145 165 0
144 166 0
146 166 0
148 170 0
139 161 0
141 163 0
145 166 0
144 165 0
153 175 0
144 165 0
147 168 0
150 173 0
150 171 0
149 170 0
152 174 0
143 164 0
152 172 0
141 162 0
150 171 0
142 163 0
153 175 0
158 179 0
151 173 0
148 169 0
146 166 0
148 170 0
151 172 0
154 175 0
147 168 0
155 176 0
141 161 0
156 177 0
151 173 0
142 163 0
147 168 0
159 181 0
148 169 0
140 162 0
150 171 0
145 168 0
160 182 0
156 177 0
153 174 0
149 169 0
154 177 0
154 175 0
155 177 0
159 179 0
152 175 0
159 180 0
151 171 0
159 181 0
153 175 0
159 181 0
146 168 0
160 183 0
156 177 0
154 176 0
156 178 0
156 178 0
155 176 0
159 180 0
146 167 0
155 176 0
158 179 0
155 176 0
158 180 0
159 182 0
150 172 0
159 180 0
162 184 0
152 173 0
151 172 0
158 178 0
159 179 0
163 185 0
159 179 0
162 184 0
161 182 0
165 188 0
161 184 0
157 179 0
158 181 0
162 184 0
163 185 0
162 185 0
159 180 0
160 183 0
161 183 0
159 180 0
152 173 0
162 184 0
156 178 0
160 181 0
154 175 0
163 185 0
165 188 0
163 185 0
157 179 0
163 184 0
162 184 0
166 189 0
163 185 0
166 189 0
160 182 0
166 188 0
165 186 0
156 178 0
162 183 0
164 185 0
159 180 0
166 187 0
168 190 0
159 180 0
164 186 0
166 188 0
164 186 0
161 183 0
160 182 0
167 190 0
159 180 0
166 188 0
166 188 0
166 188 0
162 185 0
166 188 0
165 187 0
161 183 0
165 186 0
164 186 0
168 190 0
168 189 0
168 191 0
162 184 0
163 185 0
165 187 0
168 190 0
166 188 0
168 191 0
167 190 0
160 182 0
169 191 0
168 190 0
168 190 0
166 188 0
163 185 0
164 185 0
165 187 0
162 182 0
166 188 0
161 182 0
168 191 0
168 188 0
168 188 0
164 186 0
169 191 0
165 187 0
166 189 0
165 187 0
166 188 0
165 188 0
167 189 0
167 189 0
177 200 120
172 195 92
172 195 84
175 198 108
177 199 99
173 196 92
172 196 80
174 197 105
167 190 80
170 193 92
175 198 105
173 196 114
168 190 80
171 193 88
171 194 99
172 195 80
168 192 88
174 197 114
167 190 80
171 193 105
168 192 57
171 194 92
172 195 102
170 193 72
169 192 88
173 196 102
173 196 102
173 195 102
166 190 80
169 193 102
172 195 105
170 193 108
164 186 88
169 192 108
168 190 95
167 190 95
166 189 84
170 193 92
165 187 80
167 189 99
164 187 95
163 186 95
167 190 108
167 190 92
165 189 99
170 193 84
169 192 99
164 187 72
164 187 76
164 187 88
162 185 76
164 187 88
163 186 111
162 186 92
168 191 108
163 186 62
170 192 95
168 191 108
166 187 99
167 190 99
161 183 88
169 191 99
162 186 95
164 187 88
168 191 120
166 189 92
153 175 111
166 189 84
164 186 80
158 180 67
161 183 95
153 176 57
158 180 76
166 187 95
167 189 92
155 176 76
154 175 76
155 177 80
162 184 111
160 181 95
163 185 95
167 189 102
162 184 84
161 182 111
162 183 95
156 178 88
156 176 99
158 178 95
164 184 114
156 177 84
167 189 84
157 177 99
156 177 84
156 176 88
160 180 117
169 190 122
163 184 105
156 177 99
158 179 80
158 177 105
155 175 72
157 178 62
162 183 99
158 178 80
157 178 62
149 169 80
165 184 117
158 179 76
160 181 92
138 159 51
161 180 102
144 165 67
147 168 67
146 166 67
149 169 62
144 165 67
142 163 25
137 156 44
139 161 44
140 162 36
149 170 51
143 163 51
139 161 36
144 165 0
154 176 44
149 171 0
153 175 25
145 166 25
150 171 0
152 173 44
148 170 25
146 169 0
146 167 0
148 170 0
143 165 0
148 170 0
146 167 0
142 164 0
151 172 0
149 172 0
151 172 0
147 168 0
141 162 0
146 167 0
145 167 0
145 167 0
144 166 0
146 167 0
149 169 0
146 168 0
145 166 0
139 159 0
138 158 0
134 154 0
137 158 0
136 156 0
136 156 0
127 148 0
129 150 0
138 159 0
142 161 0
132 151 0
134 155 0
144 165 0
136 157 0
140 159 0
136 157 0
131 152 0
135 156 0
133 152 0
139 160 0
145 166 0
135 156 0
128 149 0
134 155 0
133 152 0
121 141 0
130 151 0
131 152 0
130 151 0
132 152 0
141 161 0
135 157 0
135 155 0
137 159 0
135 155 0
134 154 0
129 148 0
128 148 0
138 159 0
133 154 0
131 151 0
129 149 0
135 156 0
141 161 0
130 151 0
134 155 0
145 166 0
138 158 0
129 149 0
134 155 0
134 155 0
141 161 0
141 163 0
123 143 0
131 152 0
138 157 0
140 161 0
132 153 0
125 146 0
137 158 0
134 155 0
138 159 0
136 157 0
134 155 0
145 165 0
130 152 0
137 158 0
134 155 0
135 156 0
144 165 0
143 164 0
139 158 0
136 157 0
147 168 0
145 165 0
142 164 0
140 161 0
139 159 0
138 160 0
142 164 0
145 166 0
145 165 0
137 159 0
146 167 0
141 162 0
147 169 0
132 153 0
138 159 0
136 156 0
142 162 0
148 169 0
142 164 0
149 170 0
144 167 0
153 173 0
150 171 0
149 171 0
154 175 0
147 168 0
151 171 0
144 165 0
151 172 0
145 167 0
147 168 0
147 168 0
148 169 0
151 173 0
156 178 0
140 161 0
147 169 0
153 175 0
154 175 0
146 167 0
152 173 0
154 175 0
147 168 0
155 175 0
153 174 0
155 178 0
149 171 0
152 175 0
153 174 0
153 174 0
140 162 0
149 171 0
152 173 0
156 177 0
144 166 0
150 172 0
155 177 0
159 181 0
159 182 0
155 176 0
154 175 0
150 170 0
152 176 0
144 165 0
154 175 0
150 171 0
153 173 0
149 171 0
155 177 0
150 172 0
161 183 0
156 176 0
157 180 0
158 180 0
152 174 0
161 182 0
157 180 0
158 180 0
158 178 0
159 183 0
153 175 0
155 176 0
153 175 0
160 181 0
155 178 0
159 181 0
161 183 0
160 183 0
162 183 0
154 174 0
164 186 0
156 177 0
159 182 0
159 180 0
160 182 0
158 179 0
159 181 0
155 176 0
162 185 0
159 180 0
161 183 0
158 181 0
159 180 0
163 185 0
160 182 0
166 189 0
158 181 0
160 182 0
156 177 0
164 185 0
162 185 0
154 176 0
164 187 0
163 184 0
162 182 0
160 181 0
163 185 0
161 183 0
161 182 0
164 186 0
162 183 0
161 182 0
163 184 0
166 189 0
157 178 0
165 187 0
161 183 0
161 184 0
164 187 0
161 184 0
162 185 0
166 188 0
166 187 0
163 186 0
164 186 0
164 186 0
160 181 0
166 189 0
165 187 0
166 187 0
164 186 0
161 184 0
170 192 0
166 188 0
169 192 0
161 183 0
165 188 0
167 188 0
162 185 0
165 187 0
163 185 0
168 189 0
163 185 0
167 189 0
165 187 0
167 189 0
167 189 0
167 189 0
167 189 0
164 185 0
161 182 0
165 187 0
165 188 0
164 186 0
168 189 0
164 185 0
164 185 0
166 188 0
161 184 0
165 187 0
171 193 0
167 189 0
169 191 0
167 189 0
163 186 0
163 186 0
170 192 62
166 189 88
171 193 92
175 198 88
178 201 114
173 195 108
173 195 99
173 196 84
175 197 92
171 194 99
176 198 76
173 196 95
173 197 99
169 192 88
171 195 80
172 195 102
172 195 102
172 194 102
171 194 92
168 190 92
173 196 92
171 194 95
175 198 114
170 193 88
172 195 114
171 195 92
167 189 92
166 189 84
163 185 88
166 189 108
169 192 95
169 193 95
168 192 92
169 192 88
171 194 105
165 188 102
172 195 120
168 191 88
164 188 95
171 193 84
163 186 80
160 182 84
163 186 108
168 192 102
170 193 92
169 192 92
165 188 92
168 192 105
166 189 95
167 189 99
168 190 92
166 188 99
166 188 72
158 181 92
158 181 88
167 190 95
163 186 95
164 187 105
160 183 84
159 182 84
163 185 102
166 187 99
161 183 88
168 190 117
167 189 111
165 189 105
170 192 99
159 181 88
168 189 88
160 183 76
168 190 88
163 185 99
158 180 84
160 182 95
162 183 95
160 182 99
171 192 95
160 182 92
159 181 92
159 181 80
160 181 105
156 177 84
160 181 95
164 186 102
157 179 92
162 184 102
152 173 84
160 181 95
163 183 80
159 180 88
159 179 99
157 177 67
153 173 92
160 181 102
157 179 84
161 182 95
158 178 84
166 186 102
167 188 117
160 180 108
154 175 84
165 186 95
161 181 114
152 173 99
157 178 76
155 174 84
152 172 72
150 170 76
145 165 76
155 177 62
159 179 88
155 176 62
141 160 72
151 172 95
149 169 62
144 165 51
157 177 57
143 164 62
153 173 44
149 170 51
146 168 36
145 167 0
139 161 36
150 172 25
147 167 36
147 169 25
148 168 36
155 177 36
147 168 0
148 170 0
150 171 36
150 174 0
150 171 0
145 166 0
144 166 0
150 172 0
152 174 0
157 180 25
146 168 0
141 163 25
140 162 0
140 161 0
153 175 0
138 159 0
143 166 0
139 161 0
145 166 0
148 168 0
140 162 0
140 161 0
138 158 0
144 165 0
135 156 0
134 155 0
134 155 0
132 153 0
133 154 0
142 162 0
132 152 0
135 156 0
140 161 0
130 150 0
135 155 0
126 147 0
139 159 0
134 154 0
129 149 0
138 160 0
141 161 0
125 146 0
126 147 0
130 150 0
130 150 0
129 150 0
137 158 0
137 157 0
136 157 0
135 156 0
136 158 0
128 148 0
134 156 0
127 147 0
129 150 0
127 147 0
127 147 0
126 147 0
134 154 0
131 152 0
135 154 0
139 158 0
131 152 0
139 161 0
135 156 0
126 147 0
129 150 0
132 152 0
137 158 0
121 141 0
132 153 0
144 165 0
132 153 0
140 162 0
138 159 0
133 154 0
143 164 0
144 165 0
129 149 0
140 161 0
144 165 0
141 162 0
137 158 0
126 145 0
142 161 0
131 151 0
135 156 0
134 155 0
133 155 0
143 165 0
138 160 0
135 156 0
144 165 0
132 151 0
140 160 0
142 163 0
145 166 0
143 164 0
148 168 0
140 161 0
138 159 0
144 166 0
147 169 0
150 171 0
144 165 0
144 166 0
148 169 0
152 174 0
143 164 0
140 162 0
138 159 0
145 166 0
143 164 0
149 171 0
147 168 0
146 168 0
142 164 0
150 170 0
148 170 0
150 171 0
149 171 0
143 165 0
147 169 0
157 177 0
150 172 0
144 165 0
137 158 0
150 172 0
153 173 0
148 170 0
154 175 0
149 171 0
153 175 0
151 172 0
153 174 0
147 168 0
150 172 0
151 173 0
155 175 0
151 172 0
154 176 0
146 167 0
151 173 0
147 168 0
148 170 0
152 173 0
155 177 0
154 176 0
147 169 0
155 177 0
146 168 0
150 171 0
155 177 0
150 172 0
157 179 0
150 172 0
153 174 0
156 177 0
153 175 0
151 172 0
160 183 0
156 178 0
160 183 0
154 177 0
152 173 0
157 180 0
157 179 0
158 181 0
158 179 0
160 182 0
154 177 0
160 180 0
142 164 0
159 182 0
156 177 0
151 172 0
154 175 0
160 182 0
160 182 0
158 179 0
157 180 0
157 179 0
162 183 0
160 181 0
160 181 0
163 185 0
158 181 0
161 184 0
160 182 0
158 180 0
162 183 0
163 185 0
158 181 0
152 173 0
158 180 0
158 180 0
163 185 0
158 180 0
162 183 0
165 186 0
164 187 0
159 179 0
163 184 0
159 180 0
159 180 0
167 188 0
161 182 0
162 184 0
160 182 0
167 189 0
168 191 0
168 192 0
165 186 0
160 181 0
164 187 0
159 180 0
164 186 0
163 186 0
162 184 0
166 188 0
163 186 0
163 186 0
165 188 0
169 190 0
163 185 0
167 190 0
163 185 0
163 187 0
165 187 0
165 187 0
163 185 0
161 183 0
166 187 0
167 189 0
164 185 0
161 181 0
166 188 0
165 187 0
167 188 0
166 189 0
161 182 0
164 187 0
164 185 0
167 189 0
167 188 0
163 185 0
164 187 0
171 193 0
169 190 0
162 184 0
164 185 0
164 186 0
167 190 0
162 184 0
165 186 0
163 184 0
168 191 0
163 183 0
168 192 0
166 187 0
171 193 0
166 189 0
168 191 0
162 184 0
163 186 0
169 191 0
164 187 0
164 184 0
169 193 0
169 190 0
163 185 0
168 189 0
167 191 82
170 194 99
173 196 100
169 192 95
174 197 99
168 191 76
176 198 92
176 199 72
172 195 111
174 196 105
175 197 108
174 197 84
176 198 122
167 190 80
174 197 105
173 196 105
170 193 114
173 196 92
171 193 72
170 193 102
172 195 80
171 193 95
173 196 130
173 196 95
175 199 102
166 189 105
165 189 80
170 193 84
166 189 88
171 194 99
165 189 92
166 189 99
166 189 76
165 188 105
170 193 99
171 193 92
169 191 92
169 192 99
169 192 88
165 187 76
167 190 92
168 192 111
169 192 95
167 190 88
161 184 111
162 184 84
166 189 88
163 186 95
163 185 88
163 185 72
166 189 108
172 195 108
168 191 92
166 188 95
168 191 102
166 188 80
161 182 92
164 186 88
165 187 99
161 183 88
155 178 99
171 192 111
164 186 80
158 180 72
165 187 92
161 184 80
160 183 80
165 186 95
163 186 99
156 178 99
159 181 95
163 186 84
165 188 102
158 179 88
166 188 105
165 186 88
164 186 80
158 180 84
159 180 84
162 183 95
161 182 108
164 185 120
169 190 111
158 179 95
159 180 105
160 181 102
160 181 102
160 180 102
159 179 102
161 183 105
164 185 117
169 190 111
159 180 111
159 181 92
159 179 88
157 178 84
163 184 95
167 187 102
159 180 67
158 180 84
164 184 88
163 184 108
159 179 88
160 180 84
160 180 88
152 173 67
146 166 76
161 181 95
158 178 72
154 175 76
162 182 111
153 173 62
151 172 57
147 168 57
147 168 25
149 170 62
151 172 62
145 166 25
146 168 25
140 162 36
149 169 25
147 168 51
148 169 36
146 168 25
145 166 36
149 170 25
152 174 44
148 170 36
148 170 0
153 176 0
155 176 36
148 169 0
149 170 0
149 170 0
140 161 0
157 179 0
150 172 0
156 177 0
150 172 0
153 176 0
150 172 0
143 165 0
141 163 0
147 170 0
141 162 0
136 157 0
141 162 0
148 168 0
143 166 0
143 164 0
138 159 0
143 163 0
137 157 0
142 163 0
138 159 0
138 159 0
141 161 0
142 163 0
131 151 0
136 157 0
134 155 0
144 164 0
134 156 0
144 165 0
135 156 0
137 157 0
143 164 0
144 164 0
139 159 0
134 155 0
127 147 0
125 145 0
138 159 0
136 156 0
136 157 0
134 155 0
127 146 0
141 161 0
142 162 0
133 154 0
132 152 0
141 160 0
132 154 0
130 149 0
141 160 0
145 166 0
133 154 0
130 150 0
140 161 0
132 153 0
144 164 0
135 156 0
123 144 0
125 145 0
134 154 0
143 164 0
141 162 0
138 158 0
130 150 0
142 163 0
138 159 0
136 158 0
143 164 0
133 153 0
134 154 0
137 157 0
142 164 0
143 163 0
143 163 0
135 155 0
141 162 0
144 165 0
136 157 0
140 161 0
135 156 0
140 162 0
135 156 0
139 159 0
143 164 0
142 163 0
140 162 0
147 169 0
138 160 0
136 156 0
140 162 0
139 161 0
122 142 0
142 163 0
140 161 0
143 163 0
148 169 0
151 171 0
147 167 0
143 162 0
146 167 0
144 164 0
139 159 0
149 169 0
146 169 0
138 158 0
146 168 0
148 168 0
141 162 0
143 164 0
152 174 0
145 166 0
149 171 0
148 170 0
147 169 0
148 168 0
157 179 0
147 169 0
150 172 0
151 173 0
138 159 0
144 166 0
146 169 0
152 173 0
146 167 0
152 174 0
149 170 0
154 175 0
155 176 0
156 176 0
152 174 0
151 172 0
153 173 0
147 169 0
144 166 0
152 173 0
149 169 0
146 166 0
155 176 0
151 172 0
149 171 0
157 179 0
155 176 0
156 178 0
155 177 0
151 173 0
157 178 0
158 179 0
155 177 0
156 177 0
157 179 0
160 181 0
154 175 0
161 184 0
155 176 0
156 178 0
149 170 0
151 173 0
164 184 0
160 182 0
158 180 0
159 180 0
156 177 0
157 178 0
157 178 0
157 179 0
161 183 0
155 177 0
152 173 0
164 186 0
163 184 0
158 180 0
160 182 0
156 177 0
162 184 0
156 178 0
164 187 0
157 179 0
166 187 0
162 184 0
151 174 0
160 183 0
157 180 0
156 178 0
165 187 0
161 182 0
163 185 0
158 179 0
156 179 0
159 180 0
155 178 0
160 180 0
160 182 0
154 176 0
163 185 0
163 184 0
159 181 0
163 184 0
160 183 0
167 190 0
159 180 0
168 192 0
159 180 0
159 180 0
161 182 0
165 187 0
162 185 0
157 179 0
162 184 0
163 185 0
160 182 0
165 187 0
166 190 0
167 190 0
168 189 0
161 183 0
166 187 0
160 182 0
168 191 0
165 188 0
159 180 0
163 186 0
161 182 0
165 186 0
165 187 0
160 183 0
165 187 0
165 187 0
160 182 0
169 192 0
164 186 0
157 178 0
166 189 0
164 185 0
163 184 0
168 190 0
166 188 0
168 190 0
165 187 0
165 185 0
166 188 0
169 191 0
163 185 0
165 187 0
164 186 0
167 189 0
166 189 0
162 183 0
162 185 0
164 186 0
165 187 0
166 187 0
164 187 0
161 182 0
171 194 0
164 186 0
165 186 0
168 190 0
168 190 0
166 188 0
167 189 0
168 190 0
166 188 0
166 188 0
168 191 0
167 189 0
176 199 88
179 201 120
167 189 76
171 194 72
175 197 111
171 194 99
175 198 102
172 197 88
167 191 72
174 196 72
168 190 67
173 196 99
172 194 122
171 194 88
168 192 108
172 194 105
162 186 76
169 192 105
165 188 92
171 194 99
170 193 111
172 195 84
167 190 114
169 192 88
169 193 102
176 198 117
165 189 72
171 194 102
162 185 76
170 194 84
166 189 84
164 187 105
162 185 80
171 194 95
167 189 80
165 189 99
169 193 99
169 192 117
168 191 95
168 191 108
171 193 102
167 189 88
158 181 92
168 191 105
169 192 105
170 192 76
166 189 92
159 181 84
166 188 111
166 188 84
162 184 72
163 186 92
166 188 108
167 190 95
169 191 88
169 192 125
163 185 80
166 189 99
166 188 92
159 181 95
165 187 108
167 189 114
165 187 102
161 184 88
159 181 76
158 181 72
164 186 99
159 182 88
158 180 102
164 186 84
159 181 92
160 181 95
169 191 108
161 182 92
166 188 105
164 185 95
153 175 76
166 188 99
166 187 95
167 189 102
157 179 92
168 189 111
149 170 80
162 182 92
166 187 102
160 182 105
161 182 111
154 175 99
160 180 76
160 182 111
165 185 114
161 182 92
161 181 99
159 179 92
155 176 80
155 175 84
161 181 108
160 180 105
164 185 111
156 177 76
154 175 84
156 176 108
160 180 102
155 176 88
163 184 102
158 178 76
155 175 95
151 171 76
155 175 67
154 174 84
156 176 84
152 173 67
159 179 62
156 177 72
150 171 62
151 171 62
144 166 36
156 177 62
151 172 72
153 174 44
144 165 25
148 169 44
156 175 51
141 162 0
147 169 25
151 174 44
150 171 25
150 172 36
147 168 0
156 177 0
156 177 25
156 178 0
153 176 0
153 176 0
147 168 0
145 167 25
155 177 0
152 174 0
152 174 0
154 176 0
154 176 0
148 171 0
156 178 0
155 177 0
149 170 0
142 163 0
143 165 0
147 169 0
144 165 0
147 168 0
146 167 0
136 156 0
144 164 0
138 159 0
128 148 0
135 155 0
142 164 0
141 162 0
133 154 0
148 169 0
142 163 0
138 158 0
128 149 0
142 163 0
141 161 0
139 160 0
142 163 0
140 161 0
126 147 0
135 156 0
132 153 0
137 157 0
136 157 0
139 160 0
137 159 0
138 159 0
130 150 0
136 157 0
128 149 0
135 156 0
127 148 0
144 165 0
144 167 0
140 160 0
139 160 0
134 154 0
139 159 0
138 157 0
131 152 0
138 159 0
145 165 0
134 154 0
134 155 0
133 154 0
131 153 0
143 163 0
131 151 0
130 149 0
145 165 0
146 167 0
138 159 0
138 160 0
134 155 0
138 160 0
132 152 0
143 164 0
142 162 0
138 159 0
145 166 0
136 157 0
138 159 0
140 161 0
139 160 0
137 158 0
136 157 0
147 169 0
139 161 0
142 162 0
139 160 0
135 155 0
138 159 0
141 162 0
140 161 0
140 161 0
140 161 0
146 166 0
143 163 0
141 163 0
135 155 0
131 153 0
135 156 0
140 162 0
146 167 0
148 170 0
135 156 0
140 160 0
147 170 0
140 162 0
141 163 0
143 164 0
140 160 0
149 171 0
146 166 0
156 178 0
147 168 0
156 178 0
153 176 0
150 173 0
150 170 0
155 176 0
150 171 0
151 173 0
151 172 0
145 166 0
142 162 0
149 170 0
152 174 0
148 169 0
158 180 0
151 173 0
146 166 0
148 169 0
152 174 0
153 173 0
148 170 0
153 175 0
152 174 0
142 164 0
157 180 0
150 171 0
150 173 0
158 179 0
153 176 0
154 174 0
156 177 0
151 173 0
154 174 0
149 169 0
158 181 0
155 177 0
150 171 0
154 176 0
155 177 0
155 175 0
157 180 0
139 161 0
155 177 0
154 176 0
156 177 0
155 176 0
159 180 0
156 178 0
153 176 0
152 175 0
151 173 0
159 180 0
162 184 0
156 176 0
157 179 0
153 174 0
150 172 0
159 181 0
161 183 0
155 177 0
154 174 0
160 182 0
161 182 0
155 175 0
159 181 0
163 185 0
157 178 0
162 185 0
155 176 0
166 189 0
166 187 0
155 177 0
157 179 0
166 188 0
159 181 0
158 180 0
158 178 0
158 181 0
165 187 0
158 181 0
158 179 0
165 187 0
166 187 0
159 182 0
163 185 0
159 180 0
164 185 0
161 183 0
166 186 0
157 178 0
162 182 0
167 189 0
158 180 0
161 183 0
164 186 0
163 184 0
161 182 0
158 179 0
162 184 0
169 191 0
161 181 0
160 183 0
164 186 0
167 190 0
164 185 0
159 180 0
164 186 0
162 181 0
163 184 0
165 188 0
164 185 0
164 186 0
165 187 0
164 185 0
165 187 0
163 186 0
161 183 0
163 186 0
167 188 0
164 186 0
166 188 0
169 190 0
165 186 0
166 188 0
171 194 0
168 190 0
164 186 0
165 188 0
160 181 0
167 188 0
163 184 0
166 187 0
166 189 0
169 191 0
165 187 0
166 189 0
163 186 0
167 189 0
165 187 0
165 187 0
165 187 0
166 188 0
162 184 0
167 190 0
166 187 0
168 191 0
163 184 0
162 183 0
164 186 0
169 191 0
167 190 0
165 186 0
167 189 0
165 188 0
168 190 0
166 189 0
173 195 84
172 195 84
177 200 95
175 198 95
173 195 108
172 194 92
175 198 99
169 192 67
169 191 95
174 197 80
173 196 95
174 197 102
174 197 99
171 194 102
171 194 88
171 194 99
172 196 108
174 197 111
167 189 88
174 196 80
172 195 105
167 190 92
168 190 95
169 193 84
170 193 108
169 192 95
174 197 114
171 194 92
170 193 76
165 188 80
172 194 102
169 192 105
166 189 95
171 193 102
166 189 80
172 195 105
169 192 99
168 191 84
166 188 95
160 183 80
160 182 92
170 192 105
172 195 120
163 186 80
167 190 99
167 190 80
167 189 99
165 188 92
170 193 99
167 189 62
168 190 95
158 181 88
165 188 84
162 184 80
159 182 99
167 189 114
158 180 92
156 179 84
159 181 105
164 187 99
159 181 92
165 188 102
170 192 114
166 188 84
165 186 105
158 181 84
168 190 111
162 185 120
167 188 108
162 184 95
156 178 92
169 190 80
164 186 99
154 176 102
158 179 76
162 184 111
161 184 105
164 185 108
159 180 99
157 178 102
164 184 102
155 176 84
161 182 84
166 186 105
157 178 99
150 171 67
165 186 92
157 178 95
163 184 84
163 184 105
159 180 99
161 181 99
157 179 72
155 175 95
154 176 80
155 175 76
168 188 114
156 177 67
160 181 92
157 178 80
158 179 84
161 181 88
161 180 92
156 177 80
162 183 80
156 177 76
155 176 80
153 174 76
161 180 92
158 179 84
161 181 92
152 171 62
152 173 57
152 173 57
147 168 67
152 172 80
151 172 51
155 176 67
156 176 72
147 168 51
148 170 25
146 168 36
155 177 25
154 175 36
149 170 44
145 167 0
143 165 25
161 182 51
156 179 0
152 174 44
147 169 0
155 175 25
149 171 0
162 184 0
155 176 0
150 173 0
146 168 0
150 171 0
148 170 0
143 164 0
149 170 0
145 166 0
147 168 0
146 169 0
140 162 0
148 170 0
148 170 0
151 173 0
144 164 0
140 161 0
136 158 0
145 167 0
138 160 0
136 157 0
145 166 0
144 164 0
141 162 0
140 161 0
140 161 0
135 156 0
141 163 0
140 162 0
143 164 0
143 163 0
131 151 0
133 154 0
141 163 0
137 157 0
136 156 0
137 157 0
136 157 0
131 152 0
141 161 0
132 153 0
135 156 0
132 153 0
137 159 0
138 159 0
142 164 0
134 155 0
146 167 0
144 164 0
140 161 0
136 157 0
144 165 0
138 158 0
135 156 0
136 156 0
138 159 0
146 167 0
140 161 0
139 160 0
133 154 0
136 156 0
140 161 0
148 170 0
131 152 0
139 160 0
133 154 0
140 161 0
140 160 0
139 161 0
143 164 0
137 158 0
137 159 0
139 159 0
134 154 0
147 168 0
125 145 0
144 166 0
151 171 0
138 159 0
140 161 0
138 159 0
149 170 0
145 166 0
137 157 0
140 161 0
136 157 0
138 158 0
153 174 0
144 166 0
143 163 0
146 168 0
144 165 0
148 170 0
136 156 0
140 162 0
147 169 0
137 158 0
152 174 0
152 175 0
144 164 0
143 164 0
156 177 0
148 170 0
142 163 0
132 152 0
148 168 0
146 169 0
147 168 0
147 169 0
149 171 0
145 167 0
152 174 0
152 172 0
142 164 0
163 185 0
156 176 0
148 171 0
146 169 0
150 171 0
143 165 0
151 173 0
152 173 0
151 172 0
150 172 0
149 170 0
152 174 0
151 173 0
156 178 0
152 172 0
147 168 0
155 176 0
145 167 0
146 168 0
155 177 0
152 174 0
151 172 0
151 173 0
155 177 0
152 174 0
147 169 0
152 174 0
157 178 0
152 175 0
155 176 0
152 175 0
159 181 0
154 175 0
155 178 0
157 179 0
159 179 0
156 177 0
158 180 0
160 183 0
157 178 0
155 177 0
157 177 0
152 173 0
146 167 0
157 179 0
161 183 0
155 177 0
162 184 0
154 175 0
161 183 0
159 182 0
158 180 0
161 183 0
162 185 0
159 181 0
164 186 0
161 183 0
153 175 0
159 181 0
160 183 0
158 179 0
156 177 0
157 180 0
153 175 0
162 185 0
164 186 0
161 183 0
160 181 0
168 191 0
164 187 0
160 181 0
154 175 0
161 183 0
164 187 0
160 182 0
159 182 0
165 186 0
161 181 0
160 182 0
160 181 0
159 180 0
156 179 0
161 184 0
160 182 0
162 183 0
163 186 0
167 190 0
165 186 0
165 187 0
163 185 0
163 186 0
165 188 0
159 181 0
162 185 0
169 191 0
157 177 0
165 188 0
162 184 0
168 190 0
164 186 0
164 185 0
163 185 0
161 183 0
164 188 0
166 187 0
166 188 0
170 193 0
165 186 0
167 190 0
165 188 0
160 181 0
167 189 0
160 182 0
158 179 0
164 186 0
166 188 0
165 188 0
167 189 0
167 188 0
163 185 0
166 187 0
163 185 0
165 187 0
164 186 0
167 189 0
164 185 0
168 191 0
164 186 0
165 188 0
165 188 0
162 184 0
165 186 0
164 187 0
170 193 0
164 185 0
165 187 0
166 188 0
167 189 0
166 189 0
165 188 0
169 192 0
170 192 0
165 186 0
166 189 0
164 186 0
169 191 0
167 188 0
166 188 0
167 189 0
164 187 0
167 188 0
167 190 0
164 186 0
172 195 107
175 198 105
178 199 99
172 194 105
174 196 80
173 196 95
174 197 72
173 195 111
176 199 99
170 193 88
172 194 84
172 194 102
174 196 111
172 195 95
169 192 92
172 195 102
169 192 88
173 196 105
164 187 92
166 189 95
167 190 99
170 193 88
163 186 95
163 187 92
167 190 99
171 194 102
167 189 88
168 191 105
163 186 88
170 193 88
174 196 108
172 196 111
171 194 105
171 193 88
171 193 122
168 191 84
164 187 80
167 191 105
169 191 105
169 192 102
163 184 76
169 192 84
171 195 92
169 192 84
164 186 92
168 191 105
172 195 125
171 193 95
165 189 99
165 189 95
169 192 99
164 187 92
168 190 88
166 189 88
162 184 80
167 189 99
160 182 84
167 190 102
160 182 84
169 192 117
165 186 84
169 191 88
162 185 80
170 192 105
164 187 99
154 176 80
171 192 95
160 181 99
168 190 111
168 189 99
168 190 88
163 184 108
161 183 95
166 189 102
166 187 111
167 188 92
169 191 111
156 177 67
157 179 76
152 173 76
158 179 84
161 183 92
166 187 95
168 189 111
165 187 105
164 185 105
157 178 80
156 176 88
157 178 72
155 176 72
164 184 92
158 179 95
158 180 105
165 185 95
155 176 80
163 184 108
158 179 95
159 180 84
158 179 84
160 181 95
161 182 95
164 184 88
165 185 92
158 179 80
153 175 62
156 177 72
155 175 67
158 179 72
156 177 76
158 179 72
150 171 72
145 164 80
162 183 76
155 176 57
154 176 62
144 166 25
140 160 44
148 168 72
155 176 62
156 178 51
145 166 44
148 170 36
156 178 36
148 170 0
149 170 0
146 167 36
167 188 57
160 183 0
154 176 25
151 173 25
152 174 0
153 176 25
153 175 0
154 175 25
152 173 0
153 174 0
155 176 0
154 176 0
155 177 0
150 173 0
151 173 0
151 172 0
151 173 0
147 168 0
145 167 0
153 175 0
146 168 0
140 162 0
146 167 0
140 162 0
145 167 0
151 172 0
150 171 0
147 168 0
137 158 0
152 173 0
139 161 0
128 149 0
134 154 0
141 162 0
134 155 0
133 155 0
138 159 0
122 142 0
133 155 0
132 154 0
148 169 0
136 156 0
145 166 0
134 155 0
133 154 0
135 156 0
150 172 0
135 156 0
139 160 0
144 165 0
138 158 0
144 166 0
143 164 0
139 160 0
136 157 0
133 154 0
135 156 0
139 159 0
129 151 0
140 160 0
129 150 0
135 156 0
139 160 0
146 168 0
137 158 0
135 155 0
147 167 0
139 161 0
135 156 0
147 168 0
137 157 0
145 166 0
136 158 0
147 168 0
140 160 0
144 164 0
141 162 0
148 170 0
133 154 0
139 160 0
139 159 0
137 158 0
137 158 0
142 164 0
135 155 0
140 161 0
146 167 0
139 161 0
150 170 0
134 155 0
140 160 0
150 171 0
142 163 0
130 151 0
142 163 0
149 169 0
149 171 0
137 158 0
145 166 0
143 164 0
142 163 0
140 161 0
144 164 0
148 171 0
138 160 0
147 168 0
149 172 0
153 175 0
148 170 0
143 163 0
150 171 0
146 167 0
156 178 0
150 171 0
147 168 0
145 167 0
151 174 0
152 174 0
150 170 0
149 170 0
147 168 0
141 163 0
145 167 0
147 169 0
150 171 0
149 171 0
145 165 0
152 172 0
155 176 0
150 172 0
144 165 0
155 178 0
155 177 0
149 171 0
148 171 0
144 165 0
154 175 0
150 171 0
150 171 0
156 178 0
161 184 0
157 178 0
153 173 0
160 181 0
155 177 0
151 172 0
151 173 0
154 176 0
156 177 0
146 169 0
154 175 0
153 176 0
154 177 0
155 177 0
156 178 0
153 176 0
161 183 0
153 175 0
161 183 0
151 174 0
155 176 0
147 168 0
155 178 0
156 177 0
157 179 0
157 181 0
159 183 0
152 173 0
155 177 0
160 182 0
163 185 0
147 169 0
161 183 0
163 185 0
160 182 0
159 179 0
156 177 0
166 188 0
159 180 0
164 186 0
159 180 0
156 178 0
156 179 0
158 180 0
159 181 0
157 179 0
160 183 0
162 184 0
159 182 0
160 182 0
161 183 0
164 185 0
164 187 0
160 181 0
159 182 0
163 185 0
162 183 0
162 185 0
167 189 0
161 183 0
160 182 0
166 187 0
164 186 0
161 183 0
160 182 0
161 182 0
161 182 0
160 181 0
167 190 0
163 186 0
160 182 0
160 182 0
165 185 0
160 180 0
158 181 0
160 182 0
167 188 0
164 185 0
163 183 0
163 184 0
167 189 0
166 189 0
162 183 0
160 181 0
162 184 0
166 189 0
168 190 0
166 189 0
163 185 0
166 188 0
166 188 0
158 179 0
169 192 0
165 185 0
165 187 0
161 183 0
164 185 0
164 186 0
164 186 0
165 188 0
165 188 0
167 188 0
165 186 0
166 189 0
165 189 0
165 187 0
170 193 0
166 186 0
164 186 0
166 189 0
165 187 0
168 190 0
166 187 0
166 189 0
166 187 0
168 191 0
165 186 0
170 193 0
167 187 0
165 187 0
165 187 0
166 188 0
162 184 0
167 188 0
167 190 0
166 189 0
167 190 0
170 192 0
164 187 0
169 191 0
163 185 0
166 189 0
169 190 0
167 189 0
169 191 97
170 192 78
176 199 111
174 196 108
173 196 88
174 196 120
172 195 88
167 190 72
173 195 95
170 194 114
171 194 108
173 196 108
167 190 94
169 192 84
173 196 102
174 196 99
173 195 95
170 193 99
175 198 99
170 193 111
175 197 114
169 192 57
170 193 92
175 198 105
171 193 92
168 192 90
170 192 84
171 194 99
168 190 108
170 193 105
177 200 117
168 191 102
167 191 95
169 192 105
169 192 84
167 189 92
165 187 88
168 190 108
165 188 99
167 190 99
166 189 105
168 191 80
168 190 108
167 190 102
168 191 108
164 187 80
166 189 99
170 193 114
163 186 80
163 186 84
163 185 102
168 191 102
172 194 117
167 190 122
164 187 120
166 189 88
159 181 95
164 186 95
161 184 62
167 189 105
160 183 92
167 190 102
168 190 108
164 185 95
163 185 102
154 175 92
168 189 99
170 193 102
166 187 88
162 183 99
167 189 114
164 186 84
161 183 84
163 184 102
158 181 84
167 189 105
158 179 76
159 182 105
147 168 84
172 194 95
166 187 108
167 188 102
169 191 130
159 180 92
159 180 84
161 183 80
159 181 95
158 179 76
152 174 88
158 178 80
162 183 88
156 177 84
150 171 92
169 190 114
157 179 105
165 186 102
159 179 95
152 174 72
152 172 92
153 173 88
158 178 76
156 178 72
161 182 88
159 180 88
159 179 92
159 179 88
153 173 88
162 182 76
154 175 72
161 181 80
153 173 72
155 176 67
152 173 51
151 172 67
154 175 80
150 171 44
155 176 76
153 174 67
160 181 62
148 171 36
153 176 51
158 180 44
155 177 44
155 176 36
156 178 25
153 175 36
153 175 25
151 173 36
159 181 0
143 165 25
160 183 25
155 178 0
153 176 0
148 171 0
156 178 0
156 179 25
149 170 0
154 175 0
154 177 0
150 172 0
151 173 0
144 166 0
149 171 0
143 164 0
150 172 0
148 170 0
143 164 0
140 161 0
149 171 0
144 165 0
140 161 0
137 157 0
142 164 0
135 156 0
145 166 0
135 156 0
137 159 0
142 164 0
142 163 0
136 157 0
144 166 0
139 160 0
138 159 0
140 162 0
142 163 0
142 162 0
136 156 0
136 157 0
130 151 0
135 157 0
134 153 0
139 159 0
141 161 0
136 156 0
142 163 0
148 170 0
138 159 0
137 158 0
135 155 0
138 159 0
136 157 0
129 150 0
145 166 0
143 164 0
135 157 0
128 150 0
130 150 0
139 160 0
143 164 0
138 160 0
140 160 0
141 160 0
145 166 0
144 165 0
143 165 0
143 165 0
146 167 0
142 163 0
137 158 0
138 159 0
132 152 0
143 164 0
138 160 0
142 163 0
136 157 0
146 167 0
140 161 0
138 158 0
143 164 0
134 155 0
145 167 0
137 159 0
145 166 0
147 168 0
141 162 0
150 171 0
136 156 0
138 159 0
142 164 0
145 166 0
141 163 0
137 156 0
147 168 0
142 163 0
147 169 0
152 174 0
142 164 0
138 159 0
147 168 0
155 176 0
146 168 0
141 162 0
140 161 0
150 171 0
143 164 0
154 176 0
141 163 0
144 165 0
155 178 0
154 176 0
139 161 0
147 170 0
150 173 0
157 179 0
149 169 0
149 170 0
149 170 0
145 166 0
150 173 0
144 164 0
154 176 0
143 165 0
142 165 0
153 174 0
145 167 0
151 173 0
151 175 0
152 173 0
153 174 0
151 173 0
150 172 0
157 179 0
157 178 0
152 174 0
156 178 0
151 173 0
154 176 0
152 172 0
149 170 0
160 182 0
149 171 0
151 172 0
154 175 0
153 175 0
154 176 0
156 179 0
150 171 0
158 180 0
157 179 0
158 180 0
160 183 0
153 175 0
152 174 0
151 171 0
157 179 0
161 183 0
160 181 0
155 176 0
154 174 0
162 185 0
155 176 0
153 175 0
157 180 0
148 170 0
160 182 0
157 178 0
162 183 0
161 184 0
161 182 0
161 183 0
151 172 0
156 179 0
161 183 0
156 178 0
154 176 0
155 177 0
162 183 0
156 178 0
159 179 0
165 188 0
164 187 0
164 186 0
159 181 0
158 179 0
161 183 0
158 180 0
164 188 0
158 181 0
160 183 0
157 179 0
159 182 0
162 183 0
163 183 0
161 184 0
160 182 0
162 184 0
162 183 0
164 187 0
166 188 0
156 177 0
159 182 0
162 184 0
159 181 0
161 182 0
160 182 0
162 185 0
159 180 0
164 186 0
161 183 0
160 182 0
162 185 0
161 182 0
164 186 0
157 179 0
165 186 0
162 184 0
162 183 0
159 181 0
164 185 0
161 182 0
165 186 0
166 188 0
168 188 0
164 187 0
166 186 0
162 184 0
160 182 0
164 187 0
166 188 0
164 186 0
167 189 0
166 189 0
163 186 0
167 189 0
163 185 0
164 187 0
163 185 0
163 184 0
165 187 0
167 190 0
165 188 0
163 185 0
165 187 0
167 189 0
168 190 0
164 186 0
164 187 0
168 191 0
167 189 0
169 191 0
169 192 0
166 188 0
169 191 0
168 190 0
163 185 0
164 186 0
166 186 0
167 190 0
171 194 0
166 189 0
164 188 0
169 191 0
170 193 0
166 189 0
164 185 0
162 186 0
165 187 0
165 187 0
168 190 0
169 190 0
173 196 99
169 193 94
175 197 99
173 196 95
170 192 88
176 198 102
174 197 88
173 195 105
169 192 72
170 193 99
174 197 99
170 194 95
172 195 84
176 198 108
170 193 111
168 190 76
173 196 108
170 192 84
169 193 84
172 194 77
175 198 102
172 194 114
169 192 99
169 192 102
168 191 80
165 187 92
167 189 76
157 179 80
174 197 111
168 192 92
170 193 95
171 194 111
168 191 95
165 188 92
168 192 88
171 193 105
163 186 80
169 192 88
165 187 95
171 193 84
170 193 95
167 190 108
168 191 108
166 189 84
161 184 76
166 190 105
168 190 105
169 192 114
163 187 117
159 181 76
167 191 84
169 192 99
165 186 84
166 189 95
169 192 84
171 193 108
159 182 92
163 185 72
164 186 67
158 179 80
162 184 88
158 180 102
159 181 99
160 182 95
165 187 108
166 188 111
164 186 99
157 179 92
168 190 111
164 186 88
159 180 92
167 188 99
163 184 80
166 187 92
158 180 99
170 191 99
159 181 88
163 185 92
158 180 72
156 178 72
164 185 84
164 185 95
166 187 102
167 187 105
157 178 80
158 180 84
161 181 105
163 184 80
159 180 99
162 182 92
152 172 80
159 180 92
161 182 99
154 175 67
156 176 84
161 182 99
161 181 88
158 179 88
157 178 95
166 186 117
156 176 92
153 174 84
149 171 72
157 179 84
156 177 72
156 177 80
158 178 76
150 170 67
154 174 72
155 176 67
158 179 80
154 176 84
156 178 76
149 170 57
150 170 44
157 178 76
147 168 51
150 172 57
153 174 62
158 180 44
158 180 0
152 175 36
158 179 51
153 174 25
159 182 36
149 171 36
151 173 36
158 180 36
153 175 36
156 177 25
150 171 0
155 177 25
157 178 0
155 177 0
155 177 0
158 180 0
154 176 0
147 170 0
155 177 0
149 171 0
152 175 0
143 166 0
141 162 0
143 164 0
145 166 0
157 178 0
154 174 0
148 170 0
144 165 0
147 168 0
150 172 0
133 155 0
139 161 0
154 175 0
141 162 0
141 162 0
139 160 0
137 158 0
141 161 0
148 170 0
138 160 0
137 159 0
142 163 0
132 154 0
140 162 0
140 161 0
133 154 0
142 163 0
130 152 0
142 163 0
144 164 0
143 164 0
135 155 0
138 159 0
142 164 0
146 167 0
140 162 0
130 151 0
133 154 0
145 167 0
141 162 0
138 160 0
142 162 0
138 160 0
142 164 0
144 164 0
125 148 0
140 162 0
133 154 0
147 169 0
139 161 0
142 162 0
137 158 0
145 166 0
140 162 0
130 152 0
137 158 0
138 160 0
143 163 0
135 156 0
154 175 0
135 156 0
142 163 0
141 162 0
142 164 0
143 164 0
153 174 0
144 165 0
139 160 0
151 172 0
133 153 0
147 167 0
140 160 0
143 163 0
137 158 0
141 162 0
151 172 0
138 160 0
143 164 0
140 162 0
143 164 0
143 165 0
144 165 0
148 170 0
153 174 0
136 158 0
148 170 0
140 162 0
150 171 0
147 168 0
142 163 0
148 169 0
148 169 0
151 174 0
143 166 0
154 176 0
144 166 0
142 164 0
145 165 0
151 173 0
143 165 0
151 173 0
148 170 0
150 172 0
146 167 0
146 168 0
147 169 0
153 176 0
148 170 0
157 180 0
145 168 0
156 179 0
155 176 0
157 178 0
151 174 0
144 164 0
156 178 0
154 176 0
157 180 0
153 175 0
156 178 0
154 177 0
152 174 0
158 180 0
155 176 0
153 175 0
150 172 0
154 175 0
153 176 0
152 174 0
149 172 0
158 180 0
155 177 0
155 176 0
160 182 0
155 178 0
154 174 0
154 174 0
159 180 0
147 169 0
157 179 0
156 177 0
154 176 0
158 180 0
156 179 0
152 174 0
156 177 0
154 175 0
154 177 0
157 177 0
160 183 0
160 182 0
158 180 0
151 172 0
153 176 0
158 179 0
155 178 0
161 185 0
151 172 0
148 169 0
158 182 0
155 177 0
155 176 0
155 177 0
161 182 0
159 181 0
163 185 0
162 184 0
162 184 0
164 186 0
159 180 0
163 185 0
157 179 0
159 181 0
159 181 0
160 181 0
155 177 0
159 182 0
158 180 0
156 179 0
163 185 0
161 184 0
163 184 0
155 176 0
167 188 0
163 185 0
164 187 0
158 181 0
162 184 0
162 183 0
160 182 0
162 184 0
162 185 0
160 181 0
156 179 0
159 182 0
157 178 0
160 183 0
167 189 0
159 180 0
161 182 0
167 189 0
159 180 0
159 182 0
165 187 0
160 182 0
164 187 0
168 190 0
165 187 0
166 189 0
165 187 0
160 181 0
162 184 0
161 183 0
165 188 0
164 186 0
161 183 0
168 191 0
167 190 0
165 187 0
162 186 0
168 190 0
162 184 0
163 184 0
162 182 0
165 187 0
164 186 0
164 187 0
163 186 0
165 186 0
170 193 0
163 185 0
168 189 0
167 189 0
170 193 0
168 190 0
160 182 0
166 189 0
162 184 0
168 191 0
165 187 0
163 187 0
167 190 0
166 186 0
169 191 0
167 189 0
171 192 0
169 192 0
162 183 0
169 192 0
166 189 0
168 190 0
165 188 0
164 186 0
164 185 0
165 187 0
165 187 0
165 187 0
165 188 0
164 186 0
169 193 84
174 197 97
173 196 99
170 192 110
172 194 108
170 193 76
174 197 108
174 197 108
170 193 92
172 195 99
173 197 95
174 196 111
173 196 88
174 196 111
168 191 80
174 196 105
169 192 76
172 195 80
171 194 105
172 196 88
168 191 99
167 189 84
174 197 111
175 196 105
172 195 105
170 193 88
168 191 84
167 190 84
172 195 105
170 193 99
169 191 108
170 192 84
167 190 99
171 194 111
164 186 105
167 190 105
164 187 88
169 192 84
171 194 88
169 191 88
164 186 95
169 191 108
167 189 92
167 191 114
164 188 84
165 189 102
161 184 95
166 188 108
170 192 76
159 181 88
172 195 117
174 197 130
167 190 95
171 193 88
168 190 108
162 185 92
167 189 95
166 188 108
171 193 108
164 187 95
168 190 105
155 177 76
164 186 95
169 191 95
165 188 92
164 184 88
156 178 88
160 182 80
165 186 95
168 190 117
154 175 92
165 187 67
162 184 92
159 181 80
163 185 99
159 180 88
159 180 84
160 180 95
162 183 92
170 191 102
167 189 99
163 184 99
158 179 80
167 188 114
162 181 88
163 184 105
158 179 88
149 170 67
160 181 95
163 184 102
168 190 114
160 181 72
162 184 99
166 187 92
159 180 84
159 180 72
165 186 92
158 178 92
157 178 88
164 184 88
169 189 102
162 182 102
151 172 95
155 176 92
154 175 72
155 176 62
153 174 92
164 185 80
155 177 57
148 168 62
155 175 62
151 172 62
162 183 80
158 180 44
152 173 67
153 175 57
154 175 36
153 173 62
154 174 51
155 176 25
151 173 36
147 170 25
146 168 25
147 168 25
156 177 25
149 170 0
148 170 0
155 179 0
158 180 51
160 182 0
153 174 36
148 171 0
155 177 25
157 180 0
154 176 0
150 174 0
146 170 0
156 178 0
155 177 0
154 176 0
156 177 0
151 172 0
152 175 0
150 172 0
146 169 0
148 169 0
144 165 0
156 177 0
151 172 0
140 161 0
139 160 0
144 166 0
147 169 0
142 163 0
144 165 0
140 161 0
139 159 0
145 167 0
131 150 0
131 152 0
141 162 0
135 156 0
139 160 0
152 173 0
139 160 0
146 168 0
139 160 0
140 160 0
132 153 0
138 158 0
146 167 0
137 157 0
136 156 0
137 157 0
136 157 0
141 162 0
152 173 0
142 163 0
149 170 0
141 161 0
138 160 0
133 154 0
133 154 0
140 161 0
151 173 0
134 155 0
140 161 0
142 162 0
134 156 0
134 155 0
146 167 0
143 165 0
140 161 0
145 167 0
140 161 0
151 173 0
148 169 0
146 168 0
138 159 0
145 166 0
129 150 0
139 161 0
134 156 0
136 157 0
144 166 0
148 169 0
142 163 0
142 162 0
142 163 0
143 164 0
150 170 0
150 172 0
137 157 0
140 161 0
144 166 0
157 179 0
136 157 0
139 160 0
146 168 0
145 166 0
135 155 0
141 161 0
147 168 0
130 152 0
137 158 0
149 169 0
141 162 0
144 166 0
144 164 0
151 172 0
143 165 0
149 171 0
157 179 0
151 173 0
146 167 0
151 173 0
143 165 0
152 174 0
150 171 0
155 177 0
143 164 0
153 175 0
147 169 0
148 169 0
145 166 0
143 165 0
149 171 0
151 172 0
149 170 0
154 175 0
157 179 0
149 169 0
150 172 0
151 173 0
154 175 0
159 180 0
140 161 0
154 177 0
152 174 0
151 172 0
149 172 0
158 180 0
159 182 0
153 175 0
151 172 0
154 175 0
161 183 0
157 180 0
151 173 0
154 176 0
147 169 0
153 176 0
150 173 0
151 172 0
153 175 0
148 169 0
159 182 0
154 175 0
154 176 0
154 175 0
158 180 0
152 173 0
162 184 0
159 180 0
153 175 0
155 177 0
151 174 0
154 176 0
159 182 0
158 178 0
164 186 0
160 183 0
158 180 0
152 173 0
156 177 0
158 179 0
157 179 0
156 178 0
156 178 0
156 178 0
160 182 0
157 179 0
157 179 0
153 175 0
158 180 0
158 181 0
159 180 0
161 184 0
155 177 0
163 186 0
157 180 0
163 185 0
159 182 0
161 183 0
164 187 0
159 180 0
160 181 0
160 183 0
155 176 0
162 183 0
164 183 0
153 175 0
161 183 0
165 186 0
161 183 0
163 186 0
161 183 0
158 181 0
163 185 0
163 184 0
161 183 0
164 186 0
156 178 0
161 182 0
160 184 0
157 179 0
163 185 0
165 186 0
160 182 0
155 177 0
165 188 0
160 183 0
165 187 0
163 185 0
162 185 0
165 187 0
161 184 0
164 187 0
164 186 0
164 186 0
162 185 0
167 190 0
165 186 0
163 186 0
170 191 0
169 191 0
159 181 0
163 183 0
162 183 0
161 182 0
159 180 0
166 188 0
167 189 0
167 188 0
160 181 0
167 189 0
167 188 0
167 190 0
159 181 0
163 185 0
164 187 0
165 187 0
163 185 0
167 190 0
164 186 0
166 189 0
164 186 0
170 192 0
166 189 0
167 189 0
167 189 0
169 191 0
166 189 0
164 186 0
163 184 0
168 191 0
162 185 0
166 189 0
166 188 0
165 187 0
167 189 0
167 189 0
169 191 0
162 185 0
162 186 0
167 188 0
168 190 0
165 188 0
165 188 0
169 189 0
173 195 110
172 195 100
171 193 95
173 196 103
171 194 76
168 191 105
174 197 107
176 198 120
172 195 88
173 195 102
170 193 84
174 196 120
178 201 108
173 195 99
174 196 80
169 192 95
166 190 102
168 191 92
175 197 92
176 198 117
175 197 114
173 195 105
174 197 111
171 194 95
166 190 92
172 194 88
171 194 92
170 192 84
165 189 99
166 190 88
173 196 99
174 196 92
167 190 92
166 189 108
166 188 76
171 193 105
161 183 92
170 192 102
173 196 99
170 193 108
170 192 92
168 191 108
169 190 72
169 191 99
164 187 80
169 192 122
167 188 99
173 194 80
170 191 92
159 180 72
165 188 102
168 191 95
174 196 114
165 187 84
159 181 84
166 188 102
161 183 92
165 186 80
170 193 105
165 188 84
163 184 108
164 186 105
158 180 92
163 185 95
162 183 88
169 192 105
167 188 99
160 181 62
165 187 88
161 182 88
161 182 76
166 187 80
162 184 105
163 185 105
168 189 80
165 186 105
162 183 92
169 190 111
159 180 95
160 182 92
165 186 95
165 186 92
160 180 80
160 181 95
159 181 92
170 190 84
166 187 84
162 182 95
161 182 80
162 183 76
158 180 102
157 178 72
163 183 84
158 180 92
153 174 95
161 181 88
160 182 102
168 189 95
148 169 76
160 180 95
160 181 88
161 182 72
149 170 88
161 181 84
161 182 76
156 176 67
164 185 84
159 180 88
164 185 67
151 173 62
149 170 57
154 175 62
152 173 44
155 176 62
156 177 62
160 181 67
153 174 44
155 176 44
152 174 44
149 171 25
153 175 25
150 172 36
160 182 44
150 172 36
153 175 0
147 169 25
157 178 25
151 174 0
154 176 0
161 183 25
152 174 0
158 181 25
153 176 0
153 175 0
152 174 0
150 170 0
154 176 0
160 184 0
153 176 0
152 175 0
153 176 0
149 171 0
148 170 0
151 172 0
147 169 0
146 167 0
144 166 0
149 170 0
150 170 0
135 158 0
146 167 0
149 171 0
136 157 0
146 167 0
140 163 0
138 159 0
145 165 0
141 162 0
130 151 0
138 158 0
141 163 0
144 165 0
150 171 0
135 156 0
145 166 0
141 162 0
139 160 0
134 155 0
148 169 0
145 165 0
138 159 0
150 172 0
137 158 0
137 158 0
132 154 0
147 169 0
136 157 0
138 160 0
136 158 0
155 177 0
135 156 0
147 168 0
145 167 0
140 160 0
134 155 0
140 161 0
143 165 0
149 171 0
134 155 0
143 164 0
129 150 0
132 153 0
132 153 0
137 157 0
138 159 0
146 167 0
142 164 0
138 158 0
136 157 0
147 168 0
140 161 0
139 161 0
143 165 0
130 151 0
141 162 0
143 164 0
138 160 0
143 164 0
150 171 0
140 163 0
140 161 0
145 168 0
132 153 0
138 159 0
148 170 0
154 175 0
138 159 0
146 167 0
141 161 0
137 159 0
148 170 0
147 168 0
143 164 0
151 173 0
149 169 0
139 161 0
139 160 0
144 167 0
145 167 0
147 168 0
135 156 0
147 169 0
151 171 0
151 172 0
145 167 0
150 173 0
150 172 0
146 168 0
148 169 0
149 170 0
151 172 0
150 173 0
147 168 0
149 170 0
147 169 0
140 162 0
150 172 0
144 166 0
152 174 0
152 174 0
148 170 0
153 174 0
156 178 0
151 172 0
152 173 0
154 176 0
152 175 0
153 175 0
153 176 0
148 169 0
152 173 0
152 173 0
149 170 0
152 175 0
153 175 0
145 166 0
153 175 0
159 180 0
154 176 0
152 174 0
161 183 0
153 174 0
154 175 0
154 177 0
157 179 0
157 177 0
158 181 0
152 173 0
151 173 0
160 180 0
150 171 0
156 178 0
159 180 0
154 175 0
157 179 0
160 183 0
152 173 0
158 180 0
159 183 0
164 186 0
156 177 0
150 172 0
162 183 0
146 168 0
158 179 0
149 171 0
157 178 0
154 176 0
156 178 0
152 174 0
158 182 0
163 185 0
161 182 0
163 187 0
163 185 0
154 176 0
158 179 0
165 188 0
161 183 0
152 174 0
158 180 0
155 177 0
156 178 0
158 180 0
163 184 0
160 183 0
160 181 0
161 182 0
164 186 0
155 177 0
163 185 0
166 189 0
160 182 0
161 182 0
164 186 0
164 186 0
160 182 0
166 187 0
160 183 0
164 186 0
160 183 0
163 185 0
159 181 0
163 185 0
161 184 0
160 183 0
165 187 0
160 182 0
164 186 0
164 185 0
164 187 0
167 188 0
161 182 0
163 185 0
161 185 0
159 181 0
163 184 0
166 189 0
167 189 0
164 186 0
160 182 0
162 184 0
161 182 0
164 186 0
167 189 0
166 189 0
162 183 0
163 184 0
164 185 0
162 184 0
159 182 0
168 190 0
166 188 0
162 184 0
169 192 0
162 184 0
166 189 0
165 188 0
168 190 0
158 180 0
168 190 0
165 187 0
163 184 0
166 188 0
171 193 0
167 189 0
166 189 0
163 187 0
168 188 0
166 188 0
164 187 0
167 189 0
167 189 0
167 189 0
164 187 0
167 189 0
165 186 0
168 189 0
167 190 0
168 190 0
168 190 0
169 192 0
164 186 0
168 191 0
166 188 0
169 193 0
164 186 0
165 186 0
167 190 0
167 191 0
